;FLAVOR:UltiGCode
;TIME:504
;MATERIAL:963
;MATERIAL2:0
;NOZZLE_DIAMETER:0.4
;MINX:101.465
;MINY:102.45
;MINZ:0.27
;MAXX:121.565
;MAXY:120.55
;MAXZ:13.87
;Generated with Cura_SteamEngine 4.6.1
M82 ;absolute extrusion mode

G92 E0
G92 E0
G10
;LAYER_COUNT:69
;LAYER:0
M107
G0 F4500 X114.64 Y112.95 Z0.27
;TYPE:SUPPORT
G11
G1 F2400 X121.564 Y112.95 E0.65432
G1 X121.565 Y120.525 E1.37016
G1 X121.55 Y120.54 E1.37216
G1 X121.313 Y120.54 E1.39456
G1 X121.303 Y120.55 E1.39589
G1 X114.641 Y120.55 E2.02545
G1 X114.64 Y112.95 E2.74365
G0 F4500 X115.5 Y113.09
G1 F2400 X115.5 Y120.41 E3.43539
G0 F4500 X114.779 Y119
G1 F2400 X121.424 Y119 E4.06334
G0 F4500 X119 Y120.41
G1 F2400 X119 Y113.09 E4.75508
G0 F4500 X121.425 Y115.5
G1 F2400 X114.78 Y115.5 E5.38304
G10
;MESH:9f853a58-35b7-4b8a-b364-e28481c13fb4.stl
G0 F4500 X113.265 Y115.5
G0 X104.116 Y114.155
G0 X104.046 Y114.225
;TYPE:WALL-INNER
G11
G1 F2400 X103.775 Y114.225 E5.40865
G1 X103.774 Y102.95 E6.47413
G1 X103.774 Y102.775 E6.49067
G1 X103.949 Y102.775 E6.50137
G1 X113.023 Y102.775 E7.35887
G1 X113.023 Y113.275 E8.35112
G1 X113.265 Y113.275 E8.37399
G1 X113.266 Y120.05 E9.01422
G1 X113.266 Y120.225 E9.03076
G1 X113.091 Y120.225 E9.04146
G1 X103.774 Y120.225 E9.92192
G1 X103.774 Y116.775 E10.24794
G1 X104.045 Y116.775 E10.27355
G1 X104.046 Y114.225 E10.51453
G0 F4500 X103.721 Y114.55
;TYPE:WALL-OUTER
G1 F2400 X103.45 Y114.55 E10.54014
G1 X103.449 Y102.625 E11.66705
G1 X103.449 Y102.45 E11.68359
G1 X103.624 Y102.45 E11.69429
G1 X113.348 Y102.45 E12.61321
G1 X113.348 Y112.95 E13.60546
G1 X113.59 Y112.95 E13.62833
G1 X113.591 Y120.375 E14.32999
G1 X113.591 Y120.55 E14.34653
G1 X113.416 Y120.55 E14.35723
G1 X103.449 Y120.55 E15.29911
G1 X103.449 Y116.45 E15.68656
G1 X103.72 Y116.45 E15.71217
G1 X103.721 Y114.55 E15.89172
G0 F4500 X103.521 Y114.55
G0 X104.115 Y113.885
;TYPE:SKIN
G1 F2400 X104.114 Y103.115 E16.90949
G1 X112.683 Y103.115 E17.71926
G1 X112.683 Y113.615 E18.71151
G1 X112.925 Y113.615 E18.73438
G1 X112.926 Y119.885 E19.32689
G1 X104.114 Y119.885 E20.15962
G1 X104.114 Y117.115 E20.42139
G1 X104.385 Y117.115 E20.447
G1 X104.386 Y113.885 E20.75223
G1 X104.115 Y113.885 E20.77784
G0 F4500 X104.383 Y119.727
G1 F2400 X104.27 Y119.614 E20.79295
G0 F4500 X104.27 Y119.119
G1 F2400 X104.878 Y119.727 E20.8742
G0 F4500 X105.373 Y119.727
G1 F2400 X104.27 Y118.624 E21.02161
G0 F4500 X104.27 Y118.129
G1 F2400 X105.868 Y119.727 E21.23517
G0 F4500 X106.363 Y119.727
G1 F2400 X104.27 Y117.634 E21.51489
G0 F4500 X104.402 Y117.271
G1 F2400 X106.857 Y119.727 E21.84305
G0 F4500 X107.352 Y119.727
G1 F2400 X104.542 Y116.916 E22.21865
G0 F4500 X104.542 Y116.421
G1 F2400 X107.847 Y119.727 E22.66041
G0 F4500 X108.342 Y119.727
G1 F2400 X104.542 Y115.926 E23.16832
G0 F4500 X104.542 Y115.431
G1 F2400 X108.837 Y119.727 E23.74238
G0 F4500 X109.332 Y119.727
G1 F2400 X104.542 Y114.936 E24.3826
G0 F4500 X104.542 Y114.441
G1 F2400 X109.827 Y119.727 E25.08897
G0 F4500 X110.322 Y119.727
G1 F2400 X104.542 Y113.946 E25.8615
G0 F4500 X104.322 Y113.726
G1 F2400 X104.271 Y113.675 E25.86831
G0 F4500 X104.271 Y113.18
G1 F2400 X110.817 Y119.727 E26.74321
G0 F4500 X111.312 Y119.727
G1 F2400 X104.271 Y112.685 E27.68426
G0 F4500 X104.271 Y112.19
G1 F2400 X111.807 Y119.727 E28.69146
G0 F4500 X112.302 Y119.727
G1 F2400 X104.271 Y111.696 E29.76475
G0 F4500 X104.271 Y111.201
G1 F2400 X112.769 Y119.699 E30.90045
G0 F4500 X112.769 Y119.204
G1 F2400 X104.271 Y110.706 E32.03615
G0 F4500 X104.271 Y110.211
G1 F2400 X112.769 Y118.709 E33.17185
G0 F4500 X112.769 Y118.214
G1 F2400 X104.271 Y109.716 E34.30755
G0 F4500 X104.271 Y109.221
G1 F2400 X112.769 Y117.719 E35.44325
G0 F4500 X112.769 Y117.224
G1 F2400 X104.271 Y108.726 E36.57894
G0 F4500 X104.27 Y108.23
G1 F2400 X112.768 Y116.728 E37.71464
G0 F4500 X112.768 Y116.233
G1 F2400 X104.27 Y107.735 E38.85034
G0 F4500 X104.27 Y107.24
G1 F2400 X112.768 Y115.738 E39.98604
G0 F4500 X112.768 Y115.243
G1 F2400 X104.27 Y106.745 E41.12174
G0 F4500 X104.27 Y106.25
G1 F2400 X112.768 Y114.748 E42.25744
G0 F4500 X112.768 Y114.253
G1 F2400 X104.27 Y105.755 E43.39314
G0 F4500 X104.27 Y105.26
G1 F2400 X112.525 Y113.515 E44.49637
G0 F4500 X112.525 Y113.02
G1 F2400 X104.27 Y104.765 E45.59959
G0 F4500 X104.27 Y104.27
G1 F2400 X112.525 Y112.525 E46.70282
G0 F4500 X112.525 Y112.03
G1 F2400 X104.27 Y103.775 E47.80604
G0 F4500 X104.27 Y103.28
G1 F2400 X112.525 Y111.535 E48.90927
G0 F4500 X112.525 Y111.04
G1 F2400 X104.757 Y103.272 E49.94741
G0 F4500 X105.252 Y103.272
G1 F2400 X112.525 Y110.545 E50.91939
G0 F4500 X112.525 Y110.05
G1 F2400 X105.747 Y103.272 E51.82523
G0 F4500 X106.242 Y103.272
G1 F2400 X112.525 Y109.555 E52.66491
G0 F4500 X112.525 Y109.06
G1 F2400 X106.737 Y103.272 E53.43843
G0 F4500 X107.232 Y103.272
G1 F2400 X112.525 Y108.565 E54.14581
G0 F4500 X112.525 Y108.07
G1 F2400 X107.727 Y103.272 E54.78703
G0 F4500 X108.221 Y103.272
G1 F2400 X112.525 Y107.575 E55.36216
G0 F4500 X112.525 Y107.08
G1 F2400 X108.716 Y103.272 E55.87114
G0 F4500 X109.211 Y103.272
G1 F2400 X112.525 Y106.585 E56.31397
G0 F4500 X112.525 Y106.09
G1 F2400 X109.706 Y103.272 E56.69064
G0 F4500 X110.201 Y103.272
G1 F2400 X112.525 Y105.595 E57.00116
G0 F4500 X112.525 Y105.1
G1 F2400 X110.696 Y103.272 E57.24553
G0 F4500 X111.191 Y103.272
G1 F2400 X112.525 Y104.605 E57.42374
G0 F4500 X112.525 Y104.11
G1 F2400 X111.686 Y103.272 E57.5358
G0 F4500 X112.181 Y103.272
G1 F2400 X112.525 Y103.615 E57.58171
G10
;MESH:NONMESH
G0 F600 X112.525 Y103.615 Z0.47
G0 F4500 X113.003 Y112.95
G0 X114.215 Y112.348
G0 X121.564 Y112.95
;TIME_ELAPSED:22.111471
;LAYER:1
M106 S255
;TYPE:SUPPORT
G11
G1 F2910 X119 Y112.95 E57.76119
G1 X119 Y120.55 E58.29319
G1 X121.303 Y120.55 E58.4544
G1 X121.313 Y120.54 E58.45539
G1 X121.55 Y120.54 E58.47198
G1 X121.565 Y120.525 E58.47346
G1 X121.565 Y112.951 E59.00364
G0 F6750 X115.5 Y120.55
G1 F2910 X114.641 Y120.55 E59.06377
G1 X114.64 Y112.95 E59.59577
G1 X115.5 Y112.95 E59.65597
G1 X115.5 Y120.55 E60.18797
G1 X119 Y120.55 E60.43297
G10
;MESH:9f853a58-35b7-4b8a-b364-e28481c13fb4.stl
G0 F6750 X114.794 Y120.21
G0 X113.585 Y120.211
G0 X112.867 Y113.345
G0 X112.937 Y113.275
;TYPE:WALL-INNER
G11
G1 F3210 X113.112 Y113.275 E60.44522
G1 X113.598 Y113.275 E60.47924
G1 X113.599 Y120.05 E60.95349
G1 X113.599 Y120.225 E60.96574
G1 X113.424 Y120.225 E60.97367
G1 X103.638 Y120.225 E61.65869
G1 X103.638 Y116.775 E61.90019
G1 X104.378 Y116.775 E61.95199
G1 X104.379 Y114.4 E62.11824
G1 X104.379 Y114.225 E62.13049
G1 X104.204 Y114.225 E62.13842
G1 X103.639 Y114.225 E62.17797
G1 X103.639 Y102.775 E62.97947
G1 X112.937 Y102.775 E63.63033
G1 X112.938 Y103.318 E63.66834
G1 X112.937 Y113.1 E64.35308
G1 X112.937 Y113.275 E64.361
G0 F6750 X113.262 Y112.95
;TYPE:WALL-OUTER
G1 F2910 X113.437 Y112.95 E64.37325
G1 X113.923 Y112.95 E64.40727
G1 X113.924 Y120.375 E64.92702
G1 X113.924 Y120.55 E64.93927
G1 X113.749 Y120.55 E64.9472
G1 X103.313 Y120.55 E65.67772
G1 X103.313 Y116.45 E65.96472
G1 X104.053 Y116.45 E66.01652
G1 X104.054 Y114.725 E66.13727
G1 X104.054 Y114.55 E66.14952
G1 X103.879 Y114.55 E66.15745
G1 X103.314 Y114.55 E66.197
G1 X103.314 Y102.45 E67.044
G1 X113.262 Y102.45 E67.74036
G1 X113.263 Y103.318 E67.80112
G1 X113.262 Y112.775 E68.46311
G1 X113.262 Y112.95 E68.47104
G0 F6750 X113.437 Y112.95
G0 X113.462 Y112.95
G0 X113.258 Y113.615
;TYPE:SKIN
G1 F2400 X113.259 Y119.885 E68.90994
G1 X103.978 Y119.885 E69.55961
G1 X103.978 Y117.115 E69.75351
G1 X104.718 Y117.115 E69.80531
G1 X104.719 Y113.885 E70.03141
G1 X103.979 Y113.885 E70.08321
G1 X103.979 Y103.115 E70.83711
G1 X112.597 Y103.115 E71.44037
G1 X112.598 Y103.318 E71.45458
G1 X112.597 Y113.615 E72.17537
G1 X113.258 Y113.615 E72.22164
G0 F6750 X113.101 Y119.537
G1 F2400 X112.91 Y119.727 E72.2405
G0 F6750 X112.415 Y119.727
G1 F2400 X113.101 Y119.042 E72.30836
G0 F6750 X113.101 Y118.547
G1 F2400 X111.92 Y119.727 E72.42522
G0 F6750 X111.425 Y119.727
G1 F2400 X113.101 Y118.052 E72.59109
G0 F6750 X113.101 Y117.557
G1 F2400 X110.93 Y119.727 E72.80595
G0 F6750 X110.435 Y119.727
G1 F2400 X113.101 Y117.062 E73.06983
G0 F6750 X113.101 Y116.567
G1 F2400 X109.94 Y119.727 E73.3827
G0 F6750 X109.445 Y119.727
G1 F2400 X113.101 Y116.072 E73.74458
G0 F6750 X113.101 Y115.577
G1 F2400 X108.951 Y119.727 E74.1554
G0 F6750 X108.456 Y119.727
G1 F2400 X113.101 Y115.082 E74.61524
G0 F6750 X113.101 Y114.587
G1 F2400 X107.961 Y119.727 E75.12407
G0 F6750 X107.466 Y119.727
G1 F2400 X113.101 Y114.092 E75.68191
G0 F6750 X112.927 Y113.771
G1 F2400 X106.971 Y119.727 E76.27152
G0 F6750 X106.476 Y119.727
G1 F2400 X112.44 Y113.762 E76.86198
G0 F6750 X112.44 Y113.267
G1 F2400 X105.981 Y119.727 E77.50143
G0 F6750 X105.486 Y119.727
G1 F2400 X112.44 Y112.772 E78.18989
G0 F6750 X112.44 Y112.277
G1 F2400 X104.991 Y119.727 E78.92736
G0 F6750 X104.496 Y119.727
G1 F2400 X112.44 Y111.782 E79.71382
G0 F6750 X112.44 Y111.288
G1 F2400 X104.135 Y119.592 E80.53593
G0 F6750 X104.135 Y119.097
G1 F2400 X112.44 Y110.793 E81.35803
G0 F6750 X112.44 Y110.298
G1 F2400 X104.135 Y118.603 E82.18018
G0 F6750 X104.135 Y118.108
G1 F2400 X112.44 Y109.803 E83.00234
G0 F6750 X112.44 Y109.308
G1 F2400 X104.875 Y116.873 E83.75123
G0 F6750 X104.875 Y116.378
G1 F2400 X112.44 Y108.813 E84.50013
G0 F6750 X112.44 Y108.318
G1 F2400 X104.875 Y115.883 E85.24903
G0 F6750 X104.875 Y115.387
G1 F2400 X112.44 Y107.823 E85.99787
G0 F6750 X112.44 Y107.328
G1 F2400 X104.875 Y114.892 E86.74672
G0 F6750 X104.875 Y114.397
G1 F2400 X112.44 Y106.833 E87.49557
G0 F6750 X112.44 Y106.338
G1 F2400 X104.875 Y113.902 E88.24442
G0 F6750 X104.556 Y113.727
G1 F2400 X112.44 Y105.843 E89.02489
G0 F6750 X112.44 Y105.348
G1 F2400 X104.136 Y113.652 E89.84695
G0 F6750 X104.136 Y113.157
G1 F2400 X112.44 Y104.853 E90.669
G0 F6750 X112.44 Y104.358
G1 F2400 X104.136 Y112.662 E91.49105
G0 F6750 X104.136 Y112.167
G1 F2400 X112.44 Y103.863 E92.31311
G0 F6750 X112.44 Y103.368
G1 F2400 X104.136 Y111.672 E93.13516
G0 F6750 X104.136 Y111.177
G1 F2400 X112.041 Y103.272 E93.91772
G0 F6750 X111.546 Y103.272
G1 F2400 X104.136 Y110.682 E94.65127
G0 F6750 X104.136 Y110.187
G1 F2400 X111.051 Y103.272 E95.33582
G0 F6750 X110.556 Y103.272
G1 F2400 X104.136 Y109.692 E95.97137
G0 F6750 X104.136 Y109.197
G1 F2400 X110.061 Y103.272 E96.55791
G0 F6750 X109.566 Y103.272
G1 F2400 X104.136 Y108.702 E97.09545
G0 F6750 X104.135 Y108.208
G1 F2400 X109.071 Y103.272 E97.58409
G0 F6750 X108.576 Y103.272
G1 F2400 X104.135 Y107.713 E98.02373
G0 F6750 X104.135 Y107.218
G1 F2400 X108.081 Y103.272 E98.41436
G0 F6750 X107.587 Y103.272
G1 F2400 X104.135 Y106.723 E98.75605
G0 F6750 X104.135 Y106.228
G1 F2400 X107.092 Y103.272 E99.04872
G0 F6750 X106.597 Y103.272
G1 F2400 X104.135 Y105.733 E99.2924
G0 F6750 X104.135 Y105.238
G1 F2400 X106.102 Y103.272 E99.48707
G0 F6750 X105.607 Y103.272
G1 F2400 X104.135 Y104.743 E99.63274
G0 F6750 X104.135 Y104.248
G1 F2400 X105.112 Y103.272 E99.72941
G0 F6750 X104.617 Y103.272
G1 F2400 X104.135 Y103.753 E99.77708
G0 F6750 X104.477 Y117.271
G1 F2400 X104.135 Y117.613 E99.81094
G10
;MESH:NONMESH
G0 F600 X104.135 Y117.613 Z0.67
G0 F6750 X113.584 Y113.289
G0 X114.794 Y113.288
G0 X121.564 Y112.95
;TIME_ELAPSED:39.524564
;LAYER:2
;TYPE:SUPPORT
G11
G1 F3420 X119 Y112.95 E99.99042
G1 X119 Y120.55 E100.52242
G1 X121.303 Y120.55 E100.68363
G1 X121.313 Y120.54 E100.68462
G1 X121.55 Y120.54 E100.70121
G1 X121.565 Y120.525 E100.70269
G1 X121.565 Y112.951 E101.23287
G0 F9000 X115.5 Y120.55
G1 F3420 X114.842 Y120.55 E101.27893
G1 X114.841 Y112.95 E101.81093
G1 X115.5 Y112.95 E101.85706
G1 X115.5 Y120.55 E102.38906
G1 X119 Y120.55 E102.63406
G10
;MESH:9f853a58-35b7-4b8a-b364-e28481c13fb4.stl
G0 F9000 X115.078 Y120.21
G0 X113.869 Y120.211
G0 X112.795 Y113.345
G0 X112.865 Y113.275
;TYPE:WALL-INNER
G11
G1 F4020 X113.04 Y113.275 E102.64631
G1 X113.882 Y113.275 E102.70525
G1 X113.883 Y120.05 E103.1795
G1 X113.883 Y120.225 E103.19175
G1 X113.708 Y120.225 E103.19968
G1 X103.524 Y120.225 E103.91256
G1 X103.523 Y116.95 E104.14181
G1 X103.523 Y116.775 E104.15406
G1 X103.698 Y116.775 E104.16199
G1 X104.662 Y116.775 E104.22947
G1 X104.663 Y114.4 E104.39572
G1 X104.663 Y114.225 E104.40797
G1 X104.488 Y114.225 E104.41589
G1 X103.524 Y114.225 E104.48337
G1 X103.524 Y102.775 E105.28487
G1 X112.865 Y102.775 E105.93874
G1 X112.866 Y103.895 E106.01714
G1 X112.865 Y113.1 E106.66149
G1 X112.865 Y113.275 E106.66942
G0 F9000 X113.19 Y112.95
;TYPE:WALL-OUTER
G1 F3420 X113.365 Y112.95 E106.68167
G1 X114.207 Y112.95 E106.74061
G1 X114.208 Y120.375 E107.26036
G1 X114.208 Y120.55 E107.27261
G1 X114.033 Y120.55 E107.28054
G1 X103.373 Y120.55 E108.02674
G1 X103.198 Y120.55 E108.03899
G1 X103.198 Y120.375 E108.04692
G1 X103.199 Y120.045 E108.07002
G1 X103.198 Y116.625 E108.30942
G1 X103.198 Y116.45 E108.32167
G1 X103.373 Y116.45 E108.32959
G1 X104.337 Y116.45 E108.39707
G1 X104.338 Y114.725 E108.51782
G1 X104.338 Y114.55 E108.53007
G1 X104.163 Y114.55 E108.538
G1 X103.199 Y114.55 E108.60548
G1 X103.199 Y102.45 E109.45248
G1 X113.19 Y102.45 E110.15185
G1 X113.191 Y103.895 E110.253
G1 X113.19 Y112.775 E110.8746
G1 X113.19 Y112.95 E110.88253
G0 F9000 X113.365 Y112.95
G0 X113.39 Y112.95
G0 X113.542 Y113.615
;TYPE:SKIN
G1 F2400 X113.543 Y119.885 E111.32143
G1 X103.864 Y119.885 E111.99896
G1 X103.863 Y117.115 E112.19286
G1 X105.002 Y117.115 E112.27259
G1 X105.003 Y113.885 E112.49869
G1 X103.864 Y113.885 E112.57842
G1 X103.864 Y103.115 E113.33232
G1 X112.525 Y103.115 E113.93859
G1 X112.526 Y103.895 E113.99319
G1 X112.525 Y113.615 E114.67359
G1 X113.542 Y113.615 E114.74478
G0 F9000 X112.837 Y113.303
G0 X112.367 Y103.458
G1 F2400 X112.181 Y103.272 E114.76319
G0 F9000 X111.686 Y103.272
G1 F2400 X112.368 Y103.953 E114.83066
G0 F9000 X112.368 Y104.448
G1 F2400 X111.191 Y103.272 E114.94712
G0 F9000 X110.696 Y103.272
G1 F2400 X112.368 Y104.943 E115.11259
G0 F9000 X112.368 Y105.438
G1 F2400 X110.201 Y103.272 E115.32707
G0 F9000 X109.706 Y103.272
G1 F2400 X112.368 Y105.933 E115.59054
G0 F9000 X112.368 Y106.428
G1 F2400 X109.211 Y103.272 E115.90302
G0 F9000 X108.716 Y103.272
G1 F2400 X112.368 Y106.923 E116.2645
G0 F9000 X112.368 Y107.418
G1 F2400 X108.221 Y103.272 E116.67498
G0 F9000 X107.727 Y103.272
G1 F2400 X112.368 Y107.913 E117.13442
G0 F9000 X112.368 Y108.408
G1 F2400 X107.232 Y103.272 E117.64286
G0 F9000 X106.737 Y103.272
G1 F2400 X112.368 Y108.903 E118.2003
G0 F9000 X112.368 Y109.398
G1 F2400 X106.242 Y103.272 E118.80674
G0 F9000 X105.747 Y103.272
G1 F2400 X112.368 Y109.893 E119.46219
G0 F9000 X112.368 Y110.388
G1 F2400 X105.252 Y103.272 E120.16663
G0 F9000 X104.757 Y103.272
G1 F2400 X112.368 Y110.883 E120.92008
G0 F9000 X112.368 Y111.378
G1 F2400 X104.262 Y103.272 E121.72254
G0 F9000 X104.02 Y103.525
G1 F2400 X112.368 Y111.873 E122.54895
G0 F9000 X112.368 Y112.368
G1 F2400 X104.02 Y104.02 E123.37536
G0 F9000 X104.02 Y104.515
G1 F2400 X112.368 Y112.863 E124.20177
G0 F9000 X112.368 Y113.358
G1 F2400 X104.02 Y105.01 E125.02818
G0 F9000 X104.02 Y105.505
G1 F2400 X113.385 Y114.87 E125.95526
G0 F9000 X113.385 Y114.375
G1 F2400 X112.781 Y113.771 E126.01506
G0 F9000 X113.276 Y113.771
G1 F2400 X113.385 Y113.88 E126.02585
G0 F9000 X113.385 Y115.365
G1 F2400 X104.02 Y106 E126.95294
G0 F9000 X104.02 Y106.495
G1 F2400 X113.385 Y115.86 E127.88002
G0 F9000 X113.385 Y116.355
G1 F2400 X104.02 Y106.99 E128.80711
G0 F9000 X104.02 Y107.485
G1 F2400 X113.385 Y116.85 E129.7342
G0 F9000 X113.385 Y117.345
G1 F2400 X104.02 Y107.98 E130.66129
G0 F9000 X104.02 Y108.475
G1 F2400 X113.385 Y117.84 E131.58837
G0 F9000 X113.385 Y118.335
G1 F2400 X104.02 Y108.97 E132.51546
G0 F9000 X104.02 Y109.465
G1 F2400 X113.385 Y118.83 E133.44255
G0 F9000 X113.385 Y119.325
G1 F2400 X104.02 Y109.96 E134.36964
G0 F9000 X104.02 Y110.455
G1 F2400 X113.292 Y119.727 E135.28752
G0 F9000 X112.797 Y119.727
G1 F2400 X104.02 Y110.95 E136.1564
G0 F9000 X104.02 Y111.444
G1 F2400 X112.302 Y119.727 E136.97632
G0 F9000 X111.807 Y119.727
G1 F2400 X104.02 Y111.939 E137.74725
G0 F9000 X104.02 Y112.434
G1 F2400 X111.312 Y119.727 E138.46917
G0 F9000 X110.817 Y119.727
G1 F2400 X105.159 Y114.069 E139.02928
G0 F9000 X104.817 Y113.726
G1 F2400 X104.02 Y112.929 E139.10818
