;FLAVOR:UltiGCode
;TIME:586
;MATERIAL:1157
;MATERIAL2:0
;NOZZLE_DIAMETER:0.4
;MINX:83.65
;MINY:95.65
;MINZ:0.27
;MAXX:139.35
;MAXY:127.35
;MAXZ:8.87
;Generated with Cura_SteamEngine 4.6.1
M82 ;absolute extrusion mode

G92 E0
G92 E0
G10
;LAYER_COUNT:44
;LAYER:0
M107
G0 F4500 X89.015 Y106.079 Z0.27
;TYPE:SKIRT
G11
G1 F1800 X89.568 Y105.64 E0.06672
G1 X90.51 Y104.96 E0.17651
G1 X91.485 Y104.33 E0.28621
G1 X92.507 Y103.739 E0.39778
G1 X93.562 Y103.187 E0.5103
G1 X94.643 Y102.678 E0.62321
G1 X95.728 Y102.214 E0.73472
G1 X96.891 Y101.764 E0.85257
G1 X98.055 Y101.358 E0.96906
G1 X99.237 Y100.986 E1.08616
G1 X100.439 Y100.641 E1.20434
G1 X101.701 Y100.319 E1.32742
G1 X102.923 Y100.037 E1.44593
G1 X104.24 Y99.769 E1.57294
G1 X105.525 Y99.538 E1.69632
G1 X106.851 Y99.333 E1.82311
G1 X108.188 Y99.153 E1.9506
G1 X109.551 Y99.001 E2.0802
G1 X110.888 Y98.877 E2.20709
G1 X112.274 Y98.779 E2.3384
G1 X113.647 Y98.71 E2.46831
G1 X115.019 Y98.667 E2.59803
G1 X115.423 Y98.661 E2.63621
G1 X115.53 Y98.521 E2.65286
G1 X115.957 Y98.06 E2.71224
G1 X116.648 Y97.424 E2.80099
G1 X117.287 Y96.954 E2.87595
G1 X117.971 Y96.551 E2.95097
G1 X118.691 Y96.218 E3.02594
G1 X119.441 Y95.96 E3.10089
G1 X120.214 Y95.778 E3.17593
G1 X121 Y95.675 E3.25085
G1 X121.628 Y95.65 E3.31024
G1 X131.372 Y95.65 E4.23105
G1 X132.164 Y95.69 E4.30599
G1 X132.949 Y95.809 E4.38102
G1 X133.717 Y96.007 E4.45597
G1 X134.462 Y96.282 E4.53101
G1 X135.175 Y96.629 E4.60595
G1 X135.85 Y97.047 E4.68097
G1 X136.479 Y97.53 E4.75592
G1 X137.056 Y98.075 E4.83092
G1 X137.576 Y98.674 E4.90588
G1 X138.032 Y99.323 E4.98084
G1 X138.421 Y100.015 E5.05585
G1 X138.739 Y100.742 E5.13084
G1 X138.982 Y101.498 E5.20588
G1 X139.147 Y102.274 E5.28085
G1 X139.233 Y103.062 E5.35576
G1 X139.35 Y119.321 E6.89228
G1 X139.315 Y120.114 E6.96729
G1 X139.201 Y120.899 E7.04225
G1 X139.008 Y121.668 E7.11717
G1 X138.738 Y122.415 E7.19224
G1 X138.395 Y123.13 E7.26718
G1 X137.982 Y123.808 E7.3422
G1 X137.503 Y124.44 E7.41714
G1 X137.043 Y124.94 E7.48134
G1 X136.352 Y125.576 E7.57009
G1 X135.713 Y126.046 E7.64505
G1 X135.029 Y126.449 E7.72007
G1 X134.309 Y126.782 E7.79504
G1 X133.559 Y127.04 E7.86999
G1 X132.786 Y127.222 E7.94503
G1 X132 Y127.325 E8.01995
G1 X131.372 Y127.35 E8.07934
G1 X91.628 Y127.35 E11.83515
G1 X90.836 Y127.31 E11.91009
G1 X90.051 Y127.191 E11.98512
G1 X89.283 Y126.993 E12.06007
G1 X88.538 Y126.718 E12.13511
G1 X87.825 Y126.371 E12.21005
G1 X87.15 Y125.953 E12.28507
G1 X86.521 Y125.47 E12.36002
G1 X86.06 Y125.043 E12.4194
G1 X85.424 Y124.352 E12.50815
G1 X84.954 Y123.713 E12.58311
G1 X84.551 Y123.029 E12.65813
G1 X84.218 Y122.309 E12.7331
G1 X83.96 Y121.559 E12.80805
G1 X83.778 Y120.786 E12.88309
G1 X83.675 Y120 E12.958
G1 X83.65 Y119.372 E13.0174
G1 X83.65 Y116.639 E13.27567
G1 X83.685 Y115.68 E13.36635
G1 X83.814 Y114.566 E13.47233
G1 X83.91 Y114.058 E13.52118
G1 X84.117 Y113.218 E13.60294
G1 X84.264 Y112.737 E13.65047
G1 X84.569 Y111.909 E13.73385
G1 X84.77 Y111.445 E13.78164
G1 X85.112 Y110.751 E13.85475
G1 X85.377 Y110.274 E13.90632
G1 X85.781 Y109.624 E13.97864
G1 X86.12 Y109.133 E14.03503
G1 X86.525 Y108.596 E14.09859
G1 X86.892 Y108.151 E14.1531
G1 X87.289 Y107.705 E14.20952
G1 X87.734 Y107.242 E14.27021
G1 X88.125 Y106.862 E14.32173
G1 X88.624 Y106.41 E14.38536
G1 X89.015 Y106.079 E14.43377
G0 F4500 X88.859 Y106.67
G1 F1800 X89.785 Y105.914 E14.54674
G1 X90.712 Y105.245 E14.65477
G1 X91.672 Y104.626 E14.76271
G1 X92.68 Y104.043 E14.87275
G1 X93.723 Y103.498 E14.98396
G1 X94.791 Y102.995 E15.09552
G1 X95.864 Y102.536 E15.20581
G1 X97.016 Y102.091 E15.32251
G1 X98.169 Y101.689 E15.4379
G1 X99.341 Y101.32 E15.55401
G1 X100.534 Y100.977 E15.67132
G1 X101.786 Y100.658 E15.79341
G1 X103.001 Y100.378 E15.91124
G1 X104.31 Y100.112 E16.03747
G1 X105.587 Y99.882 E16.16009
G1 X106.904 Y99.679 E16.28601
G1 X108.234 Y99.5 E16.41283
G1 X109.59 Y99.348 E16.54178
G1 X110.92 Y99.225 E16.668
G1 X112.298 Y99.128 E16.79854
G1 X113.664 Y99.059 E16.92779
G1 X115.029 Y99.016 E17.05685
G1 X115.597 Y99.009 E17.11053
G1 X115.877 Y98.656 E17.15311
G1 X116.307 Y98.204 E17.21206
G1 X116.883 Y97.685 E17.28533
G1 X117.509 Y97.227 E17.35863
G1 X118.18 Y96.837 E17.43197
G1 X118.886 Y96.517 E17.50522
G1 X119.622 Y96.272 E17.57853
G1 X120.38 Y96.104 E17.6519
G1 X121.15 Y96.015 E17.72515
G1 X121.628 Y96 E17.77034
G1 X131.372 Y96 E18.69115
G1 X132.147 Y96.04 E18.76448
G1 X132.913 Y96.159 E18.83774
G1 X133.663 Y96.357 E18.91104
G1 X134.389 Y96.631 E18.98437
G1 X135.082 Y96.978 E19.05761
G1 X135.736 Y97.395 E19.13091
G1 X136.344 Y97.877 E19.20423
G1 X136.899 Y98.419 E19.27754
G1 X137.396 Y99.015 E19.35087
G1 X137.828 Y99.659 E19.42415
G1 X138.191 Y100.344 E19.49741
G1 X138.483 Y101.063 E19.57075
G1 X138.698 Y101.808 E19.64403
G1 X138.836 Y102.571 E19.7173
G1 X138.897 Y103.476 E19.80302
G1 X139 Y119.323 E21.30059
G1 X138.965 Y120.098 E21.3739
G1 X138.85 Y120.865 E21.44719
G1 X138.658 Y121.616 E21.52044
G1 X138.388 Y122.344 E21.59382
G1 X138.046 Y123.04 E21.6671
G1 X137.633 Y123.696 E21.74036
G1 X137.155 Y124.307 E21.81367
G1 X136.796 Y124.693 E21.86348
G1 X136.117 Y125.315 E21.9505
G1 X135.491 Y125.773 E22.0238
G1 X134.82 Y126.163 E22.09714
G1 X134.114 Y126.483 E22.17039
G1 X133.378 Y126.728 E22.2437
G1 X132.62 Y126.896 E22.31707
G1 X131.85 Y126.985 E22.39031
G1 X131.372 Y127 E22.43551
G1 X91.628 Y127 E26.19132
G1 X90.853 Y126.96 E26.26465
G1 X90.087 Y126.841 E26.33791
G1 X89.337 Y126.643 E26.41121
G1 X88.611 Y126.369 E26.48454
G1 X87.918 Y126.022 E26.55778
G1 X87.264 Y125.605 E26.63108
G1 X86.656 Y125.123 E26.7044
G1 X86.204 Y124.693 E26.76335
G1 X85.685 Y124.117 E26.83662
G1 X85.227 Y123.491 E26.90992
G1 X84.837 Y122.82 E26.98326
G1 X84.517 Y122.114 E27.05651
G1 X84.272 Y121.378 E27.12982
G1 X84.104 Y120.62 E27.20319
G1 X84.015 Y119.85 E27.27644
G1 X84 Y119.372 E27.32163
G1 X84 Y116.639 E27.5799
G1 X84.034 Y115.696 E27.66907
G1 X84.158 Y114.631 E27.77039
G1 X84.254 Y114.123 E27.81925
G1 X84.452 Y113.321 E27.89731
G1 X84.599 Y112.84 E27.94484
G1 X84.89 Y112.048 E28.02458
G1 X85.091 Y111.584 E28.07236
G1 X85.418 Y110.921 E28.14222
G1 X85.683 Y110.444 E28.19379
G1 X86.069 Y109.823 E28.26289
G1 X86.408 Y109.332 E28.31927
G1 X86.795 Y108.819 E28.38
G1 X87.162 Y108.374 E28.4345
G1 X87.542 Y107.948 E28.48845
G1 X87.987 Y107.485 E28.54914
G1 X88.36 Y107.122 E28.59832
G1 X88.859 Y106.67 E28.66195
G0 F4500 X89.094 Y106.929
G1 F1800 X90.003 Y106.188 E28.77277
G1 X90.914 Y105.531 E28.87891
G1 X91.859 Y104.921 E28.98521
G1 X92.853 Y104.348 E29.09363
G1 X93.883 Y103.809 E29.20349
G1 X94.938 Y103.312 E29.31369
G1 X96 Y102.859 E29.4228
G1 X97.141 Y102.417 E29.53843
G1 X98.283 Y102.02 E29.65269
G1 X99.445 Y101.654 E29.76781
G1 X100.63 Y101.314 E29.88431
G1 X101.872 Y100.997 E30.00544
G1 X103.079 Y100.719 E30.12249
G1 X104.379 Y100.455 E30.24785
G1 X105.648 Y100.227 E30.36969
G1 X106.957 Y100.025 E30.49486
G1 X108.281 Y99.847 E30.6211
G1 X109.628 Y99.696 E30.74919
G1 X110.952 Y99.574 E30.87484
G1 X112.322 Y99.477 E31.00463
G1 X113.682 Y99.409 E31.13331
G1 X115.04 Y99.366 E31.2617
G1 X115.763 Y99.357 E31.33003
G1 X116.452 Y98.555 E31.42995
G1 X117.118 Y97.945 E31.51529
G1 X117.731 Y97.501 E31.58682
G1 X118.388 Y97.123 E31.65845
G1 X119.08 Y96.817 E31.72995
G1 X119.802 Y96.586 E31.80159
G1 X120.543 Y96.432 E31.87311
G1 X121.628 Y96.35 E31.97593
G1 X131.372 Y96.35 E32.89674
G1 X132.128 Y96.39 E32.96828
G1 X132.876 Y96.509 E33.03986
G1 X133.607 Y96.707 E33.11143
G1 X134.314 Y96.981 E33.18308
G1 X134.987 Y97.327 E33.25459
G1 X135.62 Y97.743 E33.32617
G1 X136.206 Y98.223 E33.39776
G1 X136.738 Y98.762 E33.46932
G1 X137.21 Y99.354 E33.54087
G1 X137.617 Y99.993 E33.61247
G1 X137.955 Y100.671 E33.68406
G1 X138.219 Y101.38 E33.75555
G1 X138.407 Y102.114 E33.82715
G1 X138.516 Y102.863 E33.89868
G1 X138.547 Y103.478 E33.95687
G1 X138.65 Y119.325 E35.45444
G1 X138.615 Y120.082 E35.52606
G1 X138.5 Y120.831 E35.59767
G1 X138.307 Y121.563 E35.6692
G1 X138.038 Y122.271 E35.74078
G1 X137.696 Y122.947 E35.81237
G1 X137.285 Y123.582 E35.88385
G1 X136.548 Y124.445 E35.99109
G1 X135.882 Y125.055 E36.07644
G1 X135.269 Y125.499 E36.14797
G1 X134.612 Y125.877 E36.2196
G1 X133.92 Y126.183 E36.2911
G1 X133.198 Y126.414 E36.36274
G1 X132.457 Y126.568 E36.43426
G1 X131.372 Y126.65 E36.53708
G1 X91.628 Y126.65 E40.29289
G1 X90.872 Y126.61 E40.36443
G1 X90.124 Y126.491 E40.43601
G1 X89.393 Y126.293 E40.50758
G1 X88.686 Y126.019 E40.57923
G1 X88.013 Y125.673 E40.65074
G1 X87.38 Y125.257 E40.72232
G1 X86.555 Y124.548 E40.82512
G1 X85.945 Y123.882 E40.91046
G1 X85.501 Y123.269 E40.98199
G1 X85.123 Y122.612 E41.05362
G1 X84.817 Y121.92 E41.12512
G1 X84.586 Y121.198 E41.19676
G1 X84.432 Y120.457 E41.26828
G1 X84.35 Y119.372 E41.3711
G1 X84.35 Y116.639 E41.62937
G1 X84.384 Y115.711 E41.71713
G1 X84.502 Y114.696 E41.81369
G1 X84.598 Y114.188 E41.86255
G1 X84.786 Y113.423 E41.93699
G1 X84.933 Y112.942 E41.98452
G1 X85.211 Y112.187 E42.06055
G1 X85.412 Y111.723 E42.10834
G1 X85.724 Y111.091 E42.17494
G1 X85.989 Y110.614 E42.22651
G1 X86.357 Y110.021 E42.29246
G1 X86.696 Y109.53 E42.34884
G1 X87.065 Y109.042 E42.40666
G1 X87.432 Y108.597 E42.46117
G1 X87.794 Y108.19 E42.51264
G1 X88.239 Y107.727 E42.57333
G1 X89.094 Y106.929 E42.68385
G0 F4500 X89.329 Y107.189
G1 F1800 X90.221 Y106.463 E42.79253
G1 X91.116 Y105.817 E42.89684
G1 X92.047 Y105.217 E43.00151
G1 X93.026 Y104.652 E43.10833
G1 X94.044 Y104.12 E43.21687
G1 X95.085 Y103.63 E43.3256
G1 X96.136 Y103.181 E43.4336
G1 X97.266 Y102.744 E43.54809
G1 X98.397 Y102.351 E43.66124
G1 X99.549 Y101.988 E43.77538
G1 X100.726 Y101.651 E43.89108
G1 X101.958 Y101.337 E44.01122
G1 X103.157 Y101.061 E44.12749
G1 X104.448 Y100.798 E44.252
G1 X105.709 Y100.572 E44.37306
G1 X107.01 Y100.371 E44.49747
G1 X108.327 Y100.194 E44.62304
G1 X109.666 Y100.044 E44.75037
G1 X110.984 Y99.922 E44.87545
G1 X112.346 Y99.826 E45.00448
G1 X113.699 Y99.758 E45.1325
G1 X115.05 Y99.716 E45.26023
G1 X115.95 Y99.705 E45.34529
G1 X116.09 Y99.499 E45.36882
G1 X116.699 Y98.802 E45.45629
G1 X117.352 Y98.206 E45.53984
G1 X117.952 Y97.775 E45.60965
G1 X118.595 Y97.411 E45.67947
G1 X119.273 Y97.119 E45.74924
G1 X119.979 Y96.902 E45.81903
G1 X120.705 Y96.763 E45.88889
G1 X121.628 Y96.7 E45.97631
G1 X131.372 Y96.7 E46.89712
G1 X132.11 Y96.74 E46.96696
G1 X132.838 Y96.859 E47.03667
G1 X133.55 Y97.057 E47.10651
G1 X134.236 Y97.33 E47.17628
G1 X134.889 Y97.676 E47.24612
G1 X135.501 Y98.09 E47.31594
G1 X136.064 Y98.568 E47.38573
G1 X136.572 Y99.104 E47.45552
G1 X137.019 Y99.692 E47.52532
G1 X137.4 Y100.325 E47.59514
G1 X137.711 Y100.995 E47.66494
G1 X137.947 Y101.695 E47.73475
G1 X138.106 Y102.416 E47.80452
G1 X138.197 Y103.481 E47.90553
G1 X138.3 Y119.328 E49.4031
G1 X138.265 Y120.065 E49.47283
G1 X138.15 Y120.795 E49.54266
G1 X137.957 Y121.508 E49.61247
G1 X137.688 Y122.196 E49.68228
G1 X137.347 Y122.851 E49.75206
G1 X136.936 Y123.465 E49.82188
G1 X136.301 Y124.198 E49.91353
G1 X135.648 Y124.794 E49.99708
G1 X135.048 Y125.225 E50.06689
G1 X134.405 Y125.589 E50.13671
G1 X133.727 Y125.881 E50.20647
G1 X133.021 Y126.098 E50.27627
G1 X132.295 Y126.237 E50.34612
G1 X131.372 Y126.3 E50.43355
G1 X91.628 Y126.3 E54.18936
G1 X90.89 Y126.26 E54.2592
G1 X90.162 Y126.141 E54.32891
G1 X89.45 Y125.943 E54.39875
G1 X88.764 Y125.67 E54.46852
G1 X88.111 Y125.324 E54.53836
G1 X87.499 Y124.91 E54.60818
G1 X86.802 Y124.301 E54.69565
G1 X86.206 Y123.648 E54.77919
G1 X85.775 Y123.048 E54.84901
G1 X85.411 Y122.405 E54.91883
G1 X85.119 Y121.727 E54.98859
G1 X84.902 Y121.021 E55.05839
G1 X84.763 Y120.295 E55.12824
G1 X84.7 Y119.372 E55.21567
G1 X84.7 Y116.639 E55.47394
G1 X84.734 Y115.727 E55.56018
G1 X84.846 Y114.761 E55.65208
G1 X84.942 Y114.253 E55.70093
G1 X85.121 Y113.525 E55.77178
G1 X85.268 Y113.044 E55.81931
G1 X85.532 Y112.326 E55.8916
G1 X85.733 Y111.862 E55.93939
G1 X86.03 Y111.26 E56.00282
G1 X86.295 Y110.783 E56.05439
G1 X86.645 Y110.22 E56.11703
G1 X86.984 Y109.729 E56.17342
G1 X87.335 Y109.265 E56.2284
G1 X87.702 Y108.82 E56.28291
G1 X88.046 Y108.433 E56.33184
G1 X88.491 Y107.97 E56.39252
G1 X89.329 Y107.189 E56.50078
G0 F4500 X89.564 Y107.448
G1 F1800 X90.438 Y106.737 E56.60725
G1 X91.318 Y106.103 E56.70974
G1 X92.234 Y105.513 E56.81271
G1 X93.198 Y104.956 E56.91792
G1 X94.204 Y104.431 E57.02515
G1 X95.233 Y103.947 E57.13261
G1 X96.273 Y103.504 E57.23944
G1 X97.391 Y103.071 E57.35273
G1 X98.511 Y102.682 E57.46478
G1 X99.653 Y102.323 E57.5779
G1 X100.822 Y101.987 E57.69284
G1 X102.043 Y101.676 E57.81191
G1 X103.235 Y101.402 E57.9275
G1 X104.517 Y101.141 E58.05113
G1 X105.771 Y100.916 E58.17152
G1 X107.063 Y100.717 E58.29506
G1 X108.373 Y100.541 E58.41997
G1 X109.705 Y100.392 E58.54662
G1 X111.016 Y100.271 E58.67104
G1 X112.37 Y100.175 E58.79932
G1 X113.716 Y100.108 E58.92667
G1 X115.061 Y100.066 E59.05383
G1 X116.135 Y100.054 E59.15533
G1 X116.438 Y99.622 E59.2052
G1 X116.946 Y99.049 E59.27756
G1 X117.586 Y98.467 E59.35931
G1 X118.172 Y98.05 E59.42728
G1 X118.801 Y97.7 E59.4953
G1 X119.464 Y97.422 E59.56324
G1 X120.155 Y97.22 E59.63127
G1 X120.863 Y97.095 E59.69921
G1 X121.628 Y97.05 E59.77163
G1 X131.372 Y97.05 E60.69244
G1 X132.09 Y97.09 E60.76039
G1 X132.8 Y97.209 E60.82842
G1 X133.492 Y97.407 E60.89644
G1 X134.157 Y97.68 E60.96437
G1 X134.789 Y98.025 E61.03242
G1 X135.378 Y98.438 E61.1004
G1 X135.917 Y98.914 E61.16835
G1 X136.401 Y99.446 E61.23632
G1 X136.822 Y100.029 E61.30428
G1 X137.176 Y100.656 E61.37232
G1 X137.459 Y101.317 E61.44027
G1 X137.666 Y102.006 E61.50825
G1 X137.796 Y102.714 E61.57628
G1 X137.847 Y103.483 E61.64911
G1 X137.95 Y119.33 E63.14668
G1 X137.915 Y120.048 E63.21461
G1 X137.8 Y120.759 E63.28267
G1 X137.607 Y121.452 E63.35066
G1 X137.338 Y122.119 E63.41862
G1 X136.997 Y122.753 E63.48665
G1 X136.588 Y123.345 E63.55465
G1 X136.054 Y123.951 E63.63097
G1 X135.414 Y124.533 E63.71272
G1 X134.828 Y124.95 E63.78069
G1 X134.199 Y125.3 E63.84871
G1 X133.536 Y125.578 E63.91665
G1 X132.845 Y125.78 E63.98468
G1 X132.137 Y125.905 E64.05262
G1 X131.372 Y125.95 E64.12504
G1 X91.628 Y125.95 E67.88085
G1 X90.91 Y125.91 E67.94881
G1 X90.2 Y125.791 E68.01684
G1 X89.508 Y125.593 E68.08485
G1 X88.843 Y125.32 E68.15279
G1 X88.211 Y124.975 E68.22083
G1 X87.622 Y124.562 E68.28881
G1 X87.049 Y124.054 E68.36117
G1 X86.467 Y123.414 E68.44292
G1 X86.05 Y122.828 E68.51089
G1 X85.7 Y122.199 E68.57891
G1 X85.422 Y121.536 E68.64685
G1 X85.22 Y120.845 E68.71488
G1 X85.095 Y120.137 E68.78282
G1 X85.05 Y119.372 E68.85524
G1 X85.05 Y116.639 E69.11351
G1 X85.083 Y115.742 E69.19833
G1 X85.19 Y114.826 E69.28548
G1 X85.286 Y114.318 E69.33434
G1 X85.456 Y113.628 E69.4015
G1 X85.603 Y113.147 E69.44902
G1 X85.854 Y112.465 E69.5177
G1 X86.055 Y112.001 E69.56549
G1 X86.336 Y111.43 E69.62563
G1 X86.601 Y110.953 E69.67719
G1 X86.933 Y110.419 E69.73661
G1 X87.272 Y109.928 E69.793
G1 X87.605 Y109.487 E69.84522
G1 X87.972 Y109.042 E69.89973
G1 X88.744 Y108.212 E70.00684
G1 X89.564 Y107.448 E70.11276
G0 F4500 X89.799 Y107.707
G1 F1800 X90.656 Y107.011 E70.21709
G1 X91.519 Y106.389 E70.31761
G1 X92.421 Y105.808 E70.41901
G1 X93.371 Y105.261 E70.5226
G1 X94.365 Y104.742 E70.62856
G1 X95.38 Y104.265 E70.73455
G1 X96.409 Y103.826 E70.84027
G1 X97.517 Y103.398 E70.95251
G1 X98.625 Y103.013 E71.06336
G1 X99.758 Y102.657 E71.17559
G1 X100.918 Y102.324 E71.28964
G1 X102.129 Y102.015 E71.40774
G1 X103.313 Y101.743 E71.52255
G1 X104.586 Y101.484 E71.64531
G1 X105.832 Y101.261 E71.76493
G1 X107.115 Y101.062 E71.88762
G1 X108.419 Y100.888 E72.01194
G1 X109.743 Y100.74 E72.13784
G1 X111.048 Y100.619 E72.26169
G1 X112.395 Y100.525 E72.38929
G1 X113.733 Y100.457 E72.51589
G1 X115.072 Y100.416 E72.64249
G1 X116.311 Y100.402 E72.75958
G1 X116.785 Y99.749 E72.83583
G1 X117.194 Y99.297 E72.89344
G1 X117.819 Y98.728 E72.97331
G1 X118.391 Y98.325 E73.03943
G1 X119.005 Y97.99 E73.10553
G1 X119.654 Y97.727 E73.17171
G1 X120.328 Y97.54 E73.23781
G1 X121.019 Y97.43 E73.30393
G1 X121.628 Y97.4 E73.36155
G1 X131.372 Y97.4 E74.28236
G1 X132.071 Y97.44 E74.34852
G1 X132.76 Y97.559 E74.41459
G1 X133.431 Y97.757 E74.48071
G1 X134.076 Y98.029 E74.54686
G1 X134.685 Y98.373 E74.61295
G1 X135.251 Y98.785 E74.67911
