;FLAVOR:UltiGCode
;TIME:590
;MATERIAL:1157
;MATERIAL2:0
;NOZZLE_DIAMETER:0.4
;MINX:83.65
;MINY:95.65
;MINZ:0.27
;MAXX:139.35
;MAXY:127.35
;MAXZ:8.87
;Generated with Cura_SteamEngine 4.6.1
M82 ;absolute extrusion mode

G92 E0
G92 E0
G10
;LAYER_COUNT:44
;LAYER:0
M107
G0 F4500 X86.648 Y97.424 Z0.27
;TYPE:SKIRT
G11
G1 F1800 X87.287 Y96.954 E0.07496
G1 X87.971 Y96.551 E0.14998
G1 X88.691 Y96.218 E0.22495
G1 X89.441 Y95.96 E0.2999
G1 X90.214 Y95.778 E0.37495
G1 X91 Y95.675 E0.44986
G1 X91.628 Y95.65 E0.50925
G1 X101.372 Y95.65 E1.43006
G1 X102.164 Y95.69 E1.505
G1 X102.949 Y95.809 E1.58003
G1 X103.717 Y96.007 E1.65498
G1 X104.462 Y96.282 E1.73002
G1 X105.175 Y96.629 E1.80496
G1 X105.85 Y97.047 E1.87998
G1 X106.479 Y97.53 E1.95493
G1 X106.94 Y97.957 E2.01431
G1 X107.576 Y98.648 E2.10306
G1 X109.176 Y98.7 E2.25434
G1 X110.549 Y98.767 E2.38424
G1 X111.917 Y98.86 E2.51381
G1 X113.276 Y98.981 E2.64275
G1 X114.616 Y99.128 E2.77014
G1 X115.933 Y99.299 E2.89564
G1 X117.253 Y99.5 E3.02182
G1 X118.538 Y99.727 E3.14513
G1 X119.79 Y99.976 E3.26576
G1 X121.067 Y100.262 E3.38943
G1 X122.29 Y100.569 E3.50859
G1 X123.478 Y100.899 E3.6251
G1 X124.668 Y101.265 E3.74276
G1 X125.832 Y101.663 E3.85901
G1 X126.939 Y102.08 E3.97079
G1 X128.043 Y102.537 E4.08371
G1 X129.109 Y103.025 E4.1945
G1 X130.125 Y103.539 E4.3021
G1 X131.155 Y104.114 E4.41357
G1 X132.11 Y104.706 E4.51975
G1 X133.045 Y105.351 E4.6271
G1 X133.941 Y106.043 E4.73408
G1 X134.841 Y106.832 E4.84719
G1 X135.237 Y107.214 E4.89918
G1 X135.668 Y107.66 E4.95779
G1 X136.064 Y108.102 E5.01387
G1 X136.465 Y108.585 E5.0732
G1 X136.877 Y109.127 E5.13753
G1 X137.194 Y109.584 E5.19009
G1 X137.577 Y110.193 E5.25808
G1 X137.843 Y110.663 E5.30911
G1 X138.213 Y111.408 E5.38772
G1 X138.426 Y111.899 E5.4383
G1 X138.731 Y112.725 E5.52151
G1 X138.88 Y113.211 E5.56954
G1 X139.088 Y114.05 E5.65123
G1 X139.182 Y114.545 E5.69884
G1 X139.305 Y115.532 E5.79283
G1 X139.35 Y116.503 E5.88469
G1 X139.35 Y119.372 E6.15581
G1 X139.31 Y120.164 E6.23075
G1 X139.191 Y120.949 E6.30578
G1 X138.993 Y121.717 E6.38073
G1 X138.718 Y122.462 E6.45578
G1 X138.371 Y123.175 E6.53071
G1 X137.953 Y123.85 E6.60574
G1 X137.47 Y124.479 E6.68068
G1 X137.043 Y124.94 E6.74006
G1 X136.352 Y125.576 E6.82881
G1 X135.713 Y126.046 E6.90377
G1 X135.029 Y126.449 E6.9788
G1 X134.309 Y126.782 E7.05376
G1 X133.559 Y127.04 E7.12871
G1 X132.786 Y127.222 E7.20376
G1 X132 Y127.325 E7.27867
G1 X131.372 Y127.35 E7.33806
G1 X91.628 Y127.35 E11.09387
G1 X90.836 Y127.31 E11.16881
G1 X90.051 Y127.191 E11.24384
G1 X89.283 Y126.993 E11.31879
G1 X88.538 Y126.718 E11.39384
G1 X87.825 Y126.371 E11.46877
G1 X87.15 Y125.953 E11.5438
G1 X86.521 Y125.47 E11.61874
G1 X86.06 Y125.043 E11.67812
G1 X85.424 Y124.352 E11.76687
G1 X84.954 Y123.713 E11.84183
G1 X84.551 Y123.029 E11.91685
G1 X84.218 Y122.309 E11.99182
G1 X83.96 Y121.559 E12.06677
G1 X83.778 Y120.786 E12.14182
G1 X83.675 Y120 E12.21673
G1 X83.65 Y119.372 E12.27612
G1 X83.65 Y103.628 E13.76393
G1 X83.69 Y102.836 E13.83887
G1 X83.809 Y102.051 E13.9139
G1 X84.007 Y101.283 E13.98885
G1 X84.282 Y100.538 E14.06389
G1 X84.629 Y99.825 E14.13883
G1 X85.047 Y99.15 E14.21386
G1 X85.53 Y98.521 E14.2888
G1 X85.957 Y98.06 E14.34818
G1 X86.648 Y97.424 E14.43693
G0 F4500 X86.883 Y97.685
G1 F1800 X87.509 Y97.227 E14.51023
G1 X88.18 Y96.837 E14.58357
G1 X88.886 Y96.517 E14.65682
G1 X89.622 Y96.272 E14.73012
G1 X90.38 Y96.104 E14.80349
G1 X91.15 Y96.015 E14.87674
G1 X91.628 Y96 E14.92194
G1 X101.372 Y96 E15.84274
G1 X102.147 Y96.04 E15.91608
G1 X102.913 Y96.159 E15.98933
G1 X103.663 Y96.357 E16.06264
G1 X104.389 Y96.631 E16.13597
G1 X105.082 Y96.978 E16.20921
G1 X105.736 Y97.395 E16.2825
G1 X106.344 Y97.877 E16.35583
G1 X106.796 Y98.307 E16.41478
G1 X107.315 Y98.883 E16.48805
G1 X107.406 Y99.007 E16.50258
G1 X107.942 Y99.014 E16.55324
G1 X109.165 Y99.05 E16.66886
G1 X110.532 Y99.116 E16.7982
G1 X111.893 Y99.209 E16.92711
G1 X113.244 Y99.33 E17.05529
G1 X114.578 Y99.476 E17.18211
G1 X115.888 Y99.646 E17.30694
G1 X117.199 Y99.846 E17.43226
G1 X118.476 Y100.071 E17.5548
G1 X119.721 Y100.319 E17.67476
G1 X120.99 Y100.604 E17.79767
G1 X122.205 Y100.908 E17.91603
G1 X123.383 Y101.236 E18.03158
G1 X124.564 Y101.599 E18.14834
G1 X125.718 Y101.994 E18.2636
G1 X126.814 Y102.407 E18.37429
G1 X127.908 Y102.86 E18.48618
G1 X128.962 Y103.343 E18.59574
G1 X129.966 Y103.85 E18.70203
G1 X130.982 Y104.418 E18.81203
G1 X131.923 Y105.002 E18.91669
G1 X132.844 Y105.637 E19.0224
G1 X133.724 Y106.317 E19.1275
G1 X134.607 Y107.092 E19.23852
G1 X134.985 Y107.457 E19.28818
G1 X135.416 Y107.903 E19.34679
G1 X135.795 Y108.325 E19.40039
G1 X136.196 Y108.808 E19.45972
G1 X136.589 Y109.326 E19.52116
G1 X136.906 Y109.783 E19.57372
G1 X137.272 Y110.366 E19.63877
G1 X137.538 Y110.836 E19.68981
G1 X137.892 Y111.547 E19.76486
G1 X138.105 Y112.038 E19.81544
G1 X138.396 Y112.827 E19.89491
G1 X138.545 Y113.313 E19.94295
G1 X138.744 Y114.115 E20.02103
G1 X138.838 Y114.61 E20.06865
G1 X138.956 Y115.553 E20.15846
G1 X139 Y116.503 E20.24833
G1 X139 Y119.372 E20.51945
G1 X138.96 Y120.147 E20.59278
G1 X138.841 Y120.913 E20.66604
G1 X138.643 Y121.663 E20.73934
G1 X138.369 Y122.389 E20.81267
G1 X138.022 Y123.082 E20.88591
G1 X137.605 Y123.736 E20.95921
G1 X137.123 Y124.344 E21.03253
G1 X136.693 Y124.796 E21.09148
G1 X136.117 Y125.315 E21.16475
G1 X135.491 Y125.773 E21.23805
G1 X134.82 Y126.163 E21.31139
G1 X134.114 Y126.483 E21.38464
G1 X133.378 Y126.728 E21.45795
G1 X132.62 Y126.896 E21.53132
G1 X131.85 Y126.985 E21.60457
G1 X131.372 Y127 E21.64976
G1 X91.628 Y127 E25.40557
G1 X90.853 Y126.96 E25.4789
G1 X90.087 Y126.841 E25.55216
G1 X89.337 Y126.643 E25.62546
G1 X88.611 Y126.369 E25.69879
G1 X87.918 Y126.022 E25.77203
G1 X87.264 Y125.605 E25.84533
G1 X86.656 Y125.123 E25.91865
G1 X86.204 Y124.693 E25.97761
G1 X85.685 Y124.117 E26.05087
G1 X85.227 Y123.491 E26.12417
G1 X84.837 Y122.82 E26.19752
G1 X84.517 Y122.114 E26.27077
G1 X84.272 Y121.378 E26.34407
G1 X84.104 Y120.62 E26.41744
G1 X84.015 Y119.85 E26.49069
G1 X84 Y119.372 E26.53588
G1 X84 Y103.628 E28.02369
G1 X84.04 Y102.853 E28.09702
G1 X84.159 Y102.087 E28.17028
G1 X84.357 Y101.337 E28.24358
G1 X84.631 Y100.611 E28.31691
G1 X84.978 Y99.918 E28.39015
G1 X85.395 Y99.264 E28.46345
G1 X85.877 Y98.656 E28.53677
G1 X86.307 Y98.204 E28.59573
G1 X86.883 Y97.685 E28.66899
G0 F4500 X87.118 Y97.945
G1 F1800 X87.731 Y97.501 E28.74052
G1 X88.388 Y97.123 E28.81215
G1 X89.08 Y96.817 E28.88365
G1 X89.802 Y96.586 E28.95529
G1 X90.543 Y96.432 E29.02681
G1 X91.628 Y96.35 E29.12964
G1 X101.372 Y96.35 E30.05044
G1 X102.128 Y96.39 E30.12199
G1 X102.876 Y96.509 E30.19356
G1 X103.607 Y96.707 E30.26513
G1 X104.314 Y96.981 E30.33678
G1 X104.987 Y97.327 E30.40829
G1 X105.62 Y97.743 E30.47987
G1 X106.445 Y98.452 E30.58267
G1 X107.055 Y99.118 E30.66802
G1 X107.227 Y99.356 E30.69577
G1 X107.787 Y99.361 E30.74869
G1 X109.155 Y99.4 E30.87802
G1 X110.514 Y99.466 E31.00659
G1 X111.869 Y99.558 E31.13494
G1 X113.213 Y99.678 E31.26245
G1 X114.539 Y99.824 E31.38851
G1 X115.842 Y99.993 E31.51268
G1 X117.146 Y100.192 E31.63733
G1 X118.415 Y100.416 E31.75911
G1 X119.652 Y100.663 E31.87831
G1 X120.913 Y100.945 E32.00042
G1 X122.119 Y101.247 E32.11791
G1 X123.289 Y101.573 E32.23268
G1 X124.461 Y101.933 E32.34854
G1 X125.603 Y102.324 E32.46261
G1 X126.69 Y102.734 E32.5724
G1 X127.773 Y103.183 E32.68319
G1 X128.814 Y103.66 E32.7914
G1 X129.807 Y104.162 E32.89655
G1 X130.81 Y104.723 E33.00515
G1 X131.737 Y105.298 E33.10823
G1 X132.643 Y105.923 E33.21225
G1 X133.506 Y106.592 E33.31544
G1 X134.373 Y107.352 E33.42439
G1 X134.734 Y107.7 E33.47177
G1 X135.165 Y108.146 E33.53039
G1 X135.525 Y108.549 E33.58145
G1 X135.926 Y109.032 E33.64077
G1 X136.302 Y109.526 E33.69944
G1 X136.619 Y109.983 E33.752
G1 X136.967 Y110.538 E33.81391
G1 X137.233 Y111.008 E33.86494
G1 X137.571 Y111.687 E33.93662
G1 X137.784 Y112.178 E33.98719
G1 X138.062 Y112.93 E34.06296
G1 X138.211 Y113.416 E34.111
G1 X138.4 Y114.18 E34.18537
G1 X138.494 Y114.675 E34.23298
G1 X138.607 Y115.575 E34.3187
G1 X138.65 Y116.503 E34.40649
G1 X138.65 Y119.372 E34.67761
G1 X138.61 Y120.128 E34.74915
G1 X138.491 Y120.876 E34.82073
G1 X138.293 Y121.607 E34.8923
G1 X138.019 Y122.314 E34.96395
G1 X137.673 Y122.987 E35.03546
G1 X137.257 Y123.62 E35.10704
G1 X136.548 Y124.445 E35.20984
G1 X135.882 Y125.055 E35.29519
G1 X135.269 Y125.499 E35.36671
G1 X134.612 Y125.877 E35.43834
G1 X133.92 Y126.183 E35.50984
G1 X133.198 Y126.414 E35.58148
G1 X132.457 Y126.568 E35.653
G1 X131.372 Y126.65 E35.75583
G1 X91.628 Y126.65 E39.51163
G1 X90.872 Y126.61 E39.58318
G1 X90.124 Y126.491 E39.65475
G1 X89.393 Y126.293 E39.72632
G1 X88.686 Y126.019 E39.79797
G1 X88.013 Y125.673 E39.86948
G1 X87.38 Y125.257 E39.94106
G1 X86.555 Y124.548 E40.04386
G1 X85.945 Y123.882 E40.12921
G1 X85.501 Y123.269 E40.20074
G1 X85.123 Y122.612 E40.27236
G1 X84.817 Y121.92 E40.34387
G1 X84.586 Y121.198 E40.4155
G1 X84.432 Y120.457 E40.48702
G1 X84.35 Y119.372 E40.58985
G1 X84.35 Y103.628 E42.07766
G1 X84.39 Y102.872 E42.1492
G1 X84.509 Y102.124 E42.22077
G1 X84.707 Y101.393 E42.29234
G1 X84.981 Y100.686 E42.364
G1 X85.327 Y100.013 E42.43551
G1 X85.743 Y99.38 E42.50709
G1 X86.452 Y98.555 E42.60988
G1 X87.118 Y97.945 E42.69523
G0 F4500 X87.352 Y98.206
G1 F1800 X87.952 Y97.775 E42.76504
G1 X88.595 Y97.411 E42.83487
G1 X89.273 Y97.119 E42.90463
G1 X89.979 Y96.902 E42.97442
G1 X90.705 Y96.763 E43.04428
G1 X91.628 Y96.7 E43.1317
G1 X101.372 Y96.7 E44.05251
G1 X102.11 Y96.74 E44.12236
G1 X102.838 Y96.859 E44.19206
G1 X103.55 Y97.057 E44.2619
G1 X104.236 Y97.33 E44.33167
G1 X104.889 Y97.676 E44.40151
G1 X105.501 Y98.09 E44.47133
G1 X106.198 Y98.699 E44.5588
G1 X106.794 Y99.352 E44.64235
G1 X107.047 Y99.704 E44.68331
G1 X107.783 Y99.711 E44.75287
G1 X109.145 Y99.75 E44.88163
G1 X110.497 Y99.815 E45.00954
G1 X111.845 Y99.907 E45.13722
G1 X113.181 Y100.027 E45.26398
G1 X114.501 Y100.171 E45.38946
G1 X115.797 Y100.34 E45.51297
G1 X117.092 Y100.538 E45.63677
G1 X118.354 Y100.76 E45.75786
G1 X119.583 Y101.006 E45.87631
G1 X120.836 Y101.287 E45.99766
G1 X122.033 Y101.587 E46.11427
G1 X123.194 Y101.91 E46.22815
G1 X124.357 Y102.268 E46.34314
G1 X125.489 Y102.655 E46.4562
G1 X126.565 Y103.062 E46.56491
G1 X127.638 Y103.506 E46.67465
G1 X128.667 Y103.978 E46.78163
G1 X129.647 Y104.473 E46.88538
G1 X130.637 Y105.027 E46.99259
G1 X131.55 Y105.594 E47.09415
G1 X132.442 Y106.21 E47.19659
G1 X133.289 Y106.866 E47.29783
G1 X134.139 Y107.613 E47.40477
G1 X134.913 Y108.389 E47.50834
G1 X135.256 Y108.772 E47.55693
G1 X135.657 Y109.255 E47.61625
G1 X136.014 Y109.725 E47.67203
G1 X136.331 Y110.182 E47.72459
G1 X136.663 Y110.71 E47.78353
G1 X136.929 Y111.18 E47.83456
G1 X137.25 Y111.826 E47.90273
G1 X137.463 Y112.317 E47.95331
G1 X137.727 Y113.032 E48.02533
G1 X137.876 Y113.518 E48.07337
G1 X138.056 Y114.246 E48.14424
G1 X138.15 Y114.741 E48.19185
G1 X138.257 Y115.596 E48.27328
G1 X138.3 Y116.503 E48.35909
G1 X138.3 Y119.372 E48.63021
G1 X138.26 Y120.11 E48.70005
G1 X138.141 Y120.838 E48.76976
G1 X137.943 Y121.55 E48.8396
G1 X137.67 Y122.236 E48.90937
G1 X137.324 Y122.889 E48.97921
G1 X136.91 Y123.501 E49.04903
G1 X136.301 Y124.198 E49.1365
G1 X135.648 Y124.794 E49.22004
G1 X135.048 Y125.225 E49.28986
G1 X134.405 Y125.589 E49.35968
G1 X133.727 Y125.881 E49.42944
G1 X133.021 Y126.098 E49.49924
G1 X132.295 Y126.237 E49.56909
G1 X131.372 Y126.3 E49.65652
G1 X91.628 Y126.3 E53.41233
G1 X90.89 Y126.26 E53.48217
G1 X90.162 Y126.141 E53.55188
G1 X89.45 Y125.943 E53.62171
G1 X88.764 Y125.67 E53.69149
G1 X88.111 Y125.324 E53.76132
G1 X87.499 Y124.91 E53.83115
G1 X86.802 Y124.301 E53.91861
G1 X86.206 Y123.648 E54.00216
G1 X85.775 Y123.048 E54.07197
G1 X85.411 Y122.405 E54.1418
G1 X85.119 Y121.727 E54.21156
G1 X84.902 Y121.021 E54.28135
G1 X84.763 Y120.295 E54.35121
G1 X84.7 Y119.372 E54.43863
G1 X84.7 Y103.628 E55.92644
G1 X84.74 Y102.89 E55.99629
G1 X84.859 Y102.162 E56.06599
G1 X85.057 Y101.45 E56.13583
G1 X85.33 Y100.764 E56.2056
G1 X85.676 Y100.111 E56.27544
G1 X86.09 Y99.499 E56.34526
G1 X86.699 Y98.802 E56.43273
G1 X87.352 Y98.206 E56.51628
G0 F4500 X87.586 Y98.467
G1 F1800 X88.172 Y98.05 E56.58424
G1 X88.801 Y97.7 E56.65227
G1 X89.464 Y97.422 E56.72021
G1 X90.155 Y97.22 E56.78824
G1 X90.863 Y97.095 E56.85618
G1 X91.628 Y97.05 E56.9286
G1 X101.372 Y97.05 E57.8494
G1 X102.09 Y97.09 E57.91736
G1 X102.8 Y97.209 E57.98539
G1 X103.492 Y97.407 E58.05341
G1 X104.157 Y97.68 E58.12134
G1 X104.789 Y98.025 E58.18938
G1 X105.378 Y98.438 E58.25736
G1 X105.951 Y98.946 E58.32973
G1 X106.533 Y99.586 E58.41148
G1 X106.865 Y100.053 E58.46562
G1 X107.78 Y100.061 E58.5521
G1 X109.135 Y100.1 E58.6802
G1 X110.48 Y100.165 E58.80745
G1 X111.821 Y100.256 E58.93446
G1 X113.15 Y100.375 E59.06056
G1 X114.462 Y100.519 E59.18528
G1 X115.752 Y100.687 E59.30822
G1 X117.039 Y100.884 E59.43126
G1 X118.292 Y101.105 E59.55149
G1 X119.515 Y101.349 E59.66934
G1 X120.759 Y101.628 E59.78982
G1 X121.948 Y101.926 E59.90566
G1 X123.1 Y102.247 E60.01867
G1 X124.254 Y102.602 E60.13277
G1 X125.374 Y102.986 E60.24465
G1 X126.441 Y103.389 E60.35244
G1 X127.503 Y103.829 E60.46107
G1 X128.52 Y104.295 E60.56678
G1 X129.488 Y104.785 E60.66931
G1 X130.464 Y105.332 E60.77504
G1 X131.363 Y105.89 E60.87503
G1 X132.24 Y106.496 E60.97577
G1 X133.072 Y107.141 E61.07525
G1 X133.905 Y107.873 E61.18005
G1 X134.661 Y108.632 E61.28128
G1 X135.388 Y109.479 E61.38676
G1 X135.726 Y109.925 E61.43965
G1 X136.043 Y110.382 E61.49221
G1 X136.358 Y110.883 E61.54813
G1 X136.624 Y111.353 E61.59917
G1 X136.929 Y111.965 E61.66378
G1 X137.142 Y112.456 E61.71436
G1 X137.393 Y113.135 E61.78277
G1 X137.542 Y113.621 E61.83081
G1 X137.712 Y114.311 E61.89796
G1 X137.806 Y114.806 E61.94558
G1 X137.908 Y115.618 E62.02291
G1 X137.95 Y116.503 E62.10664
G1 X137.95 Y119.372 E62.37776
G1 X137.91 Y120.09 E62.44572
G1 X137.791 Y120.8 E62.51375
G1 X137.593 Y121.492 E62.58177
G1 X137.32 Y122.157 E62.6497
G1 X136.975 Y122.789 E62.71774
G1 X136.562 Y123.378 E62.78572
G1 X136.054 Y123.951 E62.85809
G1 X135.414 Y124.533 E62.93983
G1 X134.828 Y124.95 E63.0078
G1 X134.199 Y125.3 E63.07582
G1 X133.536 Y125.578 E63.14376
G1 X132.845 Y125.78 E63.21179
G1 X132.137 Y125.905 E63.27973
G1 X131.372 Y125.95 E63.35215
G1 X91.628 Y125.95 E67.10796
G1 X90.91 Y125.91 E67.17592
G1 X90.2 Y125.791 E67.24395
G1 X89.508 Y125.593 E67.31197
G1 X88.843 Y125.32 E67.3799
G1 X88.211 Y124.975 E67.44794
G1 X87.622 Y124.562 E67.51592
G1 X87.049 Y124.054 E67.58829
G1 X86.467 Y123.414 E67.67003
G1 X86.05 Y122.828 E67.738
G1 X85.7 Y122.199 E67.80602
G1 X85.422 Y121.536 E67.87396
G1 X85.22 Y120.845 E67.94199
G1 X85.095 Y120.137 E68.00993
G1 X85.05 Y119.372 E68.08235
G1 X85.05 Y103.628 E69.57016
G1 X85.09 Y102.91 E69.63812
G1 X85.209 Y102.2 E69.70615
G1 X85.407 Y101.508 E69.77417
G1 X85.68 Y100.843 E69.8421
G1 X86.025 Y100.211 E69.91014
G1 X86.438 Y99.622 E69.97812
G1 X86.946 Y99.049 E70.05049
G1 X87.586 Y98.467 E70.13223
G0 F4500 X87.819 Y98.728
G1 F1800 X88.391 Y98.325 E70.19836
G1 X89.005 Y97.99 E70.26445
G1 X89.654 Y97.727 E70.33063
G1 X90.328 Y97.54 E70.39673
G1 X91.019 Y97.43 E70.46285
G1 X91.628 Y97.4 E70.52047
G1 X101.372 Y97.4 E71.44128
G1 X102.071 Y97.44 E71.50744
G1 X102.76 Y97.559 E71.57352
G1 X103.431 Y97.757 E71.63963
G1 X104.076 Y98.029 E71.70578
G1 X104.685 Y98.373 E71.77188
G1 X105.251 Y98.785 E71.83803
G1 X105.703 Y99.194 E71.89564
G1 X106.272 Y99.819 E71.97551
G1 X106.675 Y100.391 E72.04163
G1 X107.777 Y100.411 E72.14579
G1 X109.124 Y100.45 E72.27313
G1 X110.463 Y100.514 E72.39981
G1 X111.796 Y100.606 E72.52608
G1 X113.118 Y100.724 E72.65151
G1 X114.424 Y100.867 E72.77566
G1 X115.706 Y101.034 E72.89783
G1 X116.986 Y101.23 E73.0202
G1 X118.231 Y101.45 E73.13968
G1 X119.446 Y101.692 E73.25675
G1 X120.682 Y101.969 E73.37645
G1 X121.862 Y102.265 E73.49142
G1 X123.005 Y102.584 E73.60356
G1 X124.15 Y102.936 E73.71676
G1 X125.26 Y103.317 E73.82766
G1 X126.316 Y103.716 E73.93434
G1 X127.368 Y104.152 E74.04195
G1 X128.372 Y104.613 E74.14635
G1 X129.329 Y105.097 E74.2477
G1 X130.292 Y105.636 E74.35199
G1 X131.177 Y106.186 E74.45045
G1 X132.039 Y106.783 E74.54954
