;FLAVOR:UltiGCode
;TIME:3930
;MATERIAL:17449
;MATERIAL2:0
;NOZZLE_DIAMETER:0.4
;MINX:74.371
;MINY:68.548
;MINZ:0.27
;MAXX:149.504
;MAXY:154.181
;MAXZ:32.97
;Generated with Cura_SteamEngine 4.6.1
M82 ;absolute extrusion mode

G92 E0
G92 E0
G10
;LAYER_COUNT:110
;LAYER:0
M107
G0 F4500 X74.371 Y68.549 Z0.27
;TYPE:SUPPORT
G11
G1 F2400 X108.598 Y68.548 E3.23445
G1 X130.697 Y84.122 E5.7893
G1 X129.765 Y83.855 E5.88092
G1 X127.56 Y83.378 E6.09411
G1 X125.308 Y83.044 E6.30925
G1 X123.06 Y82.862 E6.52238
G1 X120.795 Y82.83 E6.73645
G1 X118.533 Y82.947 E6.95049
G1 X116.279 Y83.215 E7.165
G1 X114.054 Y83.627 E7.37883
G1 X111.854 Y84.191 E7.59346
G1 X109.714 Y84.891 E7.80623
G1 X107.601 Y85.741 E8.02146
G1 X105.561 Y86.723 E8.23541
G1 X103.601 Y87.832 E8.44822
G1 X101.708 Y89.076 E8.66228
G1 X99.892 Y90.449 E8.87742
G1 X98.189 Y91.921 E9.09014
G1 X96.577 Y93.514 E9.30431
G1 X95.066 Y95.219 E9.5196
G1 X93.687 Y96.999 E9.73238
G1 X92.422 Y98.878 E9.94644
G1 X91.278 Y100.847 E10.16163
G1 X90.279 Y102.863 E10.37425
G1 X89.402 Y104.966 E10.58958
G1 X88.676 Y107.098 E10.80241
G1 X88.086 Y109.298 E11.01766
G1 X87.647 Y111.521 E11.23179
G1 X87.357 Y113.753 E11.44448
G1 X87.212 Y116.027 E11.65981
G1 X87.218 Y118.276 E11.87235
G1 X87.375 Y120.55 E12.08775
G1 X87.678 Y122.78 E12.30042
G1 X87.801 Y123.382 E12.35849
G1 X86.584 Y120.751 E12.63243
G1 X86.304 Y120.108 E12.6987
G1 X85.869 Y118.98 E12.81295
G1 X85.799 Y118.761 E12.83468
G1 X85.494 Y117.861 E12.92448
G1 X74.371 Y82.291 E16.44636
G1 X74.371 Y68.549 E17.74497
G0 F4500 X74.511 Y70
G1 F2400 X110.415 Y70 E21.1379
G0 F4500 X112 Y71.118
G1 F2400 X112 Y84.01 E22.3562
G0 F4500 X112.036 Y84
G1 F2400 X75.052 Y84 E25.85118
G0 F4500 X74.511 Y80.5
G1 F2400 X125.317 Y80.5 E30.65235
G0 F4500 X126 Y80.983
G1 F2400 X126 Y83.005 E30.84343
G0 F4500 X122.5 Y82.714
G1 F2400 X122.5 Y78.517 E31.24005
G0 F4500 X120.35 Y77
G1 F2400 X74.511 Y77 E35.57183
G0 F4500 X74.511 Y73.5
G1 F2400 X115.382 Y73.5 E39.43414
G0 F4500 X115.5 Y73.584
G1 F2400 X115.5 Y83.217 E40.34446
G0 F4500 X119 Y82.784
G1 F2400 X119 Y76.05 E40.98082
G0 F4500 X108.5 Y68.688
G1 F2400 X108.5 Y85.228 E42.54385
G0 F4500 X105 Y86.88
G1 F2400 X105 Y68.688 E44.263
G0 F4500 X101.5 Y68.688
G1 F2400 X101.5 Y89.058 E46.18796
G0 F4500 X103.903 Y87.5
G1 F2400 X76.146 Y87.5 E48.811
G0 F4500 X77 Y90.229
G1 F2400 X77 Y68.688 E50.84662
G0 F4500 X80.5 Y68.688
G1 F2400 X80.5 Y101.421 E53.93989
G0 F4500 X80.524 Y101.5
G1 F2400 X90.798 Y101.5 E54.91079
G0 F4500 X91 Y101.093
G1 F2400 X91 Y68.688 E57.97306
G0 F4500 X87.5 Y68.688
G1 F2400 X87.5 Y111.568 E62.02522
G0 F4500 X87.443 Y112
G1 F2400 X83.808 Y112 E62.36873
G0 F4500 X84 Y112.613
G1 F2400 X84 Y68.688 E66.51964
G0 F4500 X94.5 Y68.688
G1 F2400 X94.5 Y95.721 E69.07426
G0 F4500 X95.515 Y94.5
G1 F2400 X78.335 Y94.5 E70.69777
G0 F4500 X77.241 Y91
G1 F2400 X99.04 Y91 E72.75777
G0 F4500 X98 Y91.911
G1 F2400 X98 Y68.688 E74.95235
G0 F4500 X92.844 Y98
G1 F2400 X79.43 Y98 E76.21997
G0 F4500 X81.619 Y105
G1 F2400 X89.241 Y105 E76.94025
G0 F4500 X88.154 Y108.5
G1 F2400 X82.713 Y108.5 E77.45442
G0 F4500 X84.902 Y115.5
G1 F2400 X87.105 Y115.5 E77.66261
G0 F4500 X87.127 Y119
G1 F2400 X86.025 Y119 E77.76674
G10
G0 F4500 X88.262 Y109.339
G0 X88.848 Y107.151
G0 X89.57 Y105.03
G0 X90.442 Y102.938
G0 X91.436 Y100.933
G0 X92.575 Y98.974
G0 X93.833 Y97.105
G0 X95.205 Y95.334
G0 X96.707 Y93.638
G0 X98.31 Y92.053
G0 X100.004 Y90.589
G0 X101.812 Y89.223
G0 X103.695 Y87.985
G0 X105.644 Y86.882
G0 X107.674 Y85.905
G0 X109.776 Y85.06
G0 X111.904 Y84.363
G0 X114.094 Y83.802
G0 X116.305 Y83.392
G0 X118.548 Y83.126
G0 X120.799 Y83.01
G0 X123.051 Y83.042
G0 X129.5 Y83.653
G11
G1 F2400 X129.5 Y83.45 E77.78593
G10
G0 F4500 X134.065 Y85.434
G0 X147.058 Y94.367
G11
G1 F2400 X147.106 Y94.316 E77.79255
G1 X147.405 Y94.527 E77.82713
G1 X148.561 Y95.373 E77.9625
G1 X148.861 Y95.562 E77.99601
G1 X149.504 Y96.015 E78.07034
G1 X149.015 Y97.564 E78.22384
G1 X145.966 Y97.564 E78.51197
G1 X146 Y97.502 E78.51865
G1 X148.097 Y97.502 E78.71682
G1 X148.666 Y96.315 E78.84121
G1 X148.067 Y95.557 E78.93251
G1 X147.601 Y94.991 E79.00179
G1 X147.058 Y94.367 E79.07996
G10
;MESH:553eca4e-c817-459c-8530-879c1fa8224e.stl
G0 F4500 X146.242 Y95.283
G0 X141.304 Y96.127
;TYPE:WALL-INNER
G11
G1 F2400 X141.304 Y100.177 E79.46268
G1 X144.763 Y100.177 E79.78956
G1 X144.764 Y100.177 E79.78965
G1 X145.029 Y100.177 E79.8147
G1 X144.924 Y100.421 E79.82931
G1 X138.253 Y115.823 E81.41545
G1 X138.176 Y116.002 E81.43387
G1 X138.008 Y115.905 E81.44531
G1 X138.007 Y115.904 E81.44545
G1 X132.955 Y112.988 E81.99668
G1 X132.864 Y111.79 E82.11022
G1 X132.594 Y110.309 E82.25248
G1 X132.172 Y108.865 E82.39465
G1 X131.602 Y107.471 E82.53697
G1 X130.892 Y106.144 E82.67919
G1 X130.048 Y104.897 E82.82148
G1 X129.079 Y103.745 E82.96374
G1 X127.999 Y102.7 E83.10575
G1 X126.812 Y101.771 E83.2482
G1 X125.539 Y100.97 E83.39033
G1 X124.186 Y100.305 E83.5328
G1 X122.775 Y99.784 E83.67493
G1 X121.315 Y99.412 E83.81731
G1 X119.826 Y99.193 E83.95954
G1 X118.32 Y99.129 E84.10198
G1 X116.817 Y99.219 E84.24427
G1 X115.333 Y99.466 E84.38644
G1 X113.882 Y99.866 E84.52867
G1 X112.478 Y100.413 E84.67106
G1 X111.14 Y101.104 E84.81337
G1 X109.881 Y101.928 E84.95556
G1 X108.714 Y102.879 E85.09783
G1 X107.65 Y103.947 E85.24029
G1 X106.705 Y105.118 E85.38249
G1 X105.884 Y106.38 E85.52476
G1 X105.194 Y107.729 E85.66795
G1 X104.653 Y109.136 E85.8104
G1 X104.259 Y110.588 E85.95258
G1 X104.018 Y112.074 E86.09484
G1 X103.933 Y113.578 E86.23719
G1 X104.001 Y115.082 E86.37947
G1 X104.227 Y116.57 E86.5217
G1 X104.605 Y118.027 E86.66394
G1 X105.133 Y119.439 E86.8064
G1 X105.805 Y120.786 E86.94865
G1 X106.611 Y122.058 E87.09096
G1 X107.545 Y123.239 E87.23324
G1 X108.595 Y124.317 E87.37545
G1 X109.752 Y125.281 E87.51777
G1 X111.003 Y126.119 E87.66006
G1 X112.333 Y126.823 E87.80227
G1 X113.73 Y127.387 E87.94464
G1 X115.178 Y127.802 E88.08698
G1 X116.659 Y128.065 E88.22912
G1 X118.161 Y128.174 E88.37144
G1 X119.666 Y128.128 E88.51373
G1 X121.156 Y127.926 E88.65582
G1 X122.619 Y127.57 E88.79811
G1 X124.037 Y127.064 E88.94038
G1 X125.121 Y126.544 E89.054
G1 X129.772 Y129.223 E89.56122
G1 X129.973 Y129.338 E89.5831
G1 X129.807 Y129.499 E89.59623
G1 X105.35 Y153.128 E92.80989
G1 X105.054 Y153.414 E92.84878
G1 X105.054 Y153.003 E92.86974
G1 X105.054 Y153.002 E92.86983
G1 X105.054 Y139.127 E94.18102
G1 X101.004 Y139.127 E94.56374
G1 X101.004 Y150.391 E95.62819
G1 X101.004 Y150.392 E95.62829
G1 X101.004 Y151.187 E95.70341
G1 X100.671 Y150.465 E95.74186
G1 X91.602 Y130.837 E97.78512
G1 X90.752 Y128.826 E97.99144
G1 X90.044 Y126.782 E98.19586
G1 X89.468 Y124.677 E98.40209
G1 X89.035 Y122.554 E98.60685
G1 X88.742 Y120.396 E98.81265
G1 X88.593 Y118.228 E99.01801
G1 X88.587 Y116.054 E99.22345
G1 X88.725 Y113.883 E99.42903
G1 X89.003 Y111.75 E99.6323
G1 X89.427 Y109.606 E99.83883
G1 X89.99 Y107.506 E100.04429
G1 X90.694 Y105.44 E100.25055
G1 X91.535 Y103.421 E100.45724
G1 X92.489 Y101.498 E100.66009
G1 X93.584 Y99.615 E100.86594
G1 X94.811 Y97.794 E101.07344
G1 X96.127 Y96.096 E101.27645
G1 X97.585 Y94.45 E101.48425
G1 X99.117 Y92.937 E101.68772
G1 X100.767 Y91.51 E101.89387
G1 X102.5 Y90.2 E102.09916
G1 X104.32 Y89.005 E102.30491
G1 X106.2 Y87.942 E102.50901
G1 X108.157 Y87 E102.71425
G1 X110.192 Y86.181 E102.92155
G1 X112.24 Y85.511 E103.12518
G1 X114.352 Y84.97 E103.33121
G1 X116.49 Y84.574 E103.53669
G1 X118.649 Y84.318 E103.74214
G1 X120.829 Y84.205 E103.94843
G1 X122.998 Y84.237 E104.15342
G1 X125.161 Y84.412 E104.35849
G1 X127.306 Y84.73 E104.56341
G1 X129.442 Y85.192 E104.76993
G1 X131.512 Y85.784 E104.97339
G1 X133.521 Y86.508 E105.17519
G1 X146.136 Y95.399 E106.63364
G1 X146.479 Y95.795 E106.68315
G1 X146.549 Y95.876 E106.69326
G1 X146.755 Y96.127 E106.72395
G1 X146.549 Y96.127 E106.72881
G1 X146.441 Y96.127 E106.73771
G1 X141.304 Y96.127 E107.22316
G0 F4500 X127.201 Y96.455
G0 X125.66 Y96.962
G1 F2400 X125.317 Y97.415 E107.27685
G1 X125.1 Y97.94 E107.33054
G1 X125.028 Y98.505 E107.38436
G1 X125.104 Y99.069 E107.43814
G1 X125.325 Y99.594 E107.49197
G1 X125.672 Y100.044 E107.54567
G1 X126.125 Y100.387 E107.59937
G1 X126.65 Y100.604 E107.65305
G1 X127.215 Y100.676 E107.70687
G1 X127.779 Y100.6 E107.76065
G1 X128.304 Y100.379 E107.81448
G1 X128.754 Y100.032 E107.86818
G1 X129.097 Y99.579 E107.92188
G1 X129.314 Y99.054 E107.97556
G1 X129.386 Y98.489 E108.02938
G1 X129.31 Y97.925 E108.08316
G1 X129.089 Y97.4 E108.13699
G1 X128.742 Y96.95 E108.19069
G1 X128.289 Y96.607 E108.24439
G1 X127.764 Y96.39 E108.29807
G1 X127.199 Y96.318 E108.3519
G1 X126.635 Y96.394 E108.40568
G1 X126.11 Y96.615 E108.4595
G1 X125.66 Y96.962 E108.5132
G0 F4500 X113.928 Y99.995
G0 X112.537 Y100.535
G0 X111.21 Y101.221
G0 X109.957 Y102.041
G0 X108.807 Y102.978
G0 X107.751 Y104.039
G0 X106.814 Y105.198
G0 X106.003 Y106.444
G0 X105.319 Y107.783
G0 X104.781 Y109.18
G0 X104.39 Y110.624
G0 X104.153 Y112.088
G0 X104.068 Y113.571
G0 X104.137 Y115.071
G0 X104.359 Y116.541
G0 X104.662 Y117.711
G0 X108.16 Y127.273
G1 F2400 X107.817 Y127.726 E108.5669
G1 X107.6 Y128.251 E108.62058
G1 X107.528 Y128.816 E108.67441
G1 X107.604 Y129.38 E108.72819
G1 X107.825 Y129.905 E108.78202
G1 X108.172 Y130.354 E108.83564
G1 X108.625 Y130.698 E108.88939
G1 X109.15 Y130.915 E108.94308
G1 X109.715 Y130.987 E108.9969
G1 X110.279 Y130.911 E109.05068
G1 X110.804 Y130.69 E109.10451
G1 X111.254 Y130.342 E109.15827
G1 X111.597 Y129.89 E109.21189
G1 X111.814 Y129.365 E109.26557
G1 X111.886 Y128.8 E109.3194
G1 X111.81 Y128.236 E109.37318
G1 X111.589 Y127.711 E109.427
G1 X111.242 Y127.261 E109.4807
G1 X110.789 Y126.918 E109.5344
G1 X110.264 Y126.701 E109.58808
G1 X109.699 Y126.629 E109.64191
G1 X109.135 Y126.705 E109.69569
G1 X108.61 Y126.926 E109.74952
G1 X108.16 Y127.273 E109.80322
G0 F4500 X107.732 Y128.286
G0 X107.691 Y129.389
G0 X107.92 Y129.294
;TYPE:WALL-OUTER
G1 F2400 X108.108 Y129.74 E109.84895
G1 X108.403 Y130.121 E109.89449
G1 X108.788 Y130.414 E109.94021
G1 X109.234 Y130.598 E109.9858
G1 X109.714 Y130.659 E110.03153
G1 X110.193 Y130.595 E110.0772
G1 X110.639 Y130.407 E110.12293
G1 X111.021 Y130.111 E110.1686
G1 X111.313 Y129.727 E110.21419
G1 X111.497 Y129.281 E110.25978
G1 X111.558 Y128.801 E110.30551
G1 X111.494 Y128.322 E110.35118
G1 X111.306 Y127.876 E110.39691
G1 X111.011 Y127.494 E110.44252
G1 X110.626 Y127.202 E110.48819
G1 X110.18 Y127.018 E110.53378
G1 X109.7 Y126.957 E110.5795
G1 X109.221 Y127.021 E110.62517
G1 X108.775 Y127.209 E110.67091
G1 X108.393 Y127.504 E110.71652
G1 X108.101 Y127.889 E110.76218
G1 X107.917 Y128.335 E110.80778
G1 X107.856 Y128.815 E110.8535
G1 X107.92 Y129.294 E110.89917
G0 F4500 X107.997 Y129.478
G0 X107.768 Y129.573
G0 X104.359 Y116.541
G0 X104.137 Y115.071
G0 X104.068 Y113.571
G0 X104.153 Y112.088
G0 X104.39 Y110.624
G0 X104.781 Y109.18
G0 X105.319 Y107.783
G0 X106.003 Y106.444
G0 X106.814 Y105.198
G0 X107.751 Y104.039
G0 X108.807 Y102.978
G0 X109.957 Y102.041
G0 X111.21 Y101.221
G0 X112.537 Y100.535
G0 X113.928 Y99.995
G0 X115.362 Y99.598
G0 X116.833 Y99.354
G0 X125.191 Y99.078
G0 X125.42 Y98.983
G1 F2400 X125.608 Y99.429 E110.94491
G1 X125.903 Y99.811 E110.99052
G1 X126.288 Y100.103 E111.03618
G1 X126.734 Y100.287 E111.08177
G1 X127.214 Y100.348 E111.1275
G1 X127.693 Y100.284 E111.17317
G1 X128.139 Y100.096 E111.21891
G1 X128.521 Y99.801 E111.26452
G1 X128.813 Y99.416 E111.31018
G1 X128.997 Y98.97 E111.35577
G1 X129.058 Y98.49 E111.4015
G1 X128.994 Y98.011 E111.44716
G1 X128.806 Y97.565 E111.4929
G1 X128.511 Y97.183 E111.53851
G1 X128.126 Y96.891 E111.58418
G1 X127.68 Y96.707 E111.62977
G1 X127.2 Y96.646 E111.67549
G1 X126.721 Y96.71 E111.72116
G1 X126.275 Y96.898 E111.7669
G1 X125.893 Y97.193 E111.81251
G1 X125.601 Y97.578 E111.85817
G1 X125.417 Y98.024 E111.90377
G1 X125.356 Y98.504 E111.94949
G1 X125.42 Y98.983 E111.99516
G0 F4500 X125.497 Y99.167
G0 X125.267 Y99.262
G0 X125.769 Y99.947
G0 X126.685 Y100.472
G0 X127.511 Y100.5
G0 X141.379 Y96.452
G0 X141.629 Y96.452
G1 F2400 X141.629 Y99.852 E112.31646
G1 X145.258 Y99.852 E112.6594
G1 X145.259 Y99.852 E112.65949
G1 X145.524 Y99.852 E112.68454
G1 X145.419 Y100.096 E112.69915
G1 X138.406 Y116.286 E114.36647
G1 X138.329 Y116.465 E114.38489
G1 X138.161 Y116.368 E114.39633
G1 X138.16 Y116.367 E114.39647
G1 X132.644 Y113.183 E114.99834
G1 X132.541 Y111.832 E115.12638
G1 X132.277 Y110.384 E115.26547
G1 X131.865 Y108.972 E115.40447
G1 X131.308 Y107.61 E115.54352
G1 X130.613 Y106.312 E115.68266
G1 X129.788 Y105.093 E115.82176
G1 X128.841 Y103.967 E115.96079
G1 X127.785 Y102.945 E116.09967
G1 X126.625 Y102.037 E116.23888
G1 X125.38 Y101.254 E116.37786
G1 X124.058 Y100.604 E116.51708
G1 X122.678 Y100.095 E116.65607
G1 X121.251 Y99.731 E116.79524
G1 X119.795 Y99.517 E116.93431
G1 X118.323 Y99.454 E117.07354
G1 X116.854 Y99.542 E117.21261
G1 X115.403 Y99.784 E117.35163
G1 X113.984 Y100.175 E117.49072
G1 X112.612 Y100.71 E117.62988
G1 X111.304 Y101.385 E117.76898
G1 X110.073 Y102.191 E117.90802
G1 X108.932 Y103.12 E118.04707
G1 X107.892 Y104.164 E118.18632
G1 X106.968 Y105.309 E118.32537
G1 X106.166 Y106.543 E118.46444
G1 X105.491 Y107.862 E118.60446
G1 X104.962 Y109.237 E118.74368
G1 X104.577 Y110.657 E118.88272
G1 X104.342 Y112.109 E119.02172
G1 X104.258 Y113.58 E119.16095
G1 X104.325 Y115.05 E119.30001
G1 X104.546 Y116.505 E119.43909
G1 X104.915 Y117.929 E119.5781
G1 X105.431 Y119.309 E119.71733
G1 X106.088 Y120.626 E119.85641
G1 X106.876 Y121.87 E119.99557
G1 X107.789 Y123.024 E120.13463
G1 X108.816 Y124.078 E120.27369
G1 X109.947 Y125.02 E120.41279
G1 X111.17 Y125.84 E120.55194
G1 X112.47 Y126.528 E120.69093
G1 X113.836 Y127.079 E120.83012
G1 X115.251 Y127.485 E120.96924
G1 X116.699 Y127.742 E121.10821
G1 X118.168 Y127.849 E121.2474
G1 X119.639 Y127.804 E121.38647
G1 X121.096 Y127.606 E121.52543
G1 X122.526 Y127.258 E121.6645
G1 X123.912 Y126.764 E121.80355
G1 X125.135 Y126.177 E121.93175
G1 X130.309 Y129.157 E122.49599
G1 X130.51 Y129.272 E122.51787
G1 X130.344 Y129.433 E122.531
G1 X105.025 Y153.894 E125.85787
G1 X104.729 Y154.18 E125.89677
G1 X104.729 Y153.769 E125.91773
G1 X104.729 Y153.768 E125.91782
G1 X104.729 Y139.452 E127.27068
G1 X101.329 Y139.452 E127.59198
G1 X101.329 Y151.869 E128.76539
G1 X101.329 Y151.87 E128.76548
G1 X101.329 Y152.665 E128.84061
G1 X100.996 Y151.943 E128.87905
G1 X91.307 Y130.973 E131.06202
G1 X90.449 Y128.944 E131.2702
G1 X89.734 Y126.881 E131.47653
G1 X89.152 Y124.753 E131.68501
G1 X88.714 Y122.602 E131.89245
G1 X88.42 Y120.44 E132.09864
G1 X88.268 Y118.236 E132.30741
G1 X88.262 Y116.055 E132.51352
G1 X88.402 Y113.851 E132.72222
G1 X88.684 Y111.687 E132.92844
G1 X89.11 Y109.534 E133.13585
G1 X89.682 Y107.401 E133.34454
G1 X90.386 Y105.335 E133.5508
G1 X91.235 Y103.296 E133.75952
G1 X92.204 Y101.342 E133.96563
G1 X93.314 Y99.433 E134.17431
G1 X94.541 Y97.612 E134.38181
G1 X95.877 Y95.887 E134.588
G1 X97.342 Y94.234 E134.79673
G1 X98.904 Y92.691 E135.00421
G1 X100.554 Y91.264 E135.21036
G1 X102.316 Y89.932 E135.41909
G1 X104.151 Y88.727 E135.62655
G1 X106.05 Y87.653 E135.83272
G1 X108.028 Y86.701 E136.04016
G1 X110.077 Y85.877 E136.24886
G1 X112.151 Y85.198 E136.45509
G1 X114.284 Y84.652 E136.66316
G1 X116.439 Y84.253 E136.87027
G1 X118.625 Y83.993 E137.0783
G1 X120.817 Y83.88 E137.28572
G1 X123.014 Y83.912 E137.49336
G1 X125.191 Y84.088 E137.69975
G1 X127.375 Y84.412 E137.9084
G1 X129.511 Y84.874 E138.11492
G1 X131.622 Y85.478 E138.32242
G1 X133.672 Y86.217 E138.52834
G1 X146.355 Y95.155 E139.99461
G1 X146.8 Y95.67 E140.05892
G1 X147.174 Y96.124 E140.11451
G1 X147.25 Y96.217 E140.12586
G1 X147.436 Y96.452 E140.15418
G1 X147.25 Y96.452 E140.15795
G1 X147.129 Y96.452 E140.1677
G1 X141.629 Y96.452 E140.68745
G0 F4500 X141.629 Y96.652
G0 X141.379 Y96.652
G0 X140.964 Y95.787
;TYPE:SKIN
G1 F2400 X140.964 Y100.517 E141.13443
G1 X144.511 Y100.517 E141.46963
G1 X138.015 Y115.517 E143.01434
G1 X133.28 Y112.783 E143.53103
G1 X133.202 Y111.747 E143.62921
G1 X132.926 Y110.231 E143.77483
G1 X132.493 Y108.752 E143.92046
G1 X131.911 Y107.326 E144.06601
G1 X131.183 Y105.968 E144.21162
G1 X130.32 Y104.691 E144.35727
G1 X129.328 Y103.512 E144.50287
