;FLAVOR:UltiGCode
;TIME:1864
;MATERIAL:5850
;MATERIAL2:0
;NOZZLE_DIAMETER:0.4
;MINX:78.35
;MINY:78.212
;MINZ:0.27
;MAXX:144.663
;MAXY:144.778
;MAXZ:9.87
;Generated with Cura_SteamEngine 4.6.1
M82 ;absolute extrusion mode

G92 E0
G92 E0
G10
;LAYER_COUNT:49
;LAYER:0
M107
G0 F4500 X86.096 Y89.849 Z0.27
;TYPE:SKIRT
G11
G1 F2400 X86.72 Y89.36 E0.07492
G1 X87.391 Y88.936 E0.14993
G1 X88.059 Y88.601 E0.22054
G1 X88.88 Y88.279 E0.30388
G1 X89.645 Y88.07 E0.37883
G1 X90.146 Y87.986 E0.42683
G1 X90.244 Y87.612 E0.46337
G1 X90.522 Y86.869 E0.53833
G1 X90.873 Y86.157 E0.61335
G1 X91.338 Y85.408 E0.69666
G1 X91.825 Y84.781 E0.77169
G1 X92.372 Y84.207 E0.84661
G1 X92.974 Y83.691 E0.92154
G1 X93.598 Y83.255 E0.99348
G1 X94.097 Y82.941 E1.04919
G1 X94.913 Y82.463 E1.13856
G1 X95.629 Y82.072 E1.21565
G1 X96.345 Y81.73 E1.29064
G1 X97.092 Y81.461 E1.36567
G1 X97.862 Y81.27 E1.44064
G1 X98.647 Y81.156 E1.5156
G1 X99.379 Y81.122 E1.58485
G1 X100.261 Y81.162 E1.66828
G1 X101.046 Y81.281 E1.74331
G1 X101.541 Y81.409 E1.79163
G1 X101.792 Y81.096 E1.82954
G1 X102.35 Y80.531 E1.90459
G1 X102.943 Y80.039 E1.9774
G1 X103.673 Y79.542 E2.06086
G1 X104.372 Y79.166 E2.13586
G1 X105.106 Y78.864 E2.21087
G1 X105.866 Y78.636 E2.28585
G1 X106.63 Y78.489 E2.35937
G1 X107.213 Y78.406 E2.41502
G1 X108.159 Y78.302 E2.50495
G1 X108.912 Y78.238 E2.57637
G1 X109.705 Y78.212 E2.65135
G1 X110.497 Y78.267 E2.72637
G1 X111.279 Y78.401 E2.80135
G1 X112.044 Y78.612 E2.87634
G1 X112.768 Y78.893 E2.94973
G1 X113.559 Y79.289 E3.03332
G1 X114.227 Y79.718 E3.10835
G1 X114.626 Y80.035 E3.1565
G1 X115.024 Y79.834 E3.19864
G1 X115.764 Y79.549 E3.27358
G1 X116.373 Y79.376 E3.3334
G1 X117.24 Y79.208 E3.41686
G1 X118.03 Y79.14 E3.49179
G1 X118.824 Y79.152 E3.56683
G1 X119.612 Y79.244 E3.6418
G1 X120.473 Y79.439 E3.72523
G1 X121.036 Y79.6 E3.78057
G1 X121.905 Y79.875 E3.8667
G1 X122.696 Y80.153 E3.94593
G1 X123.429 Y80.457 E4.02092
G1 X124.127 Y80.833 E4.09584
G1 X124.785 Y81.277 E4.17086
G1 X125.394 Y81.785 E4.2458
G1 X125.967 Y82.373 E4.32339
G1 X126.519 Y83.06 E4.40667
G1 X126.947 Y83.728 E4.48164
G1 X127.137 Y84.103 E4.52137
G1 X127.557 Y84.081 E4.56111
G1 X128.349 Y84.119 E4.63604
G1 X129.035 Y84.218 E4.70154
G1 X129.896 Y84.421 E4.78514
G1 X130.645 Y84.684 E4.86015
G1 X131.363 Y85.021 E4.93511
G1 X132.044 Y85.429 E5.01013
G1 X132.712 Y85.93 E5.08903
G1 X133.162 Y86.306 E5.14445
G1 X133.869 Y86.936 E5.23394
G1 X134.43 Y87.462 E5.30661
G1 X134.98 Y88.035 E5.38167
G1 X135.468 Y88.66 E5.4566
G1 X135.892 Y89.331 E5.53161
G1 X136.246 Y90.041 E5.60658
G1 X136.5 Y90.703 E5.67359
G1 X136.741 Y91.551 E5.7569
G1 X136.875 Y92.333 E5.83187
G1 X136.915 Y92.905 E5.88606
G1 X137.283 Y93.045 E5.92327
G1 X137.993 Y93.4 E5.99828
G1 X138.745 Y93.883 E6.08274
G1 X139.435 Y94.434 E6.16618
G1 X140 Y94.992 E6.24123
G1 X140.506 Y95.603 E6.3162
G1 X140.947 Y96.263 E6.39121
G1 X141.253 Y96.825 E6.45168
G1 X141.513 Y97.352 E6.50721
G1 X141.914 Y98.24 E6.59929
G1 X142.211 Y98.949 E6.67193
G1 X142.48 Y99.696 E6.74696
G1 X142.671 Y100.466 E6.82193
G1 X142.784 Y101.251 E6.89687
G1 X142.818 Y102.044 E6.97188
G1 X142.771 Y102.84 E7.04723
G1 X142.635 Y103.715 E7.13092
G1 X142.43 Y104.481 E7.20585
G1 X142.263 Y104.923 E7.2505
G1 X142.545 Y105.204 E7.28812
G1 X143.049 Y105.817 E7.36312
G1 X143.519 Y106.53 E7.44382
G1 X143.929 Y107.311 E7.52717
G1 X144.222 Y108.048 E7.60212
G1 X144.439 Y108.812 E7.67717
G1 X144.578 Y109.593 E7.75214
G1 X144.634 Y110.272 E7.81652
G1 X144.657 Y110.86 E7.87213
G1 X144.663 Y111.815 E7.96238
G1 X144.646 Y112.612 E8.03771
G1 X144.586 Y113.404 E8.11277
G1 X144.447 Y114.185 E8.18774
G1 X144.23 Y114.948 E8.2627
G1 X143.937 Y115.686 E8.33774
G1 X143.594 Y116.351 E8.40845
G1 X143.119 Y117.096 E8.49194
G1 X142.623 Y117.715 E8.5669
G1 X142.262 Y118.083 E8.61561
G1 X142.413 Y118.476 E8.6554
G1 X142.621 Y119.241 E8.73032
G1 X142.753 Y120.034 E8.80629
G1 X142.812 Y120.914 E8.88963
G1 X142.782 Y121.707 E8.96462
G1 X142.672 Y122.492 E9.03953
G1 X142.484 Y123.263 E9.11453
G1 X142.256 Y123.92 E9.18024
G1 X142.039 Y124.466 E9.23577
G1 X141.651 Y125.353 E9.32726
G1 X141.312 Y126.072 E9.40238
G1 X140.935 Y126.77 E9.47734
G1 X140.49 Y127.427 E9.55233
G1 X139.982 Y128.036 E9.62728
G1 X139.414 Y128.59 E9.70226
G1 X138.828 Y129.061 E9.7733
G1 X138.09 Y129.547 E9.85681
G1 X137.385 Y129.911 E9.93179
G1 X136.91 Y130.098 E9.98003
G1 X136.891 Y130.49 E10.01711
G1 X136.773 Y131.275 E10.09213
G1 X136.575 Y132.047 E10.16745
G1 X136.275 Y132.879 E10.25102
G1 X135.928 Y133.593 E10.32604
G1 X135.512 Y134.268 E10.40097
G1 X135.029 Y134.898 E10.47599
G1 X134.521 Y135.442 E10.54633
G1 X134.101 Y135.851 E10.60173
G1 X133.381 Y136.506 E10.69371
G1 X132.786 Y137.017 E10.76783
G1 X132.158 Y137.501 E10.84275
G1 X131.484 Y137.92 E10.91775
G1 X130.771 Y138.268 E10.99273
G1 X130.027 Y138.543 E11.06768
G1 X129.379 Y138.716 E11.13106
G1 X128.507 Y138.869 E11.21473
G1 X127.715 Y138.923 E11.28975
G1 X127.131 Y138.903 E11.34497
G1 X126.947 Y139.266 E11.38342
G1 X126.519 Y139.934 E11.4584
G1 X126.111 Y140.457 E11.52108
G1 X125.51 Y141.102 E11.60439
G1 X124.911 Y141.622 E11.67935
G1 X124.262 Y142.079 E11.75436
G1 X123.571 Y142.468 E11.8293
G1 X122.759 Y142.818 E11.91286
G1 X122.198 Y143.023 E11.9693
G1 X121.308 Y143.316 E12.05784
G1 X120.582 Y143.536 E12.12953
G1 X119.812 Y143.726 E12.20448
G1 X119.026 Y143.838 E12.27951
G1 X118.233 Y143.87 E12.35451
G1 X117.441 Y143.822 E12.42949
G1 X116.485 Y143.655 E12.5212
G1 X115.636 Y143.411 E12.60468
G1 X114.9 Y143.113 E12.67971
G1 X114.62 Y142.965 E12.70964
G1 X114.301 Y143.224 E12.74847
G1 X113.638 Y143.66 E12.82346
G1 X112.956 Y144.018 E12.89625
G1 X112.14 Y144.351 E12.97953
G1 X111.378 Y144.572 E13.05451
G1 X110.597 Y144.715 E13.12954
G1 X109.806 Y144.778 E13.20453
G1 X109.029 Y144.763 E13.27797
G1 X108.434 Y144.722 E13.33433
G1 X107.539 Y144.635 E13.4193
G1 X106.732 Y144.534 E13.49616
G1 X105.951 Y144.392 E13.57118
G1 X105.188 Y144.173 E13.64619
G1 X104.452 Y143.878 E13.72112
G1 X103.749 Y143.51 E13.79611
G1 X102.964 Y142.982 E13.88551
G1 X102.286 Y142.414 E13.96909
G1 X101.735 Y141.843 E14.04408
G1 X101.535 Y141.589 E14.07463
G1 X101.113 Y141.701 E14.11589
G1 X100.329 Y141.827 E14.19093
G1 X99.652 Y141.871 E14.25504
G1 X98.77 Y141.851 E14.33841
G1 X97.983 Y141.749 E14.4134
G1 X97.21 Y141.568 E14.48843
G1 X96.46 Y141.311 E14.56335
G1 X95.712 Y140.965 E14.64123
G1 X95.185 Y140.687 E14.69753
G1 X94.362 Y140.218 E14.78705
G1 X93.691 Y139.811 E14.86121
G1 X93.036 Y139.364 E14.93615
G1 X92.429 Y138.853 E15.01113
G1 X91.876 Y138.284 E15.08611
G1 X91.383 Y137.662 E15.16112
G1 X90.952 Y136.988 E15.23672
G1 X90.55 Y136.2 E15.32031
G1 X90.265 Y135.46 E15.39525
G1 X90.143 Y135.01 E15.43931
G1 X89.731 Y134.945 E15.47873
G1 X88.964 Y134.743 E15.55368
G1 X88.223 Y134.466 E15.62844
G1 X87.431 Y134.08 E15.7117
G1 X86.758 Y133.659 E15.78671
G1 X86.131 Y133.173 E15.86168
G1 X85.556 Y132.626 E15.93668
G1 X85.081 Y132.076 E16.00535
G1 X84.713 Y131.609 E16.06154
G1 X84.153 Y130.849 E16.15075
G1 X83.696 Y130.19 E16.22654
G1 X83.28 Y129.514 E16.30155
G1 X82.933 Y128.8 E16.37656
G1 X82.661 Y128.055 E16.45151
G1 X82.464 Y127.286 E16.52653
G1 X82.353 Y126.567 E16.59528
G1 X82.298 Y125.682 E16.67907
G1 X82.333 Y124.889 E16.75409
G1 X82.409 Y124.368 E16.80384
G1 X82.098 Y124.168 E16.83878
G1 X81.476 Y123.675 E16.91379
G1 X80.901 Y123.115 E16.98964
G1 X80.328 Y122.438 E17.07345
G1 X79.882 Y121.782 E17.14841
G1 X79.504 Y121.084 E17.22343
G1 X79.199 Y120.351 E17.29845
G1 X78.973 Y119.607 E17.37193
G1 X78.828 Y119.029 E17.42825
G1 X78.629 Y118.12 E17.51618
G1 X78.481 Y117.337 E17.59148
G1 X78.376 Y116.55 E17.66651
G1 X78.35 Y115.757 E17.74149
G1 X78.405 Y114.966 E17.81642
G1 X78.538 Y114.183 E17.89148
G1 X78.753 Y113.409 E17.96739
G1 X79.07 Y112.586 E18.05073
G1 X79.431 Y111.879 E18.12575
G1 X79.677 Y111.498 E18.16861
G1 X79.459 Y111.164 E18.2063
G1 X79.094 Y110.459 E18.28132
G1 X78.824 Y109.788 E18.34967
G1 X78.571 Y108.94 E18.4333
G1 X78.426 Y108.16 E18.50827
G1 X78.359 Y107.37 E18.58319
G1 X78.373 Y106.576 E18.65824
G1 X78.47 Y105.77 E18.73495
G1 X78.57 Y105.19 E18.79057
G1 X78.758 Y104.268 E18.87949
G1 X78.942 Y103.485 E18.9555
G1 X79.165 Y102.724 E19.03044
G1 X79.464 Y101.988 E19.10551
G1 X79.835 Y101.287 E19.18046
G1 X80.274 Y100.626 E19.25545
G1 X80.867 Y99.917 E19.3428
G1 X81.504 Y99.299 E19.42667
G1 X82.128 Y98.81 E19.50158
G1 X82.413 Y98.63 E19.53344
G1 X82.348 Y98.223 E19.57239
G1 X82.302 Y97.431 E19.64736
G1 X82.341 Y96.59 E19.72692
G1 X82.469 Y95.716 E19.81039
G1 X82.666 Y94.947 E19.88541
G1 X82.939 Y94.202 E19.96039
G1 X83.286 Y93.489 E20.03532
G1 X83.64 Y92.906 E20.09978
G1 X83.967 Y92.417 E20.15537
G1 X84.517 Y91.649 E20.24464
G1 X85.009 Y91.003 E20.32137
G1 X85.523 Y90.399 E20.39632
G1 X86.096 Y89.849 E20.47138
G0 F4500 X86.351 Y90.091
G1 F2400 X86.965 Y89.616 E20.54474
G1 X87.624 Y89.207 E20.61803
G1 X88.201 Y88.921 E20.67889
G1 X89.006 Y88.607 E20.76054
G1 X89.755 Y88.404 E20.83388
G1 X90.425 Y88.296 E20.89801
G1 X90.593 Y87.669 E20.95935
G1 X90.871 Y86.944 E21.03273
G1 X91.179 Y86.328 E21.09781
G1 X91.635 Y85.594 E21.17947
G1 X92.113 Y84.983 E21.25278
G1 X92.651 Y84.425 E21.32603
G1 X93.244 Y83.925 E21.39933
G1 X93.784 Y83.551 E21.4614
G1 X94.283 Y83.237 E21.51712
G1 X95.088 Y82.766 E21.60525
G1 X95.796 Y82.38 E21.68146
G1 X96.496 Y82.046 E21.75475
G1 X97.227 Y81.786 E21.82807
G1 X97.98 Y81.603 E21.9013
G1 X98.749 Y81.498 E21.97464
G1 X99.379 Y81.472 E22.03423
G1 X100.244 Y81.512 E22.11606
G1 X101.01 Y81.631 E22.18932
G1 X101.668 Y81.805 E22.25363
G1 X102.089 Y81.29 E22.31649
G1 X102.638 Y80.742 E22.3898
G1 X103.153 Y80.319 E22.45278
G1 X103.869 Y79.832 E22.53461
G1 X104.553 Y79.468 E22.60783
G1 X105.272 Y79.176 E22.68116
G1 X106.017 Y78.96 E22.75446
G1 X106.679 Y78.835 E22.81813
G1 X107.262 Y78.752 E22.87378
G1 X108.195 Y78.65 E22.96247
G1 X108.941 Y78.587 E23.03322
G1 X109.717 Y78.563 E23.10659
G1 X110.49 Y78.618 E23.17982
G1 X111.254 Y78.754 E23.25315
G1 X112 Y78.967 E23.32647
G1 X112.626 Y79.213 E23.39003
G1 X113.4 Y79.602 E23.47189
G1 X114.051 Y80.023 E23.54515
G1 X114.581 Y80.449 E23.60941
G1 X115.214 Y80.133 E23.67627
G1 X115.94 Y79.86 E23.74956
G1 X116.455 Y79.716 E23.8001
G1 X117.305 Y79.552 E23.88191
G1 X118.078 Y79.489 E23.9552
G1 X118.853 Y79.505 E24.02845
G1 X119.623 Y79.601 E24.10178
G1 X120.377 Y79.775 E24.1749
G1 X120.94 Y79.936 E24.23024
G1 X121.798 Y80.208 E24.3153
G1 X122.578 Y80.483 E24.39345
G1 X123.294 Y80.78 E24.46671
G1 X123.976 Y81.15 E24.54003
G1 X124.616 Y81.588 E24.61332
G1 X125.208 Y82.09 E24.68667
G1 X125.705 Y82.604 E24.75423
G1 X126.244 Y83.278 E24.83579
G1 X126.66 Y83.932 E24.90903
G1 X126.925 Y84.463 E24.96511
G1 X127.61 Y84.431 E25.02992
G1 X128.384 Y84.475 E25.10318
G1 X128.97 Y84.562 E25.15916
G1 X129.813 Y84.762 E25.24104
G1 X130.544 Y85.021 E25.31433
G1 X131.245 Y85.355 E25.3877
G1 X131.907 Y85.759 E25.46099
G1 X132.488 Y86.198 E25.52981
G1 X132.938 Y86.574 E25.58522
G1 X133.635 Y87.196 E25.6735
G1 X134.19 Y87.717 E25.74544
G1 X134.727 Y88.277 E25.81876
G1 X135.202 Y88.89 E25.89204
G1 X135.612 Y89.548 E25.96531
G1 X135.953 Y90.245 E26.03863
G1 X136.168 Y90.813 E26.09603
G1 X136.403 Y91.645 E26.17773
G1 X136.532 Y92.41 E26.25104
G1 X136.579 Y93.15 E26.32111
G1 X137.191 Y93.387 E26.38313
G1 X137.881 Y93.74 E26.45637
G1 X138.539 Y94.167 E26.5305
G1 X139.215 Y94.707 E26.61226
G1 X139.765 Y95.254 E26.68556
G1 X140.256 Y95.855 E26.7589
G1 X140.682 Y96.503 E26.83219
G1 X140.939 Y96.98 E26.88339
G1 X141.199 Y97.507 E26.93892
G1 X141.594 Y98.382 E27.02964
G1 X141.888 Y99.084 E27.10157
G1 X142.15 Y99.814 E27.17486
G1 X142.334 Y100.568 E27.2482
G1 X142.44 Y101.336 E27.32147
G1 X142.467 Y102.111 E27.39475
G1 X142.423 Y102.802 E27.46018
G1 X142.289 Y103.659 E27.54215
G1 X142.086 Y104.407 E27.6154
G1 X141.855 Y105.009 E27.67633
G1 X142.321 Y105.478 E27.73881
G1 X142.809 Y106.081 E27.81211
G1 X143.217 Y106.706 E27.88265
G1 X143.618 Y107.472 E27.96435
G1 X143.902 Y108.194 E28.03767
G1 X144.109 Y108.941 E28.11092
G1 X144.239 Y109.706 E28.18425
G1 X144.284 Y110.286 E28.23923
G1 X144.307 Y110.874 E28.29483
G1 X144.313 Y111.815 E28.38376
G1 X144.296 Y112.604 E28.45834
G1 X144.236 Y113.377 E28.53161
G1 X144.098 Y114.14 E28.60488
G1 X143.881 Y114.885 E28.67821
G1 X143.589 Y115.604 E28.75154
G1 X143.291 Y116.176 E28.81249
G1 X142.824 Y116.905 E28.89431
G1 X142.338 Y117.509 E28.96757
G1 X141.856 Y117.996 E29.03232
G1 X142.096 Y118.634 E29.09673
G1 X142.294 Y119.384 E29.17004
G1 X142.405 Y120.073 E29.23599
G1 X142.463 Y120.936 E29.31773
G1 X142.43 Y121.71 E29.39093
G1 X142.319 Y122.478 E29.46426
G1 X142.128 Y123.23 E29.53759
G1 X141.931 Y123.79 E29.59368
G1 X141.714 Y124.336 E29.64921
G1 X141.332 Y125.21 E29.73934
G1 X140.996 Y125.921 E29.81366
G1 X140.627 Y126.604 E29.88702
G1 X140.19 Y127.244 E29.96025
G1 X139.689 Y127.837 E30.03361
G1 X139.13 Y128.374 E30.10687
G1 X138.622 Y128.777 E30.16814
G1 X137.899 Y129.253 E30.24994
G1 X137.208 Y129.607 E30.32331
G1 X136.572 Y129.853 E30.38776
G1 X136.537 Y130.508 E30.44974
G1 X136.415 Y131.274 E30.52304
G1 X136.241 Y131.943 E30.58836
G1 X135.946 Y132.758 E30.67027
G1 X135.605 Y133.455 E30.7436
G1 X135.194 Y134.113 E30.81691
G1 X134.717 Y134.724 E30.89016
G1 X134.277 Y135.191 E30.9508
G1 X133.857 Y135.6 E31.0062
G1 X133.147 Y136.245 E31.09685
G1 X132.559 Y136.75 E31.17009
G1 X131.944 Y137.223 E31.24341
G1 X131.284 Y137.63 E31.31669
G1 X130.585 Y137.967 E31.39002
G1 X129.855 Y138.23 E31.46334
G1 X129.303 Y138.375 E31.51728
G1 X128.449 Y138.524 E31.5992
G1 X127.675 Y138.573 E31.67249
G1 X126.923 Y138.544 E31.74361
G1 X126.617 Y139.138 E31.80675
G1 X126.193 Y139.787 E31.88001
G1 X125.844 Y140.23 E31.9333
G1 X125.255 Y140.861 E32.01487
G1 X124.668 Y141.367 E32.08811
G1 X124.031 Y141.811 E32.16149
G1 X123.352 Y142.186 E32.23479
G1 X122.639 Y142.489 E32.308
G1 X122.078 Y142.694 E32.36444
G1 X121.2 Y142.983 E32.45179
G1 X120.481 Y143.201 E32.52279
G1 X119.728 Y143.386 E32.59606
G1 X118.959 Y143.492 E32.66942
G1 X118.184 Y143.519 E32.7427
G1 X117.411 Y143.466 E32.81592
G1 X116.566 Y143.314 E32.89706
G1 X115.734 Y143.075 E32.97886
G1 X115.016 Y142.781 E33.05218
G1 X114.582 Y142.548 E33.09873
G1 X114.052 Y142.973 E33.16293
G1 X113.401 Y143.394 E33.23619
G1 X112.809 Y143.7 E33.29917
G1 X112.009 Y144.026 E33.3808
G1 X111.263 Y144.239 E33.45412
G1 X110.5 Y144.374 E33.52734
G1 X109.726 Y144.43 E33.60068
G1 X109.053 Y144.414 E33.66429
G1 X108.458 Y144.373 E33.72065
G1 X107.574 Y144.287 E33.80459
G1 X106.777 Y144.187 E33.88049
G1 X106.014 Y144.047 E33.9538
G1 X105.269 Y143.83 E34.02713
G1 X104.551 Y143.538 E34.10038
G1 X103.866 Y143.173 E34.17372
G1 X103.176 Y142.704 E34.25257
G1 X102.513 Y142.147 E34.33439
G1 X101.976 Y141.587 E34.40771
G1 X101.67 Y141.192 E34.45493
G1 X100.989 Y141.369 E34.52142
G1 X100.222 Y141.486 E34.59474
G1 X99.644 Y141.521 E34.64947
G1 X98.78 Y141.501 E34.73114
G1 X98.011 Y141.398 E34.80446
G1 X97.257 Y141.217 E34.87773
G1 X96.525 Y140.96 E34.95105
G1 X95.875 Y140.656 E35.01886
G1 X95.348 Y140.378 E35.07516
G1 X94.537 Y139.915 E35.16341
G1 X93.874 Y139.512 E35.23673
G1 X93.233 Y139.075 E35.31004
G1 X92.642 Y138.573 E35.38332
G1 X92.104 Y138.014 E35.45664
G1 X91.628 Y137.402 E35.52991
G1 X91.256 Y136.815 E35.59558
G1 X90.863 Y136.043 E35.67744
G1 X90.587 Y135.318 E35.75075
G1 X90.423 Y134.701 E35.81108
G1 X89.752 Y134.591 E35.87534
G1 X89.004 Y134.388 E35.94858
G1 X88.362 Y134.145 E36.01345
G1 X87.586 Y133.766 E36.09506
G1 X86.93 Y133.352 E36.16837
G1 X86.32 Y132.873 E36.24166
G1 X85.762 Y132.334 E36.31497
G1 X85.356 Y131.859 E36.37402
G1 X84.988 Y131.392 E36.43021
G1 X84.436 Y130.643 E36.51814
G1 X83.984 Y129.991 E36.59311
G1 X83.578 Y129.331 E36.66633
G1 X83.242 Y128.632 E36.73963
G1 X82.98 Y127.902 E36.81292
G1 X82.794 Y127.149 E36.88622
G1 X82.701 Y126.53 E36.94537
G1 X82.648 Y125.662 E37.02755
G1 X82.685 Y124.887 E37.10087
G1 X82.789 Y124.197 E37.16681
G1 X82.259 Y123.853 E37.22652
G1 X81.655 Y123.366 E37.29984
G1 X81.158 Y122.877 E37.36573
G1 X80.596 Y122.213 E37.44793
G1 X80.163 Y121.57 E37.52119
G1 X79.798 Y120.886 E37.59446
G1 X79.505 Y120.167 E37.66783
G1 X79.312 Y119.522 E37.73145
