;FLAVOR:UltiGCode
;TIME:4723
;MATERIAL:21262
;MATERIAL2:0
;NOZZLE_DIAMETER:0.4
;MINX:73.817
;MINY:68.548
;MINZ:0.27
;MAXX:150.331
;MAXY:154.269
;MAXZ:32.97
;Generated with Cura_SteamEngine 4.6.1
M82 ;absolute extrusion mode

G92 E0
G92 E0
G10
;LAYER_COUNT:110
;LAYER:0
M107
G0 F4500 X75.035 Y68.549 Z0.27
;TYPE:SUPPORT
G11
G1 F2400 X119.532 Y68.548 E4.20497
G1 X127.49 Y74.156 E5.12497
G1 X124.283 Y78.707 E5.65109
G1 X124.367 Y79.193 E5.6977
G1 X131.366 Y84.123 E6.50672
G1 X130.429 Y83.855 E6.59881
G1 X128.224 Y83.378 E6.81201
G1 X125.972 Y83.044 E7.02715
G1 X123.724 Y82.862 E7.24028
G1 X121.459 Y82.83 E7.45434
G1 X119.197 Y82.947 E7.66839
G1 X116.943 Y83.215 E7.88289
G1 X114.718 Y83.627 E8.09673
G1 X112.518 Y84.191 E8.31135
G1 X110.378 Y84.891 E8.52412
G1 X108.265 Y85.741 E8.73935
G1 X106.225 Y86.723 E8.95331
G1 X104.265 Y87.832 E9.16612
G1 X102.372 Y89.076 E9.38018
G1 X100.556 Y90.449 E9.59532
G1 X98.853 Y91.921 E9.80804
G1 X97.241 Y93.514 E10.0222
G1 X95.73 Y95.219 E10.23749
G1 X94.351 Y96.999 E10.45028
G1 X93.086 Y98.878 E10.66433
G1 X91.942 Y100.847 E10.87953
G1 X90.943 Y102.863 E11.09215
G1 X90.066 Y104.966 E11.30747
G1 X89.341 Y107.098 E11.52028
G1 X88.751 Y109.298 E11.73552
G1 X88.311 Y111.521 E11.94967
G1 X88.021 Y113.753 E12.16237
G1 X87.876 Y116.027 E12.3777
G1 X87.882 Y118.276 E12.59023
G1 X88.039 Y120.55 E12.80563
G1 X88.342 Y122.78 E13.0183
G1 X88.458 Y123.349 E13.07318
G1 X87.207 Y120.635 E13.35559
G1 X86.92 Y119.964 E13.42456
G1 X86.494 Y118.866 E13.53585
G1 X86.124 Y117.769 E13.64526
G1 X73.818 Y90.686 E16.45642
G1 X77.214 Y90.686 E16.77734
G1 X77.528 Y90.263 E16.82712
G1 X75.035 Y82.281 E17.61735
G1 X75.035 Y68.549 E18.91503
G0 F4500 X75.175 Y70
G1 F2400 X121.351 Y70 E23.27866
G0 F4500 X122.5 Y70.812
G1 F2400 X122.5 Y82.704 E24.40245
G0 F4500 X119 Y82.831
G1 F2400 X119 Y68.688 E25.73897
G0 F4500 X115.5 Y68.688
G1 F2400 X115.5 Y83.339 E27.12349
G0 F4500 X112.7 Y84
G1 F2400 X75.718 Y84 E30.61829
G0 F4500 X75.175 Y80.5
G1 F2400 X125.982 Y80.5 E35.41955
G0 F4500 X126 Y80.515
G1 F2400 X126 Y82.906 E35.6455
G0 F4500 X129.5 Y82.98
G1 F2400 X129.5 Y83.51 E35.69558
G0 F4500 X125.314 Y77
G1 F2400 X75.175 Y77 E40.43372
G0 F4500 X75.175 Y73.5
G1 F2400 X126.318 Y73.5 E45.26673
G0 F4500 X126 Y73.278
G1 F2400 X126 Y76.028 E45.52661
G0 F4500 X112 Y68.688
G1 F2400 X112 Y84.214 E46.99381
G0 F4500 X108.5 Y85.495
G1 F2400 X108.5 Y68.688 E48.58207
G0 F4500 X105 Y68.688
G1 F2400 X105 Y87.256 E50.33675
G0 F4500 X104.567 Y87.5
G1 F2400 X76.812 Y87.5 E52.9596
G0 F4500 X77 Y88.1
G1 F2400 X77 Y68.688 E54.79403
G0 F4500 X80.5 Y68.688
G1 F2400 X80.5 Y105.053 E58.23052
G0 F4500 X80.475 Y105
G1 F2400 X89.905 Y105 E59.12166
G0 F4500 X91 Y102.433
G1 F2400 X91 Y68.688 E62.31056
G0 F4500 X87.5 Y68.688
G1 F2400 X87.5 Y120.936 E67.248
G0 F4500 X87.791 Y119
G1 F2400 X86.695 Y119 E67.35157
G0 F4500 X87.769 Y115.5
G1 F2400 X85.247 Y115.5 E67.5899
G0 F4500 X84 Y112.755
G1 F2400 X84 Y68.688 E71.75423
G0 F4500 X94.5 Y68.688
G1 F2400 X94.5 Y96.578 E74.38984
G0 F4500 X93.508 Y98
G1 F2400 X77.294 Y98 E75.92206
G0 F4500 X77 Y97.35
G1 F2400 X77 Y90.826 E76.53858
G0 F4500 X74.114 Y91
G1 F2400 X99.704 Y91 E78.95683
G0 F4500 X101.5 Y89.56
G1 F2400 X101.5 Y68.688 E80.92924
G0 F4500 X98 Y68.688
G1 F2400 X98 Y92.568 E83.1859
G0 F4500 X96.179 Y94.5
G1 F2400 X75.704 Y94.5 E85.12078
G0 F4500 X78.885 Y101.5
G1 F2400 X91.462 Y101.5 E86.30931
G0 F4500 X88.819 Y108.5
G1 F2400 X82.066 Y108.5 E86.94747
G0 F4500 X83.656 Y112
G1 F2400 X88.107 Y112 E87.36809
G0 F4500 X98.365 Y110.154
G1 F2400 X105.714 Y97.425 E88.75706
G1 X109.633 Y99.687 E89.18467
G1 X102.284 Y112.417 E90.57373
G1 X98.365 Y110.154 E91.00138
G0 F4500 X99.481 Y108.5
G1 F2400 X104.383 Y108.5 E91.46462
G0 F4500 X105 Y107.433
G1 F2400 X105 Y98.94 E92.26721
G0 F4500 X105.544 Y98
G1 F2400 X106.431 Y98 E92.35103
G0 F4500 X108.5 Y99.195
G1 F2400 X108.5 Y101.37 E92.55657
G0 F4500 X108.424 Y101.5
G1 F2400 X103.523 Y101.5 E93.01971
G0 F4500 X106.404 Y105
G1 F2400 X101.502 Y105 E93.48295
G0 F4500 X101.5 Y105.002
G1 F2400 X101.5 Y111.801 E94.12546
G0 F4500 X101.843 Y112
G1 F2400 X102.362 Y112 E94.1745
G0 F4500 X129.993 Y128.415
G1 F2400 X137.345 Y115.687 E95.56354
G1 X141.263 Y117.949 E95.99106
G1 X133.914 Y130.679 E97.38012
G1 X129.993 Y128.415 E97.80798
G0 F4500 X132.154 Y129.5
G1 F2400 X134.432 Y129.5 E98.02325
G0 F4500 X133 Y129.988
G1 F2400 X133 Y123.49 E98.63732
G0 F4500 X133.572 Y122.5
G1 F2400 X138.473 Y122.5 E99.10046
G0 F4500 X140 Y119.857
G1 F2400 X140 Y117.382 E99.33435
G0 F4500 X140.494 Y119
G1 F2400 X135.594 Y119 E99.7974
G0 F4500 X136.5 Y117.43
G1 F2400 X136.5 Y125.92 E100.5997
G0 F4500 X136.452 Y126
G1 F2400 X131.55 Y126 E101.06294
G0 F4500 X147.592 Y97.703
G1 F2400 X147.476 Y97.502 E101.08487
G1 X148.761 Y97.502 E101.20631
G1 X149.33 Y96.315 E101.3307
G1 X148.731 Y95.557 E101.422
G1 X148.265 Y94.991 E101.49128
G1 X147.719 Y94.364 E101.56985
G1 X147.614 Y94.29 E101.58199
G1 X147.758 Y94.136 E101.60191
G1 X150.331 Y95.955 E101.89968
G1 X149.782 Y97.703 E102.07283
G1 X147.592 Y97.703 E102.27978
G10
;MESH:7b7a409a-5580-4164-8e53-13a6988df79e.stl
G0 F4500 X147.592 Y96.282
G0 X141.968 Y96.127
;TYPE:WALL-INNER
G11
G1 F2400 X141.968 Y100.177 E102.66251
G1 X145.711 Y100.177 E103.01622
G1 X145.712 Y100.177 E103.01631
G1 X145.906 Y100.177 E103.03465
G1 X145.885 Y100.37 E103.04618
G1 X144.097 Y116.32 E104.5629
G1 X143.818 Y118.225 E104.74484
G1 X143.446 Y119.913 E104.90819
G1 X142.929 Y121.654 E105.07981
G1 X142.313 Y123.299 E105.24581
G1 X141.574 Y124.913 E105.41356
G1 X140.721 Y126.473 E105.58158
G1 X139.761 Y127.965 E105.74923
G1 X138.693 Y129.394 E105.91782
G1 X137.525 Y130.745 E106.08659
G1 X136.271 Y132.004 E106.25451
G1 X134.936 Y133.165 E106.4217
G1 X133.486 Y134.257 E106.59324
G1 X105.992 Y153.455 E109.76214
G1 X105.718 Y153.646 E109.7937
G1 X105.718 Y153.312 E109.81128
G1 X105.718 Y153.311 E109.81137
G1 X105.718 Y139.127 E111.15176
G1 X101.668 Y139.127 E111.53449
G1 X101.668 Y150.391 E112.59893
G1 X101.668 Y150.392 E112.59903
G1 X101.668 Y151.187 E112.67416
G1 X101.335 Y150.465 E112.7126
G1 X92.266 Y130.837 E114.75587
G1 X91.416 Y128.826 E114.96218
G1 X90.708 Y126.782 E115.1666
G1 X90.132 Y124.677 E115.37284
G1 X89.699 Y122.554 E115.57759
G1 X89.406 Y120.396 E115.78339
G1 X89.257 Y118.226 E115.98894
G1 X89.251 Y116.054 E116.1942
G1 X89.389 Y113.883 E116.39977
G1 X89.667 Y111.75 E116.60304
G1 X90.092 Y109.606 E116.80959
G1 X90.655 Y107.506 E117.01505
G1 X91.358 Y105.44 E117.22128
G1 X92.199 Y103.421 E117.42797
G1 X93.153 Y101.498 E117.63082
G1 X94.248 Y99.615 E117.83667
G1 X95.475 Y97.794 E118.04417
G1 X96.791 Y96.096 E118.24718
G1 X98.249 Y94.45 E118.45498
G1 X99.781 Y92.937 E118.65845
G1 X101.431 Y91.51 E118.8646
G1 X103.164 Y90.2 E119.06989
G1 X104.984 Y89.005 E119.27564
G1 X106.864 Y87.942 E119.47974
G1 X108.821 Y87 E119.68498
G1 X110.856 Y86.181 E119.89228
G1 X112.904 Y85.511 E120.09591
G1 X115.016 Y84.97 E120.30194
G1 X117.154 Y84.574 E120.50742
G1 X119.313 Y84.318 E120.71287
G1 X121.493 Y84.205 E120.91916
G1 X123.662 Y84.237 E121.12415
G1 X125.825 Y84.412 E121.32922
G1 X127.97 Y84.73 E121.53414
G1 X130.106 Y85.192 E121.74066
G1 X132.176 Y85.784 E121.94412
G1 X134.185 Y86.508 E122.14592
G1 X146.8 Y95.399 E123.60437
G1 X147.143 Y95.795 E123.65388
G1 X147.213 Y95.876 E123.664
G1 X147.419 Y96.127 E123.69468
G1 X147.213 Y96.127 E123.69954
G1 X147.105 Y96.127 E123.70844
G1 X141.968 Y96.127 E124.19389
G0 F4500 X141.574 Y116.707
G0 X142.941 Y117.5
G0 X134.417 Y132.558
G1 F2400 X134.504 Y132.407 E124.21036
G1 X143.142 Y117.446 E125.8429
G1 X105.362 Y95.633 E129.96546
G1 X105.211 Y95.546 E129.98193
G1 X105.124 Y95.697 E129.99257
G1 X96.486 Y110.658 E131.62512
G1 X134.266 Y132.471 E135.74768
G1 X134.417 Y132.558 E135.75832
G0 F4500 X134.298 Y132.114
;TYPE:WALL-OUTER
G1 F2400 X134.385 Y131.963 E135.77479
G1 X142.698 Y117.565 E137.34591
G1 X105.481 Y96.077 E141.40703
G1 X105.33 Y95.99 E141.4235
G1 X105.243 Y96.141 E141.43415
G1 X96.93 Y110.539 E143.00526
G1 X134.147 Y132.027 E147.06638
G1 X134.298 Y132.114 E147.07703
G0 F4500 X134.385 Y131.963
G0 X134.398 Y131.941
G0 X134.613 Y132.067
G0 X142.941 Y117.5
G0 X141.604 Y116.725
G0 X142.043 Y96.452
G0 X142.293 Y96.452
G1 F2400 X142.293 Y99.852 E147.39833
G1 X146.074 Y99.852 E147.75564
G1 X146.075 Y99.852 E147.75573
G1 X146.269 Y99.852 E147.77406
G1 X146.248 Y100.045 E147.7856
G1 X144.419 Y116.367 E149.33768
G1 X144.14 Y118.273 E149.51972
G1 X143.758 Y120.006 E149.68742
G1 X143.241 Y121.747 E149.85905
G1 X142.614 Y123.42 E150.02788
G1 X141.859 Y125.069 E150.19927
G1 X141.001 Y126.638 E150.36826
G1 X140.027 Y128.153 E150.53846
G1 X138.943 Y129.602 E150.70947
G1 X137.771 Y130.958 E150.87884
G1 X136.492 Y132.242 E151.05011
G1 X135.137 Y133.421 E151.21984
G1 X133.681 Y134.517 E151.39206
G1 X105.667 Y154.078 E154.62089
G1 X105.393 Y154.269 E154.65245
G1 X105.393 Y153.935 E154.67003
G1 X105.393 Y153.934 E154.67012
G1 X105.393 Y139.452 E156.03867
G1 X101.993 Y139.452 E156.35997
G1 X101.993 Y151.869 E157.53338
G1 X101.993 Y151.87 E157.53347
G1 X101.993 Y152.665 E157.6086
G1 X101.66 Y151.943 E157.64704
G1 X91.971 Y130.973 E159.83001
G1 X91.113 Y128.944 E160.03819
G1 X90.398 Y126.881 E160.24452
G1 X89.816 Y124.753 E160.453
G1 X89.378 Y122.602 E160.66044
G1 X89.084 Y120.44 E160.86663
G1 X88.932 Y118.236 E161.0754
G1 X88.926 Y116.055 E161.28151
G1 X89.066 Y113.851 E161.4902
G1 X89.348 Y111.687 E161.69643
G1 X89.775 Y109.534 E161.90385
G1 X90.347 Y107.401 E162.11254
G1 X91.05 Y105.335 E162.31877
G1 X91.899 Y103.296 E162.52749
G1 X92.868 Y101.342 E162.73361
G1 X93.978 Y99.433 E162.94229
G1 X95.205 Y97.612 E163.14979
G1 X96.541 Y95.887 E163.35597
G1 X98.006 Y94.234 E163.5647
G1 X99.568 Y92.691 E163.77219
G1 X101.218 Y91.264 E163.97834
G1 X102.98 Y89.932 E164.18707
G1 X104.815 Y88.727 E164.39452
G1 X106.714 Y87.653 E164.60069
G1 X108.692 Y86.701 E164.80814
G1 X110.741 Y85.877 E165.01684
G1 X112.815 Y85.198 E165.22307
G1 X114.948 Y84.652 E165.43113
G1 X117.103 Y84.253 E165.63824
G1 X119.289 Y83.993 E165.84628
G1 X121.481 Y83.88 E166.05369
G1 X123.678 Y83.912 E166.26133
G1 X125.855 Y84.088 E166.46773
G1 X128.039 Y84.412 E166.67638
G1 X130.175 Y84.874 E166.8829
G1 X132.286 Y85.478 E167.09039
G1 X134.336 Y86.217 E167.29632
G1 X147.019 Y95.155 E168.76258
G1 X147.464 Y95.67 E168.8269
G1 X147.838 Y96.124 E168.88249
G1 X147.914 Y96.217 E168.89384
G1 X148.1 Y96.452 E168.92216
G1 X147.914 Y96.452 E168.92592
G1 X147.793 Y96.452 E168.93568
G1 X142.293 Y96.452 E169.45543
G0 F4500 X142.293 Y96.652
G0 X142.043 Y96.652
G0 X141.628 Y95.787
;TYPE:SKIN
G1 F2400 X141.628 Y100.517 E169.90241
G1 X145.525 Y100.517 E170.27068
G1 X143.761 Y116.271 E171.76873
G1 X143.486 Y118.152 E171.94838
G1 X143.12 Y119.816 E172.10938
G1 X142.606 Y121.544 E172.27975
G1 X141.996 Y123.174 E172.44422
G1 X141.275 Y124.75 E172.608
G1 X140.424 Y126.305 E172.77551
G1 X139.481 Y127.771 E172.94023
G1 X138.428 Y129.181 E173.10653
G1 X137.276 Y130.514 E173.27303
G1 X136.04 Y131.755 E173.43854
G1 X134.726 Y132.898 E173.60312
G1 X133.282 Y133.985 E173.77392
G1 X106.058 Y152.995 E176.91173
G1 X106.058 Y138.787 E178.25438
G1 X101.328 Y138.787 E178.70137
G1 X101.328 Y149.64 E179.72698
G1 X92.575 Y130.695 E181.69913
G1 X91.732 Y128.701 E181.90371
G1 X91.033 Y126.682 E182.10562
G1 X90.463 Y124.598 E182.30979
G1 X90.034 Y122.493 E182.5128
G1 X89.745 Y120.373 E182.71499
G1 X89.597 Y118.203 E182.92053
G1 X89.591 Y116.075 E183.12163
G1 X89.727 Y113.927 E183.32502
G1 X90.005 Y111.794 E183.5283
G1 X90.426 Y109.672 E183.73273
G1 X90.977 Y107.615 E183.93397
G1 X91.676 Y105.56 E184.1391
G1 X92.504 Y103.572 E184.34261
G1 X93.453 Y101.659 E184.54441
G1 X94.536 Y99.796 E184.74805
G1 X95.757 Y97.984 E184.95453
G1 X97.046 Y96.321 E185.15336
G1 X98.496 Y94.684 E185.36002
G1 X100.012 Y93.187 E185.56136
G1 X101.636 Y91.782 E185.76429
G1 X103.361 Y90.478 E185.96863
G1 X105.163 Y89.293 E186.17244
G1 X107.012 Y88.249 E186.3731
G1 X108.969 Y87.307 E186.57835
G1 X110.973 Y86.5 E186.78251
G1 X112.992 Y85.84 E186.98324
G1 X115.1 Y85.3 E187.18888
G1 X117.194 Y84.912 E187.39013
G1 X119.34 Y84.658 E187.59434
G1 X121.506 Y84.545 E187.7993
G1 X123.657 Y84.577 E188.0026
G1 X125.777 Y84.748 E188.20359
G1 X127.908 Y85.064 E188.40717
G1 X130.022 Y85.522 E188.61158
G1 X132.072 Y86.108 E188.81306
G1 X134.026 Y86.812 E189.00933
G1 X146.57 Y95.653 E190.45958
G1 X146.686 Y95.787 E190.47633
G1 X141.628 Y95.787 E190.95431
G0 F4500 X143.606 Y117.322
G1 F2400 X105.087 Y95.082 E195.15752
G1 X96.022 Y110.782 E196.87072
G1 X134.541 Y133.022 E201.07393
G1 X143.606 Y117.322 E202.78713
G0 F4500 X142.115 Y100.03
G0 X142.115 Y96.274
G0 X146.117 Y95.629
G1 F2400 X145.768 Y95.281 E202.83371
G0 F4500 X145.622 Y95.629
G1 F2400 X144.091 Y94.098 E203.03831
G1 X144.029 Y94.036
G0 F4500 X144.137 Y95.629
G1 F2400 X139.061 Y90.553 E203.71669
G1 X138.999 Y90.491
G0 F4500 X140.737 Y91.735
G1 F2400 X144.632 Y95.629 E204.23716
G0 F4500 X145.127 Y95.629
G1 F2400 X142.414 Y92.917 E204.59967
G1 X142.352 Y92.855
G0 F4500 X142.652 Y95.629
G1 F2400 X134.029 Y87.007 E205.752
G1 X133.967 Y86.945
G0 F4500 X133.214 Y86.687
G1 F2400 X142.157 Y95.629 E206.94711
G0 F4500 X141.662 Y95.629
G1 F2400 X132.441 Y86.408 E208.17943
G1 X132.379 Y86.346
G0 F4500 X131.704 Y86.166
G1 F2400 X141.47 Y95.932 E209.48459
G0 F4500 X141.47 Y96.427
G1 F2400 X131.011 Y85.968 E210.88237
G1 X130.949 Y85.906
G0 F4500 X130.319 Y85.771
G1 F2400 X141.47 Y96.922 E212.37262
G0 F4500 X141.47 Y97.417
G1 F2400 X129.657 Y85.605 E213.95128
G0 F4500 X129.025 Y85.467
G1 F2400 X141.47 Y97.912 E215.61447
G0 F4500 X141.47 Y98.407
G1 F2400 X128.393 Y85.33 E217.36212
G0 F4500 X127.77 Y85.202
G1 F2400 X141.47 Y98.902 E219.19303
G0 F4500 X141.47 Y99.397
G1 F2400 X127.189 Y85.116 E221.10159
G0 F4500 X126.608 Y85.03
G1 F2400 X141.47 Y99.892 E223.0878
G0 F4500 X141.47 Y100.387
G1 F2400 X126.026 Y84.944 E225.15172
G0 F4500 X125.468 Y84.88
G1 F2400 X144.937 Y104.349 E227.75361
G0 F4500 X144.987 Y103.904
G1 F2400 X141.757 Y100.674 E228.18528
G0 F4500 X142.252 Y100.674
G1 F2400 X145.036 Y103.458 E228.55734
G0 F4500 X145.086 Y103.013
G1 F2400 X142.747 Y100.674 E228.86994
G0 F4500 X143.242 Y100.674
G1 F2400 X145.136 Y102.568 E229.12306
G0 F4500 X145.185 Y102.123
G1 F2400 X143.737 Y100.674 E229.31664
G0 F4500 X144.232 Y100.674
G1 F2400 X145.236 Y101.678 E229.45082
G0 F4500 X145.285 Y101.232
G1 F2400 X144.727 Y100.674 E229.52539
G0 F4500 X145.222 Y100.674
G1 F2400 X145.335 Y100.788 E229.54056
G0 F4500 X144.887 Y104.794
G1 F2400 X124.93 Y84.837 E232.20767
G0 F4500 X124.391 Y84.793
G1 F2400 X144.837 Y105.239 E234.94014
G0 F4500 X144.787 Y105.684
G1 F2400 X123.853 Y84.75 E237.73783
G0 F4500 X123.337 Y84.729
G1 F2400 X144.737 Y106.129 E240.59779
G0 F4500 X144.688 Y106.575
G1 F2400 X122.835 Y84.721 E243.51837
G0 F4500 X122.333 Y84.714
G1 F2400 X144.638 Y107.02 E246.49934
G0 F4500 X144.588 Y107.465
G1 F2400 X121.83 Y84.707 E249.54079
G0 F4500 X121.339 Y84.711
G1 F2400 X144.538 Y107.91 E252.64118
G0 F4500 X144.488 Y108.355
G1 F2400 X120.869 Y84.736 E255.7977
G0 F4500 X120.398 Y84.76
G1 F2400 X144.439 Y108.801 E259.01062
G0 F4500 X144.389 Y109.245
G1 F2400 X119.928 Y84.784 E262.27966
G0 F4500 X119.457 Y84.809
G1 F2400 X144.339 Y109.691 E265.60497
G0 F4500 X144.289 Y110.136
G1 F2400 X119.008 Y84.855 E268.98361
G0 F4500 X118.566 Y84.907
G1 F2400 X144.239 Y110.581 E272.41469
G0 F4500 X144.19 Y111.027
G1 F2400 X118.123 Y84.96 E275.89837
G0 F4500 X117.68 Y85.012
G1 F2400 X144.14 Y111.471 E279.4345
G0 F4500 X144.09 Y111.917
G1 F2400 X117.238 Y85.064 E283.02316
G0 F4500 X116.818 Y85.14
G1 F2400 X144.04 Y112.362 E286.66119
G0 F4500 X143.99 Y112.807
G1 F2400 X116.401 Y85.218 E290.34827
G0 F4500 X115.984 Y85.296
G1 F2400 X143.94 Y113.252 E294.0844
G0 F4500 X143.891 Y113.697
G1 F2400 X115.566 Y85.373 E297.86978
G0 F4500 X115.149 Y85.451
G1 F2400 X143.841 Y114.143 E301.70427
G0 F4500 X143.791 Y114.588
G1 F2400 X114.754 Y85.551 E305.58486
G0 F4500 X114.36 Y85.651
G1 F2400 X143.742 Y115.033 E309.51157
G0 F4500 X143.691 Y115.478
G1 F2400 X113.966 Y85.752 E313.48418
G0 F4500 X113.572 Y85.854
G1 F2400 X143.642 Y115.923 E317.50276
G0 F4500 X143.588 Y116.365
