;FLAVOR:UltiGCode
;TIME:2269
;MATERIAL:6497
;MATERIAL2:0
;NOZZLE_DIAMETER:0.4
;MINX:72.299
;MINY:78.656
;MINZ:0.27
;MAXX:150.378
;MAXY:144.376
;MAXZ:15.87
;Generated with Cura_SteamEngine 4.6.1
M82 ;absolute extrusion mode

G92 E0
G92 E0
G10
;LAYER_COUNT:79
;LAYER:0
M107
G0 F4500 X73.132 Y90.321 Z0.27
;TYPE:SUPPORT
G11
G1 F2400 X83.782 Y88.441 E1.02199
G1 X83.999 Y88.164 E1.05524
G1 X89.839 Y87.132 E1.61567
G1 X123.906 Y81.125 E4.88466
G1 X124.386 Y83.854 E5.14651
G1 X73.57 Y92.813 E10.02269
G1 X73.132 Y90.321 E10.26179
G0 F4500 X73.5 Y90.398
G1 F2400 X73.5 Y91.608 E10.37613
G0 F4500 X73.392 Y91
G1 F2400 X83.051 Y91 E11.28891
G0 F4500 X84 Y90.833
G1 F2400 X84 Y88.389 E11.51987
G0 F4500 X87.5 Y87.687
G1 F2400 X87.5 Y90.216 E11.75886
G0 F4500 X88.561 Y87.5
G1 F2400 X102.898 Y87.5 E13.11371
G0 F4500 X101.5 Y87.748
G1 F2400 X101.5 Y85.217 E13.35288
G0 F4500 X98 Y85.834
G1 F2400 X98 Y88.365 E13.59206
G0 F4500 X94.5 Y88.982
G1 F2400 X94.5 Y86.452 E13.83115
G0 F4500 X91 Y87.069
G1 F2400 X91 Y89.599 E14.07023
G0 F4500 X80.5 Y89.163
G1 F2400 X80.5 Y91.451 E14.28645
G0 F4500 X77 Y92.068
G1 F2400 X77 Y89.78 E14.50267
G0 F4500 X105 Y87.13
G1 F2400 X105 Y84.6 E14.74175
G0 F4500 X108.401 Y84
G1 F2400 X122.745 Y84 E16.09726
G0 F4500 X122.5 Y84.045
G1 F2400 X122.5 Y81.513 E16.33653
G0 F4500 X119 Y82.131
G1 F2400 X119 Y84.662 E16.57571
G0 F4500 X115.5 Y85.279
G1 F2400 X115.5 Y82.748 E16.81489
G0 F4500 X112 Y83.365
G1 F2400 X112 Y85.896 E17.05407
G0 F4500 X108.5 Y86.513
G1 F2400 X108.5 Y83.983 E17.29316
G10
G0 F4500 X124.819 Y84.243
G0 X125.409 Y84.655
G0 X125.943 Y87.687
G0 X125.531 Y88.277
G0 X116.339 Y90.083
G11
G1 F2400 X125.42 Y88.481 E18.16456
G1 X125.427 Y88.49 E18.16564
G1 X132.843 Y91.197 E18.91168
G1 X133.278 Y90.891 E18.96194
G1 X133.278 Y86.534 E19.37368
G1 X142.877 Y84.84 E20.2948
G1 X142.878 Y99.305 E21.66174
G1 X143.141 Y99.681 E21.7051
G1 X150.378 Y102.314 E22.43286
G1 X150.378 Y104.01 E22.59313
G1 X150.375 Y104.014 E22.5936
G1 X144.217 Y106.256 E23.2129
G1 X143.954 Y106.632 E23.25626
G1 X143.954 Y109.116 E23.491
G1 X144.217 Y109.492 E23.53436
G1 X150.377 Y111.735 E24.15387
G1 X150.378 Y113.433 E24.31433
G1 X144.206 Y115.679 E24.93501
G1 X143.943 Y116.055 E24.97837
G1 X143.943 Y118.541 E25.21329
G1 X144.206 Y118.917 E25.25665
G1 X150.377 Y121.162 E25.87721
G1 X150.378 Y122.859 E26.03757
G1 X150.375 Y122.863 E26.03805
G1 X144.217 Y125.105 E26.65734
G1 X143.954 Y125.481 E26.70071
G1 X143.954 Y127.965 E26.93544
G1 X144.217 Y128.341 E26.97881
G1 X150.377 Y130.584 E27.59832
G1 X150.378 Y132.284 E27.75897
G1 X150.375 Y132.288 E27.75944
G1 X144.217 Y134.53 E28.37874
G1 X143.954 Y134.906 E28.4221
G1 X143.954 Y137.39 E28.65684
G1 X144.217 Y137.766 E28.7002
G1 X150.377 Y140.009 E29.31971
G1 X150.378 Y141.704 E29.47989
G1 X143.023 Y144.376 E30.21938
G1 X133.279 Y144.376 E31.14019
G1 X133.278 Y96.537 E35.66097
G1 X133.015 Y96.161 E35.70433
G1 X116.339 Y90.083 E37.38162
G0 F4500 X119 Y89.755
G1 F2400 X119 Y90.904 E37.49021
G0 F4500 X119.262 Y91
G1 F2400 X131.898 Y91 E38.68431
G0 F4500 X133 Y91.258
G1 F2400 X133 Y96.006 E39.13299
G0 F4500 X133.418 Y98
G1 F2400 X142.738 Y98 E40.01373
G0 F4500 X143.5 Y99.961
G1 F2400 X143.5 Y144.055 E44.18062
G0 F4500 X145.025 Y143.5
G1 F2400 X133.418 Y143.5 E45.27748
G0 F4500 X136.5 Y144.236
G1 F2400 X136.5 Y86.106 E50.77076
G0 F4500 X133.418 Y87.5
G1 F2400 X142.738 Y87.5 E51.6515
G0 F4500 X140 Y85.489
G1 F2400 X140 Y144.236 E57.20309
G0 F4500 X147 Y142.783
G1 F2400 X147 Y138.929 E57.5673
G0 F4500 X149.946 Y140
G1 F2400 X133.418 Y140 E59.12919
G0 F4500 X133.418 Y136.5
G1 F2400 X143.814 Y136.5 E60.11162
G0 F4500 X147 Y133.369
G1 F2400 X147 Y129.504 E60.47686
G0 F4500 X146.995 Y129.5
G1 F2400 X133.418 Y129.5 E61.75988
G0 F4500 X133.418 Y126
G1 F2400 X143.814 Y126 E62.74231
G0 F4500 X147 Y123.944
G1 F2400 X147 Y120.083 E63.10717
G0 F4500 X144.094 Y119
G1 F2400 X133.418 Y119 E64.11605
G0 F4500 X133.418 Y115.5
G1 F2400 X144.284 Y115.5 E65.14289
G0 F4500 X147 Y114.514
G1 F2400 X147 Y110.655 E65.50757
G0 F4500 X150.238 Y112
G1 F2400 X133.418 Y112 E67.09706
G0 F4500 X133.418 Y108.5
G1 F2400 X143.814 Y108.5 E68.07948
G0 F4500 X147 Y105.095
G1 F2400 X147 Y101.234 E68.44434
G0 F4500 X147.736 Y101.5
G1 F2400 X133.418 Y101.5 E69.79739
G0 F4500 X133.418 Y105
G1 F2400 X147.255 Y105 E71.10499
G0 F4500 X142.738 Y94.5
G1 F2400 X128.868 Y94.5 E72.4157
G0 F4500 X129.5 Y94.73
G1 F2400 X129.5 Y90.126 E72.85078
G0 F4500 X126 Y88.848
G1 F2400 X126 Y93.455 E73.28614
G0 F4500 X122.5 Y92.179
G1 F2400 X122.5 Y89.137 E73.57361
G0 F4500 X133.366 Y91
G1 F2400 X142.738 Y91 E74.45927
G0 F4500 X150.238 Y122.5
G1 F2400 X133.418 Y122.5 E76.04876
G0 F4500 X133.418 Y133
G1 F2400 X148.011 Y133 E77.4278
G10
;MESH:434b1709-64ec-45fa-a822-29f0b2675a43.stl
G0 F4500 X124.844 Y88.401
G0 X124.634 Y87.21
G0 X124.285 Y85.724
G0 X124.383 Y85.708
;TYPE:WALL-INNER
G11
G1 F2400 X124.65 Y87.221 E77.57298
G1 X74.647 Y96.04 E82.3712
G1 X74.475 Y96.07 E82.3877
G1 X74.445 Y95.898 E82.39836
G1 X74.178 Y94.382 E82.54383
G1 X124.181 Y85.566 E87.34199
G1 X124.353 Y85.536 E87.35849
G1 X124.383 Y85.708 E87.36916
G0 F4500 X124.285 Y85.724
G0 X74.532 Y95.989
G0 X74.181 Y96.274
;TYPE:WALL-OUTER
G1 F2400 X73.839 Y94.333 E87.55541
G1 X73.801 Y94.119 E87.57595
G1 X124.445 Y85.19 E92.43562
G1 X124.617 Y85.16 E92.45212
G1 X124.647 Y85.332 E92.46279
G1 X125.026 Y87.485 E92.66938
G1 X74.383 Y96.416 E97.52899
G1 X74.211 Y96.446 E97.54549
G1 X74.181 Y96.274 E97.55616
G0 F4500 X74.147 Y96.077
G0 X74.75 Y95.677
;TYPE:SKIN
G1 F2400 X74.571 Y94.657 E97.65402
G1 X124.078 Y85.929 E102.40458
G1 X124.257 Y86.946 E102.50216
G1 X74.75 Y95.677 E107.25277
G0 F4500 X75.152 Y95.445
G1 F2400 X74.807 Y95.101 E107.29881
G0 F4500 X74.949 Y94.748
G1 F2400 X75.572 Y95.371 E107.38207
G0 F4500 X75.993 Y95.297
G1 F2400 X75.37 Y94.674 E107.46533
G0 F4500 X75.791 Y94.6
G1 F2400 X76.414 Y95.223 E107.54859
G0 F4500 X76.834 Y95.148
G1 F2400 X76.212 Y94.526 E107.63172
G0 F4500 X76.633 Y94.452
G1 F2400 X77.255 Y95.074 E107.71485
G0 F4500 X77.676 Y95
G1 F2400 X77.054 Y94.378 E107.79797
G0 F4500 X77.474 Y94.304
G1 F2400 X78.097 Y94.926 E107.88116
G0 F4500 X78.517 Y94.852
G1 F2400 X77.895 Y94.229 E107.96436
G0 F4500 X78.316 Y94.155
G1 F2400 X78.938 Y94.777 E108.04748
G0 F4500 X79.36 Y94.704
G1 F2400 X78.737 Y94.081 E108.13074
G0 F4500 X79.157 Y94.007
G1 F2400 X79.78 Y94.629 E108.21394
G0 F4500 X80.201 Y94.555
G1 F2400 X79.578 Y93.932 E108.2972
G0 F4500 X79.999 Y93.858
G1 F2400 X80.622 Y94.481 E108.38046
G0 F4500 X81.042 Y94.407
G1 F2400 X80.419 Y93.784 E108.46371
G0 F4500 X80.841 Y93.71
G1 F2400 X81.463 Y94.332 E108.54684
G0 F4500 X81.884 Y94.258
G1 F2400 X81.262 Y93.636 E108.62997
G0 F4500 X81.682 Y93.562
G1 F2400 X82.305 Y94.184 E108.71316
G0 F4500 X82.725 Y94.11
G1 F2400 X82.103 Y93.488 E108.79629
G0 F4500 X82.524 Y93.413
G1 F2400 X83.146 Y94.036 E108.87948
G0 F4500 X83.567 Y93.961
G1 F2400 X82.945 Y93.339 E108.96261
G0 F4500 X83.365 Y93.265
G1 F2400 X83.988 Y93.887 E109.0458
G0 F4500 X84.408 Y93.813
G1 F2400 X83.786 Y93.191 E109.12892
G0 F4500 X84.207 Y93.116
G1 F2400 X84.829 Y93.739 E109.21212
G0 F4500 X85.25 Y93.664
G1 F2400 X84.627 Y93.042 E109.29531
G0 F4500 X85.048 Y92.968
G1 F2400 X85.671 Y93.591 E109.37857
G0 F4500 X86.092 Y93.516
G1 F2400 X85.47 Y92.894 E109.4617
G0 F4500 X85.89 Y92.82
G1 F2400 X86.513 Y93.442 E109.54489
G0 F4500 X86.933 Y93.368
G1 F2400 X86.311 Y92.746 E109.62801
G0 F4500 X86.732 Y92.672
G1 F2400 X87.354 Y93.294 E109.71114
G0 F4500 X87.775 Y93.22
G1 F2400 X87.153 Y92.597 E109.79433
G0 F4500 X87.573 Y92.523
G1 F2400 X88.196 Y93.145 E109.87753
G0 F4500 X88.616 Y93.071
G1 F2400 X87.994 Y92.449 E109.96065
G0 F4500 X88.415 Y92.375
G1 F2400 X89.037 Y92.997 E110.04378
G0 F4500 X89.458 Y92.923
G1 F2400 X88.835 Y92.3 E110.12704
G0 F4500 X89.256 Y92.226
G1 F2400 X89.878 Y92.848 E110.21016
G0 F4500 X90.299 Y92.774
G1 F2400 X89.677 Y92.152 E110.29329
G0 F4500 X90.098 Y92.078
G1 F2400 X90.72 Y92.7 E110.37642
G0 F4500 X91.141 Y92.626
G1 F2400 X90.519 Y92.004 E110.45954
G0 F4500 X90.94 Y91.93
G1 F2400 X91.561 Y92.551 E110.54253
G0 F4500 X91.983 Y92.478
G1 F2400 X91.361 Y91.855 E110.62573
G0 F4500 X91.781 Y91.781
G1 F2400 X92.404 Y92.404 E110.70899
G0 F4500 X92.824 Y92.329
G1 F2400 X92.202 Y91.707 E110.79211
G0 F4500 X92.623 Y91.633
G1 F2400 X93.245 Y92.255 E110.87524
G0 F4500 X93.666 Y92.181
G1 F2400 X93.043 Y91.559 E110.95843
G0 F4500 X93.464 Y91.484
G1 F2400 X94.086 Y92.107 E111.04163
G0 F4500 X94.507 Y92.032
G1 F2400 X93.885 Y91.41 E111.12475
G0 F4500 X94.306 Y91.336
G1 F2400 X94.928 Y91.958 E111.20788
G0 F4500 X95.349 Y91.884
G1 F2400 X94.726 Y91.262 E111.29107
G0 F4500 X95.148 Y91.188
G1 F2400 X95.769 Y91.81 E111.37413
G0 F4500 X96.19 Y91.735
G1 F2400 X95.569 Y91.114 E111.45712
G0 F4500 X95.989 Y91.039
G1 F2400 X96.611 Y91.661 E111.54025
G0 F4500 X97.032 Y91.587
G1 F2400 X96.41 Y90.965 E111.62337
G0 F4500 X96.831 Y90.891
G1 F2400 X97.452 Y91.513 E111.70643
G0 F4500 X97.873 Y91.438
G1 F2400 X97.251 Y90.817 E111.78949
G0 F4500 X97.672 Y90.743
G1 F2400 X98.294 Y91.365 E111.87262
G0 F4500 X98.715 Y91.291
G1 F2400 X98.093 Y90.668 E111.95581
G0 F4500 X98.514 Y90.594
G1 F2400 X99.136 Y91.216 E112.03894
G0 F4500 X99.557 Y91.142
G1 F2400 X98.934 Y90.52 E112.12213
G0 F4500 X99.355 Y90.446
G1 F2400 X99.977 Y91.068 E112.20526
G0 F4500 X100.398 Y90.994
G1 F2400 X99.777 Y90.372 E112.28832
G0 F4500 X100.197 Y90.298
G1 F2400 X100.819 Y90.919 E112.37138
G0 F4500 X101.24 Y90.845
G1 F2400 X100.618 Y90.223 E112.4545
G0 F4500 X101.039 Y90.149
G1 F2400 X101.66 Y90.771 E112.53756
G0 F4500 X102.081 Y90.697
G1 F2400 X101.459 Y90.075 E112.62069
G0 F4500 X101.88 Y90.001
G1 F2400 X102.502 Y90.622 E112.70375
G0 F4500 X102.922 Y90.548
G1 F2400 X102.301 Y89.927 E112.78674
G0 F4500 X102.722 Y89.852
G1 F2400 X103.343 Y90.474 E112.8698
G0 F4500 X103.764 Y90.4
G1 F2400 X103.142 Y89.778 E112.95292
G0 F4500 X103.563 Y89.704
G1 F2400 X104.185 Y90.326 E113.03605
G0 F4500 X104.606 Y90.252
G1 F2400 X103.984 Y89.63 E113.11918
G0 F4500 X104.405 Y89.556
G1 F2400 X105.027 Y90.178 E113.2023
G0 F4500 X105.448 Y90.103
G1 F2400 X104.826 Y89.482 E113.28536
G0 F4500 X105.247 Y89.407
G1 F2400 X105.868 Y90.029 E113.36842
G0 F4500 X106.289 Y89.955
G1 F2400 X105.667 Y89.333 E113.45155
G0 F4500 X106.088 Y89.259
G1 F2400 X106.71 Y89.881 E113.53467
G0 F4500 X107.13 Y89.806
G1 F2400 X106.509 Y89.185 E113.61766
G0 F4500 X106.93 Y89.111
G1 F2400 X107.551 Y89.732 E113.70066
G0 F4500 X107.972 Y89.658
G1 F2400 X107.35 Y89.036 E113.78378
G0 F4500 X107.771 Y88.962
G1 F2400 X108.393 Y89.584 E113.86691
G0 F4500 X108.813 Y89.509
G1 F2400 X108.192 Y88.888 E113.9499
G0 F4500 X108.613 Y88.814
G1 F2400 X109.234 Y89.435 E114.03289
G0 F4500 X109.655 Y89.361
G1 F2400 X109.033 Y88.739 E114.11602
G0 F4500 X109.455 Y88.666
G1 F2400 X110.076 Y89.287 E114.19901
G0 F4500 X110.497 Y89.213
G1 F2400 X109.875 Y88.591 E114.28214
G0 F4500 X110.296 Y88.517
G1 F2400 X110.918 Y89.139 E114.36526
G0 F4500 X111.338 Y89.065
G1 F2400 X110.717 Y88.443 E114.44832
G0 F4500 X111.138 Y88.369
G1 F2400 X111.759 Y88.99 E114.53132
G0 F4500 X112.18 Y88.916
G1 F2400 X111.558 Y88.295 E114.61438
G0 F4500 X111.979 Y88.22
G1 F2400 X112.601 Y88.842 E114.6975
G0 F4500 X113.021 Y88.768
G1 F2400 X112.4 Y88.146 E114.78056
G0 F4500 X112.821 Y88.072
G1 F2400 X113.442 Y88.693 E114.86355
G0 F4500 X113.863 Y88.619
G1 F2400 X113.241 Y87.998 E114.94661
G0 F4500 X113.662 Y87.923
G1 F2400 X114.284 Y88.545 E115.02974
G0 F4500 X114.704 Y88.471
G1 F2400 X114.083 Y87.85 E115.11273
G0 F4500 X114.504 Y87.775
G1 F2400 X115.125 Y88.396 E115.19572
G0 F4500 X115.546 Y88.322
G1 F2400 X114.925 Y87.701 E115.27872
G0 F4500 X115.346 Y87.627
G1 F2400 X115.966 Y88.248 E115.36164
G0 F4500 X116.387 Y88.174
G1 F2400 X115.766 Y87.553 E115.44463
G0 F4500 X116.187 Y87.479
G1 F2400 X116.809 Y88.1 E115.52769
G0 F4500 X117.229 Y88.026
G1 F2400 X116.608 Y87.404 E115.61075
G0 F4500 X117.029 Y87.33
G1 F2400 X117.65 Y87.952 E115.69381
G0 F4500 X118.071 Y87.877
G1 F2400 X117.449 Y87.256 E115.77687
G0 F4500 X117.87 Y87.182
G1 F2400 X118.492 Y87.803 E115.85993
G0 F4500 X118.912 Y87.729
G1 F2400 X118.291 Y87.107 E115.94299
G0 F4500 X118.712 Y87.034
G1 F2400 X119.333 Y87.655 E116.02598
G0 F4500 X119.754 Y87.58
G1 F2400 X119.133 Y86.959 E116.10897
G0 F4500 X119.554 Y86.885
G1 F2400 X120.174 Y87.506 E116.1919
G0 F4500 X120.595 Y87.432
G1 F2400 X119.974 Y86.811 E116.27489
G0 F4500 X120.395 Y86.737
G1 F2400 X121.016 Y87.358 E116.35789
G0 F4500 X121.437 Y87.283
G1 F2400 X120.816 Y86.663 E116.44081
G0 F4500 X121.236 Y86.588
G1 F2400 X121.857 Y87.209 E116.5238
G0 F4500 X122.278 Y87.135
G1 F2400 X121.657 Y86.514 E116.6068
G0 F4500 X122.078 Y86.44
G1 F2400 X122.699 Y87.061 E116.68979
G0 F4500 X123.12 Y86.987
G1 F2400 X122.499 Y86.366 E116.77278
G0 F4500 X122.919 Y86.291
G1 F2400 X123.541 Y86.913 E116.85591
G0 F4500 X123.962 Y86.839
G1 F2400 X123.34 Y86.217 E116.93903
G0 F4500 X123.762 Y86.143
G1 F2400 X123.998 Y86.38 E116.97064
G10
;MESH:NONMESH
G0 F600 X123.998 Y86.38 Z0.47
G0 F4500 X74.194 Y94.393
G0 X73.984 Y93.203
G0 X73.229 Y90.884
;TIME_ELAPSED:44.705898
;LAYER:1
M106 S255
;TYPE:SUPPORT
G11
G1 F2910 X73.466 Y92.216 E117.06534
G1 X73.5 Y92.211 E117.06775
G1 X73.5 Y90.257 E117.20453
G1 X73.132 Y90.322 E117.23069
G1 X73.21 Y90.77 E117.26252
G1 X73.23 Y90.884 E117.27062
G0 F6750 X73.5 Y92.211
G1 F2910 X77 Y91.593 E117.51941
G1 X77 Y89.638 E117.65626
G1 X80.5 Y89.02 E117.90505
G1 X80.5 Y90.976 E118.04197
G1 X84 Y90.359 E118.29075
G1 X84 Y88.163 E118.44447
G1 X87.5 Y87.545 E118.69326
G1 X87.5 Y89.742 E118.84705
G1 X91 Y89.125 E119.09583
G1 X91 Y86.927 E119.24969
G1 X94.5 Y86.31 E119.49846
G1 X94.5 Y88.508 E119.65232
G1 X98 Y87.891 E119.9011
G1 X98 Y85.693 E120.05496
G1 X101.5 Y85.076 E120.30374
G1 X101.5 Y87.274 E120.4576
G1 X105 Y86.657 E120.70638
G1 X105 Y84.459 E120.86024
G1 X108.5 Y83.842 E121.10902
G1 X108.5 Y86.04 E121.26288
G1 X112 Y85.423 E121.51165
G1 X112 Y83.225 E121.66551
G1 X115.5 Y82.608 E121.91429
G1 X115.5 Y84.806 E122.06815
G1 X119 Y84.189 E122.31693
G1 X119 Y81.991 E122.47079
G1 X122.5 Y81.374 E122.71957
G1 X122.5 Y83.572 E122.87343
G1 X124.284 Y83.257 E123.00024
G1 X123.909 Y81.128 E123.15156
G0 F6750 X123.907 Y81.126
G1 F2910 X122.5 Y81.374 E123.25157
G10
G0 F6750 X125.239 Y83.694
G0 X126.051 Y88.296
G0 X125.639 Y88.886
G0 X119.055 Y90.05
G0 X119 Y89.734
G11
G1 F2910 X116.564 Y90.164 E123.42473
G1 X119 Y91.051 E123.6062
G1 X119 Y89.734 E123.69839
G1 X122.5 Y89.117 E123.94717
G1 X122.5 Y92.327 E124.17187
G1 X126 Y93.603 E124.43264
G1 X126 Y88.7 E124.77585
G1 X129.5 Y89.977 E125.03665
G1 X129.5 Y94.878 E125.37972
G1 X133 Y96.154 E125.64049
G1 X133 Y91.086 E125.99525
G1 X133.278 Y90.891 E126.01902
G1 X133.278 Y86.534 E126.32401
G0 F6750 X133.279 Y86.533
G1 F2910 X136.5 Y85.964 E126.55297
G1 X136.5 Y144.376 E130.64181
G1 X140 Y144.376 E130.88681
G1 X140 Y85.347 E135.01884
G1 X142.877 Y84.84 E135.22334
G0 F6750 X142.878 Y84.841
G1 F2910 X142.878 Y99.305 E136.23582
G1 X143.141 Y99.681 E136.26794
G1 X143.5 Y99.812 E136.29469
G1 X143.5 Y144.203 E139.40206
G1 X147 Y142.932 E139.66271
G1 X147 Y138.78 E139.95335
G1 X150.376 Y140.009 E140.20484
G0 F6750 X150.378 Y140.012
G1 F2910 X150.378 Y141.704 E140.32328
G1 X147 Y142.932 E140.57488
G0 F6750 X147 Y138.78
G1 F2910 X144.215 Y137.766 E140.78235
G1 X143.952 Y137.39 E140.81447
G1 X143.952 Y134.906 E140.98835
G1 X144.215 Y134.53 E141.02047
G1 X147 Y133.516 E141.22794
G1 X147 Y129.355 E141.51921
G1 X150.376 Y130.584 E141.7707
G0 F6750 X150.378 Y130.587
G1 F2910 X150.378 Y132.285 E141.88956
G0 F6750 X150.377 Y132.286
G1 F2910 X147 Y133.516 E142.14115
G0 F6750 X147 Y129.355
G1 F2910 X144.215 Y128.341 E142.34862
G1 X143.952 Y127.965 E142.38074
G1 X143.952 Y125.481 E142.55462
G1 X144.215 Y125.105 E142.58674
G1 X147 Y124.091 E142.79421
G1 X147 Y119.934 E143.0852
G1 X150.377 Y121.162 E143.33673
G0 F6750 X150.378 Y121.163
G1 F2910 X150.378 Y122.86 E143.45552
G0 F6750 X150.377 Y122.861
G1 F2910 X147 Y124.091 E143.7071
G0 F6750 X147 Y119.934
G1 F2910 X144.206 Y118.917 E143.91523
G1 X143.943 Y118.541 E143.94735
G1 X143.943 Y116.055 E144.12137
G1 X144.206 Y115.679 E144.15349
