;FLAVOR:UltiGCode
;TIME:2425
;MATERIAL:8005
;MATERIAL2:0
;NOZZLE_DIAMETER:0.4
;MINX:65.744
;MINY:75.281
;MINZ:0.27
;MAXX:158.428
;MAXY:152.426
;MAXZ:15.87
;Generated with Cura_SteamEngine 4.6.1
M82 ;absolute extrusion mode

G92 E0
G92 E0
G10
;LAYER_COUNT:53
;LAYER:0
M107
G0 F4500 X68.888 Y87.725 Z0.27
;TYPE:SKIRT
G11
G1 F1800 X69.54 Y87.272 E0.07503
G1 X70.234 Y86.888 E0.14998
G1 X70.963 Y86.575 E0.22495
G1 X71.72 Y86.337 E0.29994
G1 X72.331 Y86.205 E0.35901
G1 X123.292 Y77.22 E5.2491
G1 X124.079 Y77.121 E5.32406
G1 X124.872 Y77.103 E5.39902
G1 X125.663 Y77.164 E5.47399
G1 X126.444 Y77.305 E5.54899
G1 X127.207 Y77.524 E5.624
G1 X127.944 Y77.818 E5.69899
G1 X128.647 Y78.185 E5.77393
G1 X128.88 Y78.334 E5.80006
G1 X129.261 Y78.082 E5.84323
G1 X129.964 Y77.713 E5.91826
G1 X130.7 Y77.416 E5.99326
G1 X131.462 Y77.195 E6.06824
G1 X141.56 Y75.398 E7.03749
G1 X142.347 Y75.3 E7.11244
G1 X143.141 Y75.281 E7.18749
G1 X143.932 Y75.342 E7.26246
G1 X144.713 Y75.482 E7.33744
G1 X145.476 Y75.701 E7.41246
G1 X146.213 Y75.995 E7.48744
G1 X146.916 Y76.361 E7.56234
G1 X147.58 Y76.797 E7.63741
G1 X148.043 Y77.164 E7.69324
G1 X148.743 Y77.813 E7.78344
G1 X149.262 Y78.414 E7.85849
G1 X149.718 Y79.063 E7.93344
G1 X150.106 Y79.755 E8.00841
G1 X150.423 Y80.483 E8.08345
G1 X150.665 Y81.238 E8.15837
G1 X150.829 Y82.014 E8.23332
G1 X150.915 Y82.803 E8.30832
G1 X150.928 Y93.947 E9.36143
G1 X153.184 Y94.768 E9.5883
G1 X153.915 Y95.076 E9.66326
G1 X154.612 Y95.457 E9.73833
G1 X155.266 Y95.905 E9.81324
G1 X155.872 Y96.417 E9.88821
G1 X156.424 Y96.988 E9.96326
G1 X156.964 Y97.682 E10.04636
G1 X157.444 Y98.444 E10.13147
G1 X157.792 Y99.156 E10.20636
G1 X158.068 Y99.901 E10.28144
G1 X158.266 Y100.669 E10.35638
G1 X158.387 Y101.453 E10.43135
G1 X158.428 Y102.256 E10.50733
G1 X158.428 Y104.062 E10.678
G1 X158.388 Y104.854 E10.75294
G1 X158.269 Y105.639 E10.82797
G1 X158.071 Y106.407 E10.90292
G1 X157.796 Y107.152 E10.97796
G1 X157.449 Y107.865 E11.0529
G1 X157.825 Y108.662 E11.13618
G1 X158.092 Y109.409 E11.21114
G1 X158.283 Y110.18 E11.2862
G1 X158.395 Y110.965 E11.36114
G1 X158.428 Y111.684 E11.42915
G1 X158.428 Y113.489 E11.59973
G1 X158.388 Y114.281 E11.67466
G1 X158.269 Y115.066 E11.74969
G1 X158.071 Y115.834 E11.82464
G1 X157.796 Y116.579 E11.89969
G1 X157.449 Y117.292 E11.97462
G1 X157.832 Y118.103 E12.05938
G1 X158.098 Y118.851 E12.1344
G1 X158.287 Y119.621 E12.20933
G1 X158.397 Y120.407 E12.28433
G1 X158.428 Y121.107 E12.35054
G1 X158.428 Y122.914 E12.5213
G1 X158.388 Y123.706 E12.59624
G1 X158.269 Y124.491 E12.67127
G1 X158.071 Y125.259 E12.74622
G1 X157.796 Y126.004 E12.82127
G1 X157.449 Y126.717 E12.8962
G1 X157.832 Y127.528 E12.98096
G1 X158.098 Y128.276 E13.05598
G1 X158.287 Y129.046 E13.13091
G1 X158.397 Y129.832 E13.20591
G1 X158.428 Y130.532 E13.27212
G1 X158.428 Y132.336 E13.4426
G1 X158.388 Y133.128 E13.51754
G1 X158.269 Y133.913 E13.59257
G1 X158.071 Y134.681 E13.66752
G1 X157.796 Y135.426 E13.74256
G1 X157.449 Y136.139 E13.8175
G1 X157.832 Y136.954 E13.9026
G1 X158.098 Y137.702 E13.97762
G1 X158.287 Y138.472 E14.05254
G1 X158.397 Y139.258 E14.12755
G1 X158.428 Y139.958 E14.19376
G1 X158.428 Y141.764 E14.36443
G1 X158.388 Y142.556 E14.43937
G1 X158.269 Y143.341 E14.5144
G1 X158.071 Y144.109 E14.58935
G1 X157.796 Y144.854 E14.66439
G1 X157.449 Y145.567 E14.73933
G1 X157.036 Y146.235 E14.81354
G1 X156.493 Y146.952 E14.89854
G1 X155.949 Y147.529 E14.97348
G1 X155.35 Y148.05 E15.0485
G1 X154.702 Y148.507 E15.12343
G1 X154.011 Y148.897 E15.19841
G1 X153.181 Y149.253 E15.28376
G1 X145.745 Y151.953 E16.03135
G1 X144.986 Y152.186 E16.10638
G1 X144.208 Y152.341 E16.18134
G1 X143.057 Y152.426 E16.29041
G1 X133.206 Y152.426 E17.22133
G1 X132.414 Y152.386 E17.29627
G1 X131.629 Y152.267 E17.3713
G1 X130.861 Y152.069 E17.44625
G1 X130.116 Y151.794 E17.52129
G1 X129.403 Y151.447 E17.59623
G1 X128.728 Y151.029 E17.67125
G1 X128.099 Y150.546 E17.7462
G1 X127.638 Y150.119 E17.80558
G1 X127.002 Y149.428 E17.89433
G1 X126.532 Y148.789 E17.96929
G1 X126.129 Y148.105 E18.04431
G1 X125.796 Y147.385 E18.11928
G1 X125.538 Y146.635 E18.19423
G1 X125.356 Y145.862 E18.26927
G1 X125.253 Y145.076 E18.34419
G1 X125.228 Y144.448 E18.40358
G1 X125.228 Y112.086 E21.46179
G1 X112.219 Y104.577 E22.88124
G1 X111.553 Y104.147 E22.95615
G1 X110.933 Y103.651 E23.03118
G1 X110.367 Y103.095 E23.10616
G1 X109.859 Y102.486 E23.1811
G1 X109.415 Y101.828 E23.25612
G1 X109.039 Y101.129 E23.33112
G1 X108.736 Y100.396 E23.40608
G1 X108.508 Y99.636 E23.48106
G1 X108.358 Y98.857 E23.55603
G1 X108.335 Y98.602 E23.58022
G1 X75.537 Y104.386 E26.72746
G1 X74.749 Y104.485 E26.80251
G1 X73.956 Y104.503 E26.87747
G1 X73.165 Y104.442 E26.95244
G1 X72.384 Y104.301 E27.02744
G1 X71.621 Y104.082 E27.10245
G1 X70.884 Y103.788 E27.17744
G1 X70.181 Y103.421 E27.25238
G1 X69.649 Y103.08 E27.31209
G1 X68.906 Y102.51 E27.40059
G1 X68.333 Y101.962 E27.47551
G1 X67.817 Y101.359 E27.55051
G1 X67.364 Y100.707 E27.62554
G1 X66.98 Y100.013 E27.70049
G1 X66.667 Y99.284 E27.77546
G1 X66.429 Y98.527 E27.85045
G1 X66.297 Y97.917 E27.90943
G1 X65.861 Y95.445 E28.14664
G1 X65.762 Y94.657 E28.22169
G1 X65.744 Y93.864 E28.29665
G1 X65.805 Y93.073 E28.37162
G1 X65.946 Y92.292 E28.44662
G1 X66.164 Y91.529 E28.52161
G1 X66.459 Y90.793 E28.59654
G1 X66.825 Y90.089 E28.67152
G1 X67.167 Y89.557 E28.73129
G1 X67.737 Y88.814 E28.81978
G1 X68.285 Y88.241 E28.89471
G1 X68.888 Y87.725 E28.96971
G0 F4500 X69.143 Y87.97
G1 F1800 X69.784 Y87.533 E29.04302
G1 X70.466 Y87.164 E29.1163
G1 X71.183 Y86.868 E29.1896
G1 X71.926 Y86.647 E29.26285
G1 X72.391 Y86.549 E29.30776
G1 X123.352 Y77.564 E34.19785
G1 X124.122 Y77.469 E34.27117
G1 X124.898 Y77.454 E34.34452
G1 X125.671 Y77.518 E34.41781
G1 X126.433 Y77.662 E34.4911
G1 X127.176 Y77.883 E34.56435
G1 X127.893 Y78.18 E34.63769
G1 X128.575 Y78.549 E34.71097
G1 X128.884 Y78.751 E34.74586
G1 X129.621 Y78.279 E34.82856
G1 X130.318 Y77.938 E34.90189
G1 X131.046 Y77.671 E34.97516
G1 X131.963 Y77.449 E35.06432
G1 X141.621 Y75.743 E35.99113
G1 X142.391 Y75.647 E36.06446
G1 X143.166 Y75.632 E36.13771
G1 X143.939 Y75.696 E36.21101
G1 X144.701 Y75.839 E36.28428
G1 X145.445 Y76.061 E36.35765
G1 X146.162 Y76.357 E36.43095
G1 X146.844 Y76.726 E36.50423
G1 X147.485 Y77.163 E36.57754
G1 X147.939 Y77.535 E36.63301
G1 X148.502 Y78.068 E36.70627
G1 X149.007 Y78.657 E36.77959
G1 X149.449 Y79.294 E36.85286
G1 X149.823 Y79.973 E36.92611
G1 X150.125 Y80.688 E36.99946
G1 X150.352 Y81.429 E37.0727
G1 X150.502 Y82.19 E37.146
G1 X150.578 Y83.258 E37.24718
G1 X150.578 Y94.191 E38.28035
G1 X153.065 Y95.096 E38.53044
G1 X153.779 Y95.399 E38.60374
G1 X154.458 Y95.773 E38.677
G1 X155.095 Y96.215 E38.75027
G1 X155.684 Y96.721 E38.82365
G1 X156.217 Y97.284 E38.89691
G1 X156.676 Y97.881 E38.96807
G1 X157.146 Y98.628 E39.05147
G1 X157.484 Y99.326 E39.12476
G1 X157.749 Y100.055 E39.19806
G1 X157.937 Y100.808 E39.27141
G1 X158.047 Y101.576 E39.34472
G1 X158.078 Y102.256 E39.40905
G1 X158.078 Y104.062 E39.57972
G1 X158.038 Y104.837 E39.65305
G1 X157.919 Y105.603 E39.72631
G1 X157.721 Y106.353 E39.79961
G1 X157.447 Y107.079 E39.87294
G1 X157.1 Y107.772 E39.94618
G1 X157.034 Y107.879 E39.95806
G1 X157.184 Y108.127 E39.98545
G1 X157.515 Y108.829 E40.05879
G1 X157.772 Y109.561 E40.13211
G1 X157.952 Y110.315 E40.20536
G1 X158.054 Y111.084 E40.27867
G1 X158.078 Y111.684 E40.33541
G1 X158.078 Y113.489 E40.50599
G1 X158.038 Y114.264 E40.57932
G1 X157.919 Y115.03 E40.65258
G1 X157.721 Y115.78 E40.72588
G1 X157.447 Y116.506 E40.79921
G1 X157.1 Y117.199 E40.87245
G1 X157.034 Y117.303 E40.88409
G1 X157.193 Y117.566 E40.91313
G1 X157.522 Y118.269 E40.98648
G1 X157.777 Y119.001 E41.05973
G1 X157.956 Y119.756 E41.13306
G1 X158.055 Y120.525 E41.20633
G1 X158.078 Y121.107 E41.26137
G1 X158.078 Y122.914 E41.43213
G1 X158.038 Y123.689 E41.50547
G1 X157.919 Y124.455 E41.57872
G1 X157.721 Y125.205 E41.65202
G1 X157.447 Y125.931 E41.72536
G1 X157.1 Y126.624 E41.79859
G1 X157.034 Y126.728 E41.81023
G1 X157.193 Y126.991 E41.83928
G1 X157.522 Y127.694 E41.91263
G1 X157.777 Y128.426 E41.98588
G1 X157.956 Y129.181 E42.0592
G1 X158.055 Y129.95 E42.13247
G1 X158.078 Y130.532 E42.18751
G1 X158.078 Y132.336 E42.35799
G1 X158.038 Y133.111 E42.43133
G1 X157.919 Y133.877 E42.50458
G1 X157.721 Y134.627 E42.57789
G1 X157.447 Y135.353 E42.65122
G1 X157.1 Y136.046 E42.72446
G1 X157.034 Y136.153 E42.73634
G1 X157.193 Y136.417 E42.76546
G1 X157.522 Y137.12 E42.83881
G1 X157.777 Y137.852 E42.91206
G1 X157.956 Y138.607 E42.98539
G1 X158.055 Y139.376 E43.05866
G1 X158.078 Y139.958 E43.1137
G1 X158.078 Y141.764 E43.28436
G1 X158.038 Y142.539 E43.3577
G1 X157.919 Y143.305 E43.43095
G1 X157.721 Y144.055 E43.50426
G1 X157.447 Y144.781 E43.57759
G1 X157.1 Y145.474 E43.65083
G1 X156.748 Y146.036 E43.71349
G1 X156.215 Y146.738 E43.79679
G1 X155.682 Y147.301 E43.87005
G1 X155.093 Y147.806 E43.94337
G1 X154.455 Y148.248 E44.01672
G1 X153.776 Y148.622 E44.08997
G1 X153.061 Y148.924 E44.16332
G1 X145.625 Y151.624 E44.91091
G1 X144.884 Y151.851 E44.98415
G1 X144.122 Y152 E45.05752
G1 X143.057 Y152.076 E45.15842
G1 X133.206 Y152.076 E46.08934
G1 X132.431 Y152.036 E46.16267
G1 X131.665 Y151.917 E46.23593
G1 X130.915 Y151.719 E46.30923
G1 X130.189 Y151.445 E46.38256
G1 X129.496 Y151.098 E46.4558
G1 X128.842 Y150.681 E46.5291
G1 X128.234 Y150.199 E46.60242
G1 X127.782 Y149.769 E46.66137
G1 X127.263 Y149.193 E46.73464
G1 X126.805 Y148.567 E46.80794
G1 X126.415 Y147.896 E46.88128
G1 X126.095 Y147.19 E46.95453
G1 X125.85 Y146.454 E47.02784
G1 X125.682 Y145.696 E47.10121
G1 X125.593 Y144.926 E47.17446
G1 X125.578 Y144.448 E47.21965
G1 X125.578 Y111.884 E50.29695
G1 X112.394 Y104.274 E51.73549
G1 X111.743 Y103.852 E51.8088
G1 X111.139 Y103.366 E51.88207
G1 X110.589 Y102.82 E51.9553
G1 X110.097 Y102.22 E52.02863
G1 X109.67 Y101.572 E52.10196
G1 X109.312 Y100.884 E52.17525
G1 X109.026 Y100.163 E52.24855
G1 X108.816 Y99.416 E52.32188
G1 X108.684 Y98.652 E52.39515
G1 X108.653 Y98.191 E52.43881
G1 X75.476 Y104.042 E55.62242
G1 X74.706 Y104.137 E55.69574
G1 X73.931 Y104.152 E55.76899
G1 X73.158 Y104.088 E55.84229
G1 X72.396 Y103.944 E55.91557
G1 X71.652 Y103.723 E55.98892
G1 X70.936 Y103.426 E56.06217
G1 X70.253 Y103.057 E56.13553
G1 X69.733 Y102.711 E56.19455
G1 X69.122 Y102.234 E56.2678
G1 X68.563 Y101.696 E56.34112
G1 X68.062 Y101.104 E56.41441
G1 X67.625 Y100.463 E56.48772
G1 X67.256 Y99.781 E56.561
G1 X66.96 Y99.064 E56.6343
G1 X66.739 Y98.321 E56.70756
G1 X66.641 Y97.856 E56.75246
G1 X66.205 Y95.384 E56.98967
G1 X66.11 Y94.614 E57.06299
G1 X66.095 Y93.839 E57.13624
G1 X66.159 Y93.066 E57.20954
G1 X66.303 Y92.304 E57.28282
G1 X66.524 Y91.56 E57.35617
G1 X66.821 Y90.844 E57.42942
G1 X67.19 Y90.161 E57.50278
G1 X67.536 Y89.641 E57.5618
G1 X68.013 Y89.03 E57.63506
G1 X68.551 Y88.471 E57.70837
G1 X69.143 Y87.97 E57.78166
G0 F4500 X69.398 Y88.216
G1 F1800 X70.027 Y87.795 E57.85319
G1 X70.697 Y87.443 E57.92471
G1 X71.401 Y87.163 E57.99631
G1 X72.452 Y86.894 E58.09883
G1 X123.413 Y77.909 E62.98892
G1 X124.165 Y77.817 E63.06051
G1 X124.922 Y77.805 E63.13206
G1 X125.677 Y77.873 E63.2037
G1 X126.42 Y78.019 E63.27525
G1 X127.143 Y78.244 E63.34681
G1 X127.839 Y78.543 E63.41839
G1 X128.777 Y79.099 E63.52143
G1 X128.896 Y79.183 E63.5352
G1 X129.326 Y78.866 E63.58568
G1 X129.98 Y78.484 E63.65726
G1 X130.67 Y78.172 E63.72882
G1 X131.389 Y77.935 E63.80036
G1 X132.024 Y77.793 E63.86185
G1 X141.682 Y76.087 E64.78866
G1 X142.434 Y75.995 E64.86025
G1 X143.191 Y75.983 E64.9318
G1 X143.945 Y76.05 E65.00333
G1 X144.688 Y76.197 E65.07491
G1 X145.412 Y76.421 E65.14652
G1 X146.108 Y76.72 E65.21811
G1 X146.768 Y77.091 E65.28966
G1 X147.588 Y77.696 E65.38596
G1 X148.261 Y78.322 E65.47281
G1 X148.752 Y78.899 E65.54441
G1 X149.18 Y79.524 E65.61599
G1 X149.539 Y80.19 E65.68749
G1 X149.826 Y80.891 E65.75907
G1 X150.038 Y81.618 E65.83064
G1 X150.172 Y82.364 E65.90226
G1 X150.228 Y83.258 E65.98691
G1 X150.228 Y94.437 E67.04333
G1 X152.945 Y95.425 E67.31653
G1 X153.642 Y95.721 E67.38809
G1 X154.304 Y96.089 E67.45967
G1 X154.924 Y96.525 E67.53129
G1 X155.494 Y97.024 E67.60288
G1 X156.008 Y97.58 E67.67444
G1 X156.389 Y98.08 E67.73384
G1 X156.848 Y98.813 E67.81557
G1 X157.176 Y99.495 E67.88709
G1 X157.43 Y100.209 E67.9587
G1 X157.607 Y100.945 E68.03024
G1 X157.706 Y101.696 E68.10182
G1 X157.728 Y102.256 E68.15478
G1 X157.728 Y104.062 E68.32545
G1 X157.688 Y104.818 E68.39699
G1 X157.569 Y105.566 E68.46856
G1 X157.371 Y106.297 E68.54013
G1 X157.097 Y107.004 E68.61179
G1 X156.751 Y107.677 E68.6833
G1 X156.624 Y107.878 E68.70577
G1 X156.884 Y108.308 E68.75325
G1 X157.205 Y108.995 E68.82491
G1 X157.451 Y109.711 E68.89645
G1 X157.621 Y110.449 E68.96802
G1 X157.712 Y111.201 E69.0396
G1 X157.728 Y111.684 E69.08527
G1 X157.728 Y113.489 E69.25585
G1 X157.688 Y114.245 E69.32739
G1 X157.569 Y114.993 E69.39896
G1 X157.371 Y115.724 E69.47053
G1 X157.097 Y116.431 E69.54218
G1 X156.751 Y117.104 E69.6137
G1 X156.625 Y117.3 E69.63571
G1 X156.893 Y117.747 E69.68497
G1 X157.211 Y118.434 E69.75651
G1 X157.456 Y119.15 E69.82802
G1 X157.624 Y119.889 E69.89964
G1 X157.713 Y120.641 E69.9712
G1 X157.728 Y122.914 E70.186
G1 X157.688 Y123.67 E70.25754
G1 X157.569 Y124.418 E70.32912
G1 X157.371 Y125.149 E70.40069
G1 X157.097 Y125.856 E70.47234
G1 X156.751 Y126.529 E70.54385
G1 X156.625 Y126.725 E70.56587
G1 X156.893 Y127.172 E70.61512
G1 X157.211 Y127.859 E70.68666
G1 X157.456 Y128.575 E70.75817
G1 X157.624 Y129.314 E70.82979
G1 X157.713 Y130.066 E70.90135
G1 X157.728 Y132.336 E71.11587
G1 X157.688 Y133.092 E71.18741
G1 X157.569 Y133.84 E71.25899
G1 X157.371 Y134.571 E71.33056
G1 X157.097 Y135.278 E71.40221
G1 X156.751 Y135.951 E71.47372
G1 X156.625 Y136.152 E71.49614
G1 X156.893 Y136.598 E71.54531
G1 X157.211 Y137.285 E71.61685
G1 X157.456 Y138.001 E71.68836
G1 X157.624 Y138.74 E71.75998
G1 X157.713 Y139.492 E71.83154
G1 X157.728 Y141.764 E72.04625
G1 X157.688 Y142.52 E72.11779
G1 X157.569 Y143.268 E72.18937
G1 X157.371 Y143.999 E72.26093
G1 X157.097 Y144.706 E72.33259
G1 X156.751 Y145.379 E72.4041
G1 X156.46 Y145.837 E72.45538
G1 X155.937 Y146.524 E72.53697
G1 X155.414 Y147.072 E72.60856
G1 X154.837 Y147.562 E72.68009
G1 X154.21 Y147.988 E72.75173
G1 X153.543 Y148.346 E72.82326
G1 X152.942 Y148.595 E72.88474
G1 X145.506 Y151.295 E73.63233
G1 X144.781 Y151.516 E73.70395
G1 X144.038 Y151.659 E73.77546
G1 X143.057 Y151.726 E73.86838
G1 X133.206 Y151.726 E74.7993
G1 X132.45 Y151.686 E74.87084
G1 X131.702 Y151.567 E74.94241
G1 X130.971 Y151.369 E75.01398
G1 X130.264 Y151.095 E75.08563
G1 X129.591 Y150.749 E75.15715
G1 X128.958 Y150.333 E75.22873
G1 X128.133 Y149.624 E75.33152
G1 X127.523 Y148.958 E75.41687
G1 X127.079 Y148.345 E75.4884
G1 X126.701 Y147.688 E75.56003
G1 X126.395 Y146.996 E75.63153
G1 X126.164 Y146.274 E75.70316
G1 X126.01 Y145.533 E75.77468
G1 X125.928 Y144.448 E75.87751
G1 X125.928 Y111.682 E78.9739
G1 X112.569 Y103.971 E80.43153
G1 X111.934 Y103.558 E80.50312
G1 X111.346 Y103.081 E80.57467
G1 X110.812 Y102.544 E80.64623
G1 X110.337 Y101.954 E80.71781
G1 X109.927 Y101.318 E80.78932
G1 X109.586 Y100.641 E80.86095
G1 X109.319 Y99.933 E80.93246
G1 X109.128 Y99.2 E81.00404
G1 X109.015 Y98.451 E81.07562
G1 X108.985 Y97.777 E81.13938
G1 X75.415 Y103.697 E84.36069
G1 X74.663 Y103.789 E84.43229
G1 X73.906 Y103.801 E84.50383
G1 X73.152 Y103.734 E84.57537
G1 X72.409 Y103.587 E84.64694
G1 X71.685 Y103.362 E84.71859
G1 X70.99 Y103.063 E84.79009
G1 X70.051 Y102.507 E84.89321
G1 X69.338 Y101.958 E84.97825
G1 X68.794 Y101.431 E85.04982
G1 X68.308 Y100.849 E85.12148
G1 X67.887 Y100.22 E85.193
G1 X67.535 Y99.55 E85.26452
G1 X67.255 Y98.846 E85.33612
G1 X66.986 Y97.795 E85.43864
G1 X66.55 Y95.323 E85.67585
G1 X66.458 Y94.572 E85.74735
G1 X66.446 Y93.814 E85.81899
G1 X66.513 Y93.06 E85.89052
G1 X66.66 Y92.317 E85.9621
G1 X66.885 Y91.594 E86.03365
G1 X67.184 Y90.898 E86.10524
G1 X67.74 Y89.959 E86.20836
G1 X68.289 Y89.246 E86.2934
G1 X68.816 Y88.702 E86.36498
G1 X69.398 Y88.216 E86.43663
G0 F4500 X69.651 Y88.464
G1 F1800 X70.269 Y88.059 E86.50645
G1 X70.927 Y87.723 E86.57627
G1 X71.617 Y87.46 E86.64605
G1 X72.513 Y87.239 E86.73326
